<?xml version="1.0" encoding="UTF-8"?>
<map version="1.10" tiledversion="1.12.0" orientation="orthogonal" renderorder="right-down" width="4" height="4" tilewidth="16" tileheight="16" infinite="0" nextlayerid="9" nextobjectid="1">
 <tileset firstgid="1" source=":/automap-tiles.tsx"/>
 <tileset firstgid="6" source="../tileset template.tsx"/>
 <layer id="1" name="input_ground" width="4" height="4" opacity="0.71">
  <data encoding="csv">
0,0,0,0,
0,3,0,0,
0,0,0,0,
0,0,0,0
</data>
 </layer>
 <layer id="2" name="output_ground" width="4" height="4">
  <data encoding="csv">
0,0,0,0,
0,4,0,0,
0,0,0,0,
0,0,0,0
</data>
 </layer>
 <layer id="3" name="input_temp" width="4" height="4" opacity="0.8">
  <data encoding="csv">
0,0,0,0,
0,0,0,0,
0,0,0,0,
0,3,0,0
</data>
 </layer>
 <layer id="4" name="output_temp" width="4" height="4">
  <data encoding="csv">
0,0,0,0,
0,0,0,0,
0,0,0,0,
0,4,0,0
</data>
 </layer>
</map>
