<?xml version="1.0" encoding="UTF-8"?>
<map version="1.10" tiledversion="1.12.0" orientation="orthogonal" renderorder="right-down" width="4" height="4" tilewidth="16" tileheight="16" infinite="1" nextlayerid="4" nextobjectid="1">
 <tileset firstgid="1" source="../tangled incomplete tileset.tsx"/>
 <tileset firstgid="581" source=":/automap-tiles.tsx"/>
 <layer id="1" name="input_ground" width="4" height="4">
  <data encoding="csv">
   <chunk x="0" y="0" width="16" height="16">
0,105,0,0,0,105,0,0,105,105,0,0,0,105,105,0,
105,105,105,0,105,105,105,0,105,105,105,0,105,105,105,0,
0,105,105,0,105,105,0,0,0,105,0,0,0,105,0,0,
0,0,0,0,0,0,0,0,0,0,0,0,0,0,0,0,
0,0,0,0,105,0,0,0,105,0,0,0,105,0,0,0,
105,105,105,0,105,105,0,105,105,105,0,105,105,0,0,0,
0,105,0,0,105,0,0,0,0,0,0,0,105,0,0,0,
0,0,0,0,0,0,0,0,0,0,0,0,0,0,0,0,
0,105,105,0,105,105,0,0,0,0,0,0,0,0,0,0,
0,105,105,0,105,105,0,0,0,0,0,0,0,0,0,0,
0,0,0,0,0,0,0,0,0,0,0,0,0,0,0,0,
0,0,0,0,0,0,0,0,0,0,0,0,0,0,0,0,
0,0,0,0,0,0,0,0,0,0,0,0,0,0,0,0,
0,0,0,0,0,0,0,0,0,0,0,0,0,0,0,0,
0,0,0,0,0,0,0,0,0,0,0,0,0,0,0,0,
0,0,0,0,0,0,0,0,0,0,0,0,0,0,0,0
</chunk>
  </data>
 </layer>
 <layer id="3" name="input_ground" width="4" height="4">
  <data encoding="csv">
   <chunk x="0" y="0" width="16" height="16">
0,581,0,0,0,581,0,0,0,0,0,0,0,0,0,0,
581,581,0,0,0,581,581,0,0,581,581,0,581,581,0,0,
0,0,0,0,0,0,0,0,0,581,0,0,0,581,0,0,
0,0,0,0,0,0,0,0,0,0,0,0,0,0,0,0,
0,0,0,0,581,0,0,0,0,0,0,0,581,0,0,0,
581,581,581,0,581,0,0,581,581,581,0,0,581,0,0,0,
0,0,0,0,581,0,0,0,0,0,0,0,581,0,0,0,
0,0,0,0,0,0,0,0,0,0,0,0,0,0,0,0,
0,0,581,0,581,0,0,0,0,0,0,0,0,0,0,0,
0,581,0,0,0,581,0,0,0,0,0,0,0,0,0,0,
0,0,0,0,0,0,0,0,0,0,0,0,0,0,0,0,
0,0,0,0,0,0,0,0,0,0,0,0,0,0,0,0,
0,0,0,0,0,0,0,0,0,0,0,0,0,0,0,0,
0,0,0,0,0,0,0,0,0,0,0,0,0,0,0,0,
0,0,0,0,0,0,0,0,0,0,0,0,0,0,0,0,
0,0,0,0,0,0,0,0,0,0,0,0,0,0,0,0
</chunk>
  </data>
 </layer>
 <layer id="2" name="output_ground" width="4" height="4" opacity="0.81">
  <data encoding="csv">
   <chunk x="0" y="0" width="16" height="16">
0,0,0,0,0,0,0,0,0,0,0,0,0,0,0,0,
0,177,0,0,0,171,0,0,0,51,0,0,0,57,0,0,
0,0,0,0,0,0,0,0,0,0,0,0,0,0,0,0,
0,0,0,0,0,0,0,0,0,0,0,0,0,0,0,0,
0,0,0,0,0,0,0,0,0,0,0,0,0,0,0,0,
0,194,0,0,117,0,0,0,54,0,0,0,111,0,0,0,
0,0,0,0,0,0,0,0,0,0,0,0,0,0,0,0,
0,0,0,0,0,0,0,0,0,0,0,0,0,0,0,0,
0,0,171,0,177,0,0,0,0,0,0,0,0,0,0,0,
0,57,0,0,0,51,0,0,0,0,0,0,0,0,0,0,
0,0,0,0,0,0,0,0,0,0,0,0,0,0,0,0,
0,0,0,0,0,0,0,0,0,0,0,0,0,0,0,0,
0,0,0,0,0,0,0,0,0,0,0,0,0,0,0,0,
0,0,0,0,0,0,0,0,0,0,0,0,0,0,0,0,
0,0,0,0,0,0,0,0,0,0,0,0,0,0,0,0,
0,0,0,0,0,0,0,0,0,0,0,0,0,0,0,0
</chunk>
  </data>
 </layer>
</map>
