<?xml version="1.0" encoding="UTF-8"?>
<map version="1.10" tiledversion="1.12.0" orientation="orthogonal" renderorder="right-down" width="4" height="4" tilewidth="16" tileheight="16" infinite="1" nextlayerid="4" nextobjectid="1">
 <tileset firstgid="1" source="../tileset template.tsx"/>
 <tileset firstgid="51" source="../tangled incomplete tileset.tsx"/>
 <layer id="1" name="template" width="4" height="4">
  <data encoding="csv">
   <chunk x="-128" y="-112" width="16" height="16">
0,0,0,0,0,0,0,0,0,0,0,0,0,0,0,0,
0,0,0,0,0,0,0,0,0,0,0,0,0,0,0,0,
0,0,0,0,0,0,0,0,0,0,0,0,0,0,0,0,
0,0,0,0,0,0,0,0,0,0,0,0,0,0,0,0,
0,0,0,0,0,0,0,0,0,0,0,0,0,0,0,0,
0,0,0,0,0,0,0,0,0,0,0,0,0,0,0,0,
0,0,0,0,0,0,0,0,0,0,0,0,0,0,0,0,
0,0,0,0,0,0,0,0,0,0,0,0,0,0,0,0,
0,0,0,0,0,0,0,0,0,0,0,0,0,0,0,0,
0,0,0,0,0,0,0,0,0,0,0,0,0,0,0,0,
0,0,0,0,0,0,0,0,0,0,0,0,0,0,0,0,
0,0,0,0,0,0,0,0,0,0,0,0,0,0,0,0,
0,0,0,0,0,0,0,0,0,0,0,0,0,0,0,0,
0,0,0,0,0,0,0,0,0,0,0,0,0,0,0,0,
0,0,0,0,0,0,0,0,0,0,0,0,0,0,0,0,
0,0,0,0,0,0,0,0,0,0,12,12,12,12,12,0
</chunk>
   <chunk x="-112" y="-112" width="16" height="16">
0,0,0,0,0,0,0,0,0,0,0,0,0,0,0,0,
0,0,0,0,0,0,0,0,0,0,0,0,0,0,0,0,
0,0,0,0,0,0,0,0,0,0,0,0,0,0,0,0,
0,0,0,0,0,0,0,0,0,0,0,0,0,0,0,0,
0,0,0,0,0,0,0,0,0,0,0,0,0,0,0,0,
0,0,0,0,0,0,0,0,0,0,0,0,0,0,0,0,
0,0,0,0,0,0,0,0,0,0,0,0,0,0,0,0,
0,0,0,0,0,0,0,0,0,0,0,0,0,0,0,0,
0,0,0,0,0,0,0,0,0,0,0,0,0,0,0,0,
0,0,0,0,0,0,0,0,0,0,0,0,0,0,0,0,
0,0,0,0,0,0,0,0,0,0,0,0,0,0,0,0,
0,0,0,0,0,0,0,0,0,0,0,0,0,0,0,0,
0,0,0,0,0,0,0,0,0,0,0,0,0,0,0,0,
0,0,0,0,0,0,0,0,0,0,0,0,0,0,0,0,
0,0,0,0,0,0,0,0,0,0,0,0,0,0,0,0,
0,0,0,0,0,0,0,0,92,92,92,92,0,0,0,12
</chunk>
   <chunk x="-96" y="-112" width="16" height="16">
0,0,0,0,0,0,0,0,0,0,0,0,0,0,0,0,
0,0,0,0,0,0,0,0,0,0,0,0,0,0,0,0,
0,0,0,0,0,0,0,0,0,0,0,0,0,0,0,0,
0,0,0,0,0,0,0,0,0,0,0,0,0,0,0,0,
0,0,0,0,0,0,0,0,0,0,0,0,0,0,0,0,
0,0,0,0,0,0,0,0,0,0,0,0,0,0,0,0,
0,0,0,0,0,0,0,0,0,0,0,0,0,0,0,0,
0,0,0,0,0,0,0,0,0,0,0,0,0,0,0,0,
0,0,0,0,0,0,0,0,0,0,0,0,0,0,0,0,
0,0,0,0,0,0,0,0,0,0,0,0,0,0,0,0,
0,0,0,0,0,0,0,0,0,0,0,0,0,0,0,0,
0,0,0,0,0,0,0,0,0,0,0,0,0,0,0,0,
0,0,0,0,0,0,0,0,0,0,0,0,0,0,0,0,
0,0,0,0,0,0,0,0,0,0,0,0,0,0,0,0,
0,0,0,0,0,0,0,0,0,0,0,0,0,0,0,0,
12,12,92,92,92,92,93,0,0,0,0,0,0,0,0,0
</chunk>
   <chunk x="-128" y="-96" width="16" height="16">
0,0,0,0,0,0,0,0,0,0,12,12,12,12,12,12,
0,0,0,0,0,0,0,0,0,0,12,12,12,12,12,12,
0,0,0,0,0,0,0,0,0,0,12,12,12,12,12,12,
0,0,0,0,0,0,0,0,0,0,12,12,12,12,12,12,
0,0,0,0,0,0,0,0,0,0,12,12,12,12,12,12,
0,0,0,0,0,0,0,0,0,0,12,12,12,12,12,12,
0,0,0,0,0,0,0,0,0,0,12,12,12,12,12,12,
0,0,0,0,0,0,0,0,0,0,12,12,12,12,12,12,
0,0,0,0,0,0,0,0,0,0,0,0,0,0,0,12,
0,0,0,0,0,0,0,0,0,0,0,0,0,0,0,12,
0,0,0,0,0,0,0,0,0,0,0,0,0,0,0,12,
0,0,0,0,0,0,0,0,0,0,0,0,0,0,0,12,
0,0,0,0,0,0,0,0,0,0,0,0,0,0,0,12,
0,0,0,0,0,0,0,0,0,0,0,0,0,0,0,12,
0,0,0,0,0,0,0,0,0,0,0,0,0,0,0,12,
0,0,0,0,0,0,0,0,0,0,0,0,0,0,0,12
</chunk>
   <chunk x="-112" y="-96" width="16" height="16">
12,12,12,12,12,0,0,0,12,12,12,12,12,12,12,12,
12,12,12,12,12,0,0,0,12,12,12,12,12,12,12,12,
12,12,12,12,12,0,0,0,12,12,12,12,12,12,12,12,
12,12,12,12,12,0,0,0,12,12,12,12,12,12,12,12,
12,12,12,12,12,0,0,0,12,12,12,12,12,12,12,12,
12,12,12,12,12,0,0,0,12,12,12,12,12,12,12,12,
12,12,12,12,12,0,0,0,12,12,12,12,12,12,12,12,
12,12,12,12,12,0,0,0,12,12,12,12,12,12,12,12,
12,12,12,12,12,0,0,0,12,12,12,12,12,12,0,0,
12,12,12,12,12,0,0,0,12,12,12,12,12,12,0,0,
12,12,12,12,12,0,0,0,12,12,12,12,12,12,0,0,
12,12,12,12,12,0,0,0,12,12,12,12,12,12,0,0,
12,12,12,12,12,0,0,0,12,12,12,12,12,12,0,0,
12,12,12,12,12,0,0,0,0,0,0,0,0,0,0,0,
12,12,12,12,12,0,0,0,0,0,0,0,0,0,0,0,
12,12,12,12,12,0,0,0,0,0,0,0,0,0,0,0
</chunk>
   <chunk x="-96" y="-96" width="16" height="16">
12,12,12,12,12,12,12,0,0,0,0,0,0,0,0,0,
12,12,12,12,12,12,12,0,0,0,0,0,0,0,0,0,
12,12,12,12,12,12,12,0,0,0,0,0,0,0,0,0,
12,12,12,12,12,12,12,0,0,0,0,0,0,0,0,0,
12,12,12,12,12,12,12,0,0,0,0,0,0,0,0,0,
12,12,12,12,12,12,12,0,0,0,0,0,0,0,0,0,
12,0,0,0,0,12,12,0,0,0,0,0,0,0,0,0,
12,0,0,0,0,0,0,0,0,0,0,0,0,0,0,0,
0,0,0,0,0,0,0,0,0,0,0,0,0,0,0,0,
0,0,0,0,0,0,0,0,0,0,0,0,0,0,0,0,
0,0,0,0,0,0,0,0,0,0,0,0,0,0,0,0,
0,0,0,0,0,0,0,0,0,0,0,0,0,0,0,0,
0,0,0,0,0,0,0,0,0,0,0,0,0,0,0,0,
0,0,0,0,0,0,0,0,0,0,0,0,0,0,0,0,
0,0,0,0,0,0,0,0,0,0,0,0,0,0,0,0,
0,0,0,0,0,0,0,0,0,0,0,0,0,0,0,0
</chunk>
   <chunk x="-128" y="-80" width="16" height="16">
0,0,0,0,0,0,0,0,0,0,0,0,0,0,0,12,
0,0,0,0,0,0,0,0,0,0,0,0,0,0,0,12,
0,0,0,0,0,0,0,0,0,0,0,0,0,0,0,12,
0,0,0,0,0,0,0,0,0,0,0,0,0,0,0,12,
0,0,0,0,0,0,0,0,0,0,0,0,0,0,0,12,
0,0,0,0,0,0,0,0,0,0,0,0,0,0,0,12,
0,0,0,0,0,0,0,0,0,0,0,0,0,0,0,12,
0,0,0,0,0,0,0,0,0,0,0,0,0,0,0,0,
0,0,0,0,0,0,0,0,0,0,0,0,0,0,0,0,
0,0,0,0,0,0,0,0,0,0,0,0,0,0,0,0,
0,0,0,0,0,0,0,0,0,0,0,0,0,0,0,0,
0,0,0,0,0,0,0,0,0,0,0,0,0,0,0,0,
0,0,0,0,0,0,0,0,0,0,0,0,0,0,0,0,
0,0,0,0,0,0,0,0,0,0,0,0,0,0,0,0,
0,0,0,0,0,0,0,0,0,0,0,0,0,0,0,0,
0,0,0,0,0,0,0,0,0,0,0,0,0,0,0,0
</chunk>
   <chunk x="-112" y="-80" width="16" height="16">
12,12,12,12,12,0,0,0,0,0,0,0,0,0,0,0,
12,12,12,12,12,0,0,0,0,0,0,0,0,0,0,0,
12,12,12,12,12,12,0,0,0,0,0,0,0,0,0,0,
12,12,12,12,12,12,0,0,0,0,0,0,0,0,0,0,
12,12,12,12,12,12,0,0,0,0,0,0,0,0,0,0,
12,12,12,12,12,12,0,0,0,0,0,0,0,0,0,0,
12,12,12,12,12,12,12,0,0,0,0,0,0,0,0,0,
12,12,12,12,12,12,12,12,0,0,0,0,0,0,0,0,
12,12,12,12,12,12,12,12,0,0,0,0,0,0,0,12,
12,12,12,12,12,12,12,12,12,0,0,0,0,0,0,12,
12,12,12,12,12,12,12,12,12,12,0,0,0,0,0,12,
0,12,12,12,12,12,12,12,12,12,0,0,0,0,0,12,
0,0,12,12,12,12,12,12,12,12,0,0,0,0,0,12,
0,0,12,12,12,12,12,12,12,12,0,0,0,0,0,12,
0,12,12,12,12,12,12,12,12,12,0,0,0,0,0,12,
0,12,12,12,12,0,0,0,0,0,0,0,0,0,0,12
</chunk>
   <chunk x="-96" y="-80" width="16" height="16">
0,0,0,0,0,0,0,0,0,0,0,0,0,0,0,0,
12,12,0,0,0,0,0,0,0,0,0,0,0,0,0,0,
12,12,0,0,0,0,0,0,0,0,0,0,0,0,0,0,
12,12,12,12,12,0,0,0,0,0,0,0,0,0,0,0,
12,12,12,12,12,0,0,0,0,0,0,0,0,0,0,0,
12,12,12,12,12,0,0,0,0,0,0,0,0,0,0,0,
12,12,12,12,12,0,0,0,0,0,0,0,0,0,0,0,
12,12,12,12,12,0,0,0,0,0,0,0,0,0,0,0,
12,12,12,12,12,0,0,0,0,0,0,0,0,0,0,0,
12,12,12,12,12,0,0,0,0,0,0,0,0,0,0,0,
12,12,12,12,12,0,0,0,0,0,0,0,0,0,0,0,
12,12,12,12,12,0,0,0,0,0,0,0,0,0,0,0,
12,12,12,12,12,0,0,0,0,0,0,0,0,0,0,0,
12,12,12,12,12,0,0,0,0,0,0,0,0,0,0,0,
12,12,12,12,12,0,0,0,0,0,0,0,0,0,0,0,
12,12,12,12,12,0,0,0,0,0,0,0,0,0,0,0
</chunk>
   <chunk x="-128" y="-64" width="16" height="16">
0,0,0,0,0,0,0,0,0,0,0,0,0,0,0,0,
0,0,0,0,0,0,0,0,0,0,0,0,0,0,0,0,
0,0,0,0,0,0,0,0,0,0,0,0,0,0,0,0,
0,0,0,0,0,0,0,0,0,0,0,0,0,0,0,12,
0,0,0,0,0,0,0,0,0,0,0,0,0,12,12,12,
0,0,0,0,0,0,0,0,0,0,0,0,0,12,12,12,
0,0,0,0,0,0,0,0,0,0,0,0,0,12,12,12,
0,0,0,0,0,0,0,0,0,0,0,0,0,0,0,12,
0,0,0,0,0,0,0,0,0,0,0,0,0,0,0,0,
0,0,0,0,0,0,0,0,0,0,0,0,0,0,0,0,
0,0,0,0,0,0,0,0,0,0,0,0,0,0,0,0,
0,0,0,0,0,0,0,0,0,0,0,0,0,0,0,0,
0,0,0,0,0,0,0,0,0,0,0,0,0,0,0,0,
0,0,0,0,0,0,0,0,0,0,0,0,0,0,0,0,
0,0,0,0,0,0,0,0,0,0,0,0,0,0,0,0,
0,0,0,0,0,0,0,0,0,0,0,0,0,0,0,0
</chunk>
   <chunk x="-112" y="-64" width="16" height="16">
0,12,12,12,12,0,0,0,0,0,0,0,0,0,0,12,
0,12,12,12,12,0,0,0,0,0,0,0,0,0,0,12,
12,12,12,12,12,0,0,0,0,0,0,0,0,0,0,12,
12,12,12,12,12,0,0,0,0,0,0,0,0,0,0,12,
12,12,12,12,12,0,0,0,0,0,0,0,0,0,0,12,
12,12,12,12,12,0,0,0,0,0,0,0,0,0,0,12,
12,12,12,12,12,0,0,0,0,0,0,0,0,0,0,0,
12,12,12,12,12,0,0,0,0,0,0,0,0,0,0,0,
12,12,12,12,12,12,12,12,12,12,12,0,0,0,0,0,
0,12,12,12,12,12,12,12,12,12,12,0,0,0,0,0,
0,12,12,12,12,12,12,12,12,12,12,0,0,0,0,0,
0,0,0,0,12,12,12,12,12,12,12,0,0,0,0,0,
0,0,0,12,12,12,12,12,12,12,12,0,0,0,0,0,
0,0,12,12,12,12,12,12,12,12,12,0,0,0,0,0,
0,12,12,12,12,12,12,12,12,12,12,0,0,0,0,0,
12,12,12,12,12,12,12,12,12,12,12,0,0,0,0,12
</chunk>
   <chunk x="-96" y="-64" width="16" height="16">
12,12,12,12,12,0,0,0,0,0,0,0,0,0,0,0,
12,12,12,12,12,12,0,0,0,0,0,0,0,0,0,0,
12,12,12,12,12,12,0,0,0,0,0,0,0,0,0,0,
12,12,12,12,12,12,12,0,0,0,0,0,0,0,0,0,
12,12,12,12,12,12,12,0,0,0,0,0,0,0,0,0,
12,12,12,12,12,12,12,12,0,0,0,0,0,0,0,0,
12,12,12,12,12,12,12,12,12,0,0,0,0,0,0,0,
12,12,12,12,12,12,12,12,12,0,0,0,0,0,0,0,
12,12,12,12,12,12,12,12,12,12,0,0,0,0,0,0,
12,12,12,12,12,12,12,12,12,12,12,0,0,0,0,0,
12,12,12,12,12,12,12,12,12,12,12,0,0,0,0,0,
0,0,0,0,0,0,12,12,12,12,12,12,0,0,0,0,
0,0,0,0,0,0,0,12,12,12,12,12,0,0,0,0,
0,0,0,0,0,0,0,12,12,12,12,12,12,0,0,0,
0,0,0,0,0,0,0,12,12,12,12,12,12,0,0,0,
12,12,12,12,12,12,12,12,12,12,12,12,12,12,0,0
</chunk>
   <chunk x="32" y="-64" width="16" height="16">
0,0,0,0,0,0,0,0,0,0,0,0,0,0,0,0,
0,0,0,0,0,0,0,0,0,0,0,0,0,0,0,0,
0,0,0,0,0,0,0,0,0,0,0,0,0,0,0,0,
0,0,0,0,0,0,0,0,0,0,0,0,0,0,0,0,
0,0,0,0,0,0,0,0,0,0,0,0,0,0,0,0,
0,0,0,0,0,0,0,0,0,0,0,0,0,0,0,0,
0,0,0,0,0,0,0,0,0,0,0,0,0,0,0,0,
0,0,0,0,0,0,0,0,0,0,0,0,0,0,0,0,
0,0,0,0,0,0,0,0,0,0,0,0,0,0,0,0,
0,0,0,0,0,0,0,0,0,0,0,0,0,0,0,0,
0,0,0,0,0,0,0,0,0,0,0,0,0,0,0,0,
0,0,0,0,0,0,0,0,0,0,0,0,0,0,0,0,
0,0,0,0,0,0,0,0,0,0,12,12,12,12,0,0,
0,0,0,0,0,0,12,12,12,12,12,12,12,12,12,12,
0,0,0,0,12,12,12,12,12,12,12,12,12,12,12,12,
0,0,0,12,12,12,12,12,12,12,12,12,12,12,12,12
</chunk>
   <chunk x="48" y="-64" width="16" height="16">
0,0,0,0,0,0,0,0,0,0,0,0,0,0,0,0,
0,0,0,0,0,0,0,0,0,0,0,0,0,0,0,0,
0,0,0,0,0,0,0,0,0,0,0,0,0,0,0,0,
0,0,0,0,0,0,0,0,0,0,0,0,0,0,0,0,
0,0,0,0,0,0,0,0,0,0,0,0,0,0,0,0,
0,0,0,0,0,0,0,0,0,0,0,0,0,0,0,0,
0,0,0,0,0,0,0,0,0,0,0,0,0,0,0,0,
0,0,0,0,0,0,0,0,0,0,0,0,0,0,0,0,
0,0,0,0,0,0,0,0,0,0,0,0,0,0,0,0,
0,0,0,0,0,0,0,0,0,0,0,0,0,0,0,0,
0,0,0,0,0,0,0,0,0,0,0,0,0,0,0,0,
0,0,0,0,0,0,0,0,0,0,0,0,0,0,0,0,
0,0,0,0,0,0,0,0,0,0,0,0,0,0,0,0,
12,12,12,12,12,12,12,12,12,0,0,0,0,0,0,0,
12,12,12,12,12,12,12,12,12,0,0,0,0,0,0,0,
12,12,12,12,12,12,12,12,12,0,0,0,0,0,0,0
</chunk>
   <chunk x="-128" y="-48" width="16" height="16">
0,0,0,0,0,0,0,0,0,0,0,0,0,0,0,0,
0,0,0,0,0,0,0,0,0,0,0,0,0,0,0,0,
0,0,0,0,0,0,0,0,0,0,0,0,0,0,0,0,
0,0,0,0,0,0,0,0,0,0,0,0,0,0,0,0,
0,0,0,0,0,0,0,0,0,0,0,0,0,0,0,0,
0,0,0,0,0,0,0,0,0,0,0,0,0,0,0,0,
0,0,0,0,0,0,0,0,0,0,0,0,0,0,0,0,
0,0,0,0,0,0,0,0,0,0,0,0,0,0,0,0,
0,0,0,0,0,0,0,0,0,0,0,0,0,0,0,0,
0,0,0,0,0,0,0,0,0,0,0,0,0,0,0,0,
0,0,0,0,0,0,0,0,0,0,0,0,0,0,0,0,
0,0,0,0,0,0,0,0,0,0,0,0,0,0,0,0,
0,0,0,0,0,0,0,0,0,0,0,0,0,0,0,0,
0,0,0,0,0,0,0,0,0,0,0,0,0,0,0,0,
0,0,0,0,0,0,0,0,0,0,0,0,0,0,0,12,
0,0,0,0,0,0,0,0,0,0,0,0,0,0,0,12
</chunk>
   <chunk x="-112" y="-48" width="16" height="16">
12,12,12,12,12,12,12,12,12,12,12,0,0,0,0,12,
12,12,12,12,12,12,12,12,12,12,12,0,0,0,0,12,
12,12,12,12,12,12,12,12,12,12,12,0,0,0,0,12,
12,12,12,12,12,12,12,12,12,12,12,0,0,0,0,12,
12,12,12,12,12,12,12,12,12,12,12,0,0,0,0,12,
12,12,12,12,12,12,12,12,12,12,12,12,0,0,0,12,
0,0,12,12,12,12,12,12,12,12,12,12,0,0,0,12,
0,0,12,12,12,12,12,12,12,12,12,12,0,0,0,12,
0,0,12,12,12,12,12,12,12,12,12,12,12,0,0,12,
0,0,12,12,12,12,12,12,12,12,12,12,12,0,0,0,
0,12,12,12,12,12,12,12,12,12,12,12,12,0,0,0,
0,12,12,12,12,12,12,12,12,12,12,12,12,0,0,12,
0,12,12,12,12,12,12,12,12,12,12,12,12,0,0,12,
12,12,12,12,12,12,12,12,12,12,12,12,12,0,0,0,
12,12,12,12,12,12,12,12,12,12,12,12,0,0,0,0,
12,12,12,12,12,12,12,12,12,12,12,12,12,12,0,0
</chunk>
   <chunk x="-96" y="-48" width="16" height="16">
12,12,12,12,12,12,12,12,12,12,12,12,12,12,0,0,
12,12,12,12,12,12,12,12,12,12,12,12,12,12,0,0,
12,12,12,12,12,12,12,12,12,12,12,12,12,12,0,0,
12,12,12,12,12,12,12,12,12,12,12,12,12,12,0,0,
12,12,12,12,12,12,12,12,12,12,12,12,12,12,0,0,
12,12,12,12,12,12,12,12,12,12,12,12,12,12,12,0,
12,12,12,12,12,12,12,12,12,12,12,12,12,12,12,0,
12,12,12,12,12,12,12,12,12,12,12,12,12,12,12,0,
12,12,12,12,12,12,12,12,12,12,12,12,12,12,12,12,
12,12,12,12,12,12,12,12,12,12,12,12,12,12,12,12,
0,12,12,12,12,12,12,12,12,12,12,12,12,12,12,12,
12,12,12,12,12,12,12,12,12,12,12,12,12,12,12,12,
12,12,12,12,12,12,12,12,12,12,12,12,12,12,12,12,
12,12,12,12,12,12,12,12,12,12,12,12,12,12,0,12,
0,12,12,12,12,12,12,12,12,12,12,12,12,12,0,12,
0,12,12,12,12,0,0,12,12,12,12,12,12,12,0,0
</chunk>
   <chunk x="-80" y="-48" width="16" height="16">
0,0,0,0,0,0,0,0,0,0,0,0,0,0,0,0,
0,0,0,0,0,0,0,0,0,0,0,0,0,0,0,0,
0,0,0,0,0,0,0,0,0,0,0,0,0,0,0,0,
0,0,0,0,0,0,0,0,0,0,0,0,0,0,0,0,
0,0,0,0,0,0,0,0,0,0,0,0,0,0,0,0,
0,0,0,0,0,0,0,0,0,0,0,0,0,0,0,0,
0,0,0,0,0,0,0,0,0,0,0,0,0,0,0,0,
0,0,0,0,0,0,0,0,0,0,0,0,0,0,0,0,
0,0,0,0,0,0,0,0,0,0,0,0,0,0,0,0,
0,0,0,0,0,0,0,0,0,0,0,0,0,0,0,0,
12,0,0,0,0,0,0,0,0,0,0,0,0,0,0,0,
12,0,0,0,0,0,0,0,0,0,0,0,0,0,0,0,
12,12,0,0,0,0,0,0,0,0,0,0,0,0,0,0,
12,12,12,0,0,0,0,0,0,0,0,0,0,0,0,0,
12,12,12,12,0,0,0,0,0,0,0,0,0,0,0,0,
12,12,12,12,12,12,0,0,0,0,0,0,0,0,0,0
</chunk>
   <chunk x="0" y="-48" width="16" height="16">
0,0,0,0,0,0,0,0,0,0,0,0,0,0,0,0,
0,0,0,0,0,0,0,0,0,0,0,0,0,0,0,0,
0,0,0,0,0,0,0,0,0,0,0,0,0,0,0,0,
0,0,0,0,0,0,0,0,0,0,0,0,0,0,0,0,
0,0,0,0,0,0,0,0,0,0,0,0,0,0,0,0,
0,0,0,0,0,0,0,0,0,0,0,0,0,0,0,0,
0,0,0,0,0,0,0,0,0,0,0,0,0,0,0,0,
0,0,0,0,0,0,0,0,0,0,0,0,0,0,0,0,
0,0,0,0,0,0,0,0,0,0,0,0,0,0,0,0,
0,0,0,0,0,0,0,0,0,0,0,0,0,0,0,0,
0,0,0,0,0,0,0,0,0,0,0,0,0,0,0,0,
0,0,0,0,0,0,0,0,0,0,0,0,0,0,0,0,
0,0,0,0,0,0,0,0,0,0,0,0,0,0,0,0,
0,0,0,0,0,0,0,0,0,0,0,0,0,0,0,0,
0,0,0,0,0,0,0,0,0,0,0,0,0,0,0,0,
0,0,0,0,0,0,0,0,0,0,0,0,0,0,0,12
</chunk>
   <chunk x="16" y="-48" width="16" height="16">
0,0,0,0,0,0,0,0,0,0,0,0,0,0,0,0,
0,0,0,0,0,0,0,0,0,0,0,0,0,0,0,0,
0,0,0,0,0,0,0,0,0,0,0,0,0,0,0,0,
0,0,0,0,0,0,0,0,0,0,0,0,0,0,0,0,
0,0,0,0,0,0,0,0,0,0,0,0,0,0,0,0,
0,0,0,0,0,0,0,0,0,0,0,0,0,0,0,12,
0,0,0,0,0,0,0,0,0,0,0,0,0,0,12,12,
0,0,0,0,0,0,0,0,0,0,0,0,12,12,12,12,
0,0,0,0,0,0,0,0,0,0,0,12,12,12,12,12,
0,0,0,0,0,0,0,0,0,12,12,12,12,12,12,12,
0,0,0,0,0,0,0,0,12,12,12,12,12,12,12,12,
0,0,0,0,0,12,12,12,12,12,12,12,12,12,12,12,
0,0,0,12,12,12,12,12,12,12,12,12,12,12,12,0,
0,0,12,12,12,12,12,12,12,12,12,12,12,0,0,0,
12,12,12,12,12,12,12,12,12,12,12,0,0,0,0,0,
12,12,12,12,12,12,12,12,12,0,0,0,0,0,0,0
</chunk>
   <chunk x="32" y="-48" width="16" height="16">
0,0,12,12,12,12,12,12,12,12,12,12,12,12,12,12,
0,12,12,12,12,12,12,12,12,12,12,12,12,12,12,12,
0,12,12,12,12,12,12,12,12,12,12,12,12,12,12,12,
12,12,12,12,12,12,12,12,12,12,12,12,12,12,12,12,
12,12,12,12,12,12,12,12,12,12,12,12,12,12,12,12,
12,12,12,12,12,12,12,12,12,12,12,12,12,12,12,0,
12,12,12,12,12,12,12,12,12,12,12,12,12,0,0,0,
12,12,12,12,12,12,12,12,12,12,12,12,0,0,0,0,
12,12,12,12,12,12,12,12,12,12,0,0,0,0,0,0,
12,12,12,12,12,12,12,12,12,0,0,0,0,0,0,0,
12,12,12,12,12,12,12,12,0,0,0,0,0,0,0,0,
0,0,0,0,0,0,0,0,0,0,0,0,0,0,0,0,
0,0,0,0,0,0,0,0,0,0,0,0,0,0,0,0,
0,0,0,0,0,0,0,0,0,0,0,0,0,0,0,0,
0,0,0,0,0,0,0,0,0,0,0,0,0,0,0,0,
0,0,0,0,0,0,0,0,12,12,12,12,12,12,12,12
</chunk>
   <chunk x="48" y="-48" width="16" height="16">
12,12,12,12,12,12,12,12,12,0,0,0,0,0,0,0,
12,12,12,12,12,12,12,12,12,0,0,0,0,0,0,0,
12,12,12,12,12,12,12,12,12,0,0,0,0,0,0,0,
12,12,12,12,12,12,12,12,12,0,0,0,0,0,0,0,
12,0,0,0,0,0,0,0,0,0,0,0,0,0,0,0,
0,0,0,0,0,0,0,0,0,0,0,0,0,0,0,0,
0,0,0,0,0,0,0,0,0,0,0,0,0,0,0,0,
0,0,0,0,0,0,0,0,0,0,0,0,0,0,0,0,
0,0,0,0,0,0,0,0,0,0,0,0,0,0,0,0,
0,0,0,0,0,0,0,0,0,0,0,0,0,0,0,0,
0,0,0,0,0,0,0,0,0,0,0,0,0,0,0,0,
0,0,0,0,0,0,0,0,0,0,0,0,0,0,0,0,
0,0,0,0,0,0,0,0,0,0,0,0,0,0,0,0,
0,0,0,0,0,0,0,0,0,0,0,0,0,0,0,0,
0,0,0,0,0,0,0,0,0,0,0,0,0,0,0,0,
12,12,12,12,12,12,12,12,0,0,0,0,0,0,0,0
</chunk>
   <chunk x="80" y="-48" width="16" height="16">
0,0,0,0,0,0,0,0,0,0,0,0,0,0,0,0,
0,0,0,0,0,0,0,0,0,0,0,0,0,0,0,0,
0,0,0,0,0,0,0,0,0,0,0,0,0,0,0,0,
0,0,0,0,0,0,0,0,0,0,0,0,0,0,0,0,
0,0,0,0,0,0,0,0,0,0,0,0,0,0,0,0,
0,0,0,0,0,0,0,0,0,0,0,0,0,0,0,0,
0,0,0,0,0,0,0,0,0,0,0,0,0,0,0,0,
0,0,0,0,0,0,0,0,0,0,0,0,0,0,0,0,
0,0,0,0,0,0,0,0,0,0,0,0,0,0,0,0,
0,0,0,0,0,0,0,0,0,0,0,0,0,0,0,0,
0,0,0,0,0,0,0,0,0,0,0,0,0,0,0,0,
0,0,0,0,0,0,0,0,0,0,0,0,0,0,0,0,
0,0,0,0,0,0,0,0,0,0,0,0,0,0,0,0,
0,0,0,0,0,0,0,0,0,0,12,12,0,0,0,0,
0,0,0,0,0,0,0,12,12,12,12,12,0,0,0,0,
12,12,12,12,12,12,12,12,12,12,12,12,0,0,0,0
</chunk>
   <chunk x="112" y="-48" width="16" height="16">
0,0,0,0,0,0,0,0,0,0,0,0,0,0,0,0,
0,0,0,0,0,0,0,0,0,0,0,0,0,0,0,0,
0,0,0,0,0,0,0,0,0,0,0,0,0,0,0,0,
0,0,0,0,0,0,0,0,0,0,0,0,0,0,0,0,
0,0,0,0,0,0,0,0,0,0,0,0,0,0,0,0,
0,0,0,0,0,0,0,0,0,0,0,0,0,0,0,0,
0,0,0,0,0,0,0,0,0,0,0,0,0,0,0,0,
0,0,0,0,0,0,0,0,0,0,0,0,0,0,0,0,
0,0,0,0,0,0,0,0,0,0,0,0,0,0,0,0,
0,0,0,0,0,0,0,0,0,0,0,0,0,0,0,0,
0,0,0,0,0,0,0,0,0,0,0,0,0,0,0,0,
0,0,0,0,0,0,0,0,0,0,0,0,0,0,0,0,
0,0,0,0,0,0,0,0,0,0,0,0,0,0,0,0,
0,0,0,0,0,0,0,0,0,0,0,0,0,0,0,0,
0,0,0,0,0,0,0,0,0,0,0,0,0,0,12,12,
0,0,0,0,0,0,0,0,0,0,0,0,0,0,12,12
</chunk>
   <chunk x="128" y="-48" width="16" height="16">
0,0,0,0,0,0,0,0,0,0,0,0,0,0,0,0,
0,0,0,0,0,0,0,0,0,0,0,0,0,0,0,0,
0,0,0,0,0,0,0,0,0,0,0,0,0,0,0,0,
0,0,0,0,0,0,0,0,0,0,0,0,0,0,0,0,
0,0,0,0,0,0,0,0,0,0,0,0,0,0,0,0,
0,0,0,0,0,0,0,0,0,0,0,0,0,0,0,0,
0,0,0,0,0,0,0,0,0,0,0,0,0,0,0,0,
0,0,0,0,0,0,0,0,0,0,0,0,0,0,0,0,
0,0,0,0,0,0,0,0,0,0,0,0,0,0,0,0,
0,0,0,0,0,0,0,0,0,0,0,0,0,0,0,0,
0,0,0,0,0,0,0,0,0,0,0,0,0,0,0,0,
0,0,0,0,0,0,0,0,0,0,0,0,0,0,0,0,
0,0,0,0,0,0,0,0,0,0,0,0,0,0,0,0,
0,0,0,0,0,0,0,0,0,0,0,0,0,0,0,0,
12,12,12,12,12,0,0,0,0,0,0,0,0,0,0,0,
12,12,12,12,12,0,0,0,0,0,0,0,0,0,0,0
</chunk>
   <chunk x="-128" y="-32" width="16" height="16">
0,0,0,0,0,0,0,0,0,0,0,0,0,0,12,12,
0,0,0,0,0,0,0,0,0,0,0,0,0,0,12,12,
0,0,0,0,0,0,0,0,0,0,0,0,0,0,12,12,
0,0,0,0,0,0,0,0,0,0,0,0,0,0,12,12,
0,0,0,0,0,0,0,0,0,0,0,0,0,12,12,12,
0,0,0,0,0,0,0,0,0,0,0,0,12,12,12,12,
0,0,0,0,0,0,0,0,0,0,0,0,12,12,12,12,
0,0,0,0,0,0,0,0,0,0,0,0,12,12,12,12,
0,0,0,0,0,0,0,0,0,0,0,12,12,12,12,12,
0,0,0,0,0,0,0,0,0,0,12,12,12,12,12,12,
0,0,0,0,0,0,0,0,0,0,0,12,12,12,12,12,
0,0,0,0,0,0,0,0,0,0,12,12,12,12,12,12,
0,0,0,0,0,0,0,0,0,12,12,12,12,12,12,12,
0,0,0,0,0,0,0,12,12,12,12,12,12,12,12,12,
0,0,0,0,0,0,12,12,12,12,12,12,12,12,12,12,
0,0,0,0,12,12,12,12,12,12,12,12,12,12,12,12
</chunk>
   <chunk x="-112" y="-32" width="16" height="16">
12,12,12,12,12,12,12,12,12,12,12,12,12,12,0,0,
12,12,12,12,12,12,12,12,12,12,12,12,12,12,0,0,
12,12,12,12,12,12,12,12,12,12,12,12,0,0,0,0,
12,12,12,12,12,12,12,12,12,12,12,12,12,12,0,0,
12,12,12,12,12,0,0,0,12,12,12,12,0,0,0,0,
12,12,12,12,0,0,0,0,0,0,0,0,0,0,0,0,
12,12,12,12,0,0,0,0,0,0,0,0,0,0,0,0,
12,12,12,12,0,0,0,0,0,0,0,0,0,0,0,0,
12,12,12,12,0,0,0,0,0,0,0,0,0,0,0,0,
12,12,12,0,0,0,0,0,0,0,0,0,0,0,0,0,
12,12,12,0,0,0,0,0,0,0,0,0,0,0,0,0,
12,12,12,0,0,0,0,0,0,0,0,0,0,0,0,0,
12,12,12,0,0,0,0,0,0,0,0,0,0,0,0,0,
12,12,12,0,0,0,0,0,0,0,0,0,0,0,0,0,
12,12,12,0,0,0,0,0,0,0,0,0,0,0,0,0,
12,0,0,0,0,0,0,0,0,0,0,0,0,0,0,0
</chunk>
   <chunk x="-96" y="-32" width="16" height="16">
0,0,0,0,0,0,0,12,12,12,12,12,12,12,0,0,
0,0,0,0,0,0,0,12,12,12,12,12,12,12,0,0,
0,0,0,0,0,0,12,12,12,12,12,12,12,12,0,0,
0,0,0,0,0,12,12,12,12,12,12,12,12,12,0,0,
0,0,12,12,12,12,12,12,12,12,12,12,12,12,0,0,
0,0,12,12,12,12,12,12,12,12,12,12,12,12,0,0,
0,0,0,12,12,12,12,12,12,12,12,12,12,0,0,0,
0,0,0,0,0,12,12,12,12,12,12,12,0,0,0,0,
0,0,0,0,0,0,0,0,0,0,0,0,0,0,0,0,
0,0,0,0,0,0,0,0,0,0,0,0,0,0,0,0,
0,0,0,0,0,0,0,0,0,0,0,0,0,0,0,0,
0,0,0,0,0,0,0,0,0,0,0,0,0,0,0,0,
0,0,0,0,0,0,0,0,0,0,0,0,0,0,0,0,
0,0,0,0,0,0,0,0,0,0,0,0,0,0,0,0,
0,0,0,0,0,0,0,0,0,0,0,0,0,0,0,0,
0,0,0,0,0,0,0,0,0,0,0,0,0,0,0,0
</chunk>
   <chunk x="-80" y="-32" width="16" height="16">
0,0,12,12,12,12,0,0,0,0,0,0,0,0,0,0,
0,0,0,12,12,12,0,0,0,0,0,0,0,0,0,0,
0,0,0,0,0,0,0,0,0,0,0,0,0,0,0,0,
0,0,0,0,0,0,0,0,0,0,0,0,0,0,0,0,
0,0,0,0,0,0,0,0,0,0,0,0,0,0,0,0,
0,0,0,0,0,0,0,0,0,0,0,0,0,0,0,0,
0,0,0,0,0,0,0,0,0,0,0,0,0,0,0,0,
0,0,0,0,0,0,0,0,0,0,0,0,0,0,0,0,
0,0,0,0,0,0,0,0,0,0,0,0,0,0,0,0,
0,0,0,0,0,0,0,0,0,0,0,0,0,0,0,0,
0,0,0,0,0,0,0,0,0,0,0,0,0,0,0,0,
0,0,0,0,0,0,0,0,0,0,0,0,0,0,0,0,
0,0,0,0,0,0,0,0,0,0,0,0,0,0,0,0,
0,0,0,0,0,0,0,0,0,0,0,0,0,0,0,0,
0,0,0,0,0,0,0,0,0,0,0,0,0,0,0,0,
0,0,0,0,0,0,0,0,0,0,0,0,0,0,0,0
</chunk>
   <chunk x="0" y="-32" width="16" height="16">
0,0,0,0,0,0,0,0,0,0,0,0,0,0,12,12,
0,0,0,0,0,0,0,0,0,0,0,0,12,12,12,12,
0,0,0,0,0,0,0,0,0,0,0,12,12,12,12,0,
0,0,0,0,0,0,0,0,0,0,0,0,0,0,0,0,
0,0,0,0,0,0,0,0,0,0,0,0,0,0,0,0,
0,0,0,0,0,0,0,0,0,0,0,0,0,0,0,0,
0,0,0,0,0,0,0,0,0,0,0,0,0,0,0,0,
0,0,0,0,0,0,0,0,0,0,0,0,0,0,0,0,
0,0,0,0,0,0,0,0,0,0,0,0,0,0,0,0,
0,0,0,0,0,0,0,0,0,0,0,0,0,0,0,0,
0,0,0,0,0,0,0,0,0,0,0,0,0,0,0,0,
0,0,0,0,0,0,0,0,0,0,0,0,0,0,0,0,
0,0,0,0,0,0,0,0,0,0,0,0,0,0,0,0,
0,0,0,0,0,0,0,0,0,0,0,0,0,0,0,0,
0,0,0,0,0,0,0,0,0,0,0,0,0,0,0,0,
0,0,0,0,0,0,0,0,0,0,0,0,0,0,0,0
</chunk>
   <chunk x="16" y="-32" width="16" height="16">
12,12,12,12,12,12,0,0,0,0,0,0,0,0,0,0,
12,12,12,0,0,0,0,0,0,0,0,0,0,0,0,0,
0,0,0,0,0,0,0,0,0,0,0,0,0,0,0,0,
0,0,0,0,0,0,0,0,0,0,0,0,0,0,0,0,
0,0,0,0,0,0,0,0,0,0,0,0,0,0,0,0,
0,0,0,0,0,0,0,0,0,0,0,0,0,0,0,0,
0,0,0,0,0,0,0,0,0,0,0,0,0,0,0,0,
0,0,0,0,0,0,0,0,0,0,0,0,0,0,0,0,
0,0,0,0,0,0,0,0,0,0,0,0,0,0,0,12,
0,0,0,0,0,0,0,0,0,0,0,0,0,0,12,12,
0,0,0,0,0,0,0,0,0,0,0,0,0,12,12,12,
0,0,0,0,0,0,0,0,0,0,0,0,12,12,12,12,
0,0,0,0,0,0,0,0,0,0,0,12,12,12,12,12,
0,0,0,0,0,0,0,0,0,0,12,12,12,12,12,12,
0,0,0,0,0,0,0,0,0,12,12,12,12,12,12,0,
0,0,0,0,0,0,0,0,12,12,12,12,12,12,12,0
</chunk>
   <chunk x="32" y="-32" width="16" height="16">
0,0,0,0,0,0,0,12,12,12,12,12,12,12,12,12,
0,0,0,0,0,0,12,12,12,12,12,12,12,12,12,12,
0,0,0,0,0,12,12,12,12,12,12,12,12,12,12,12,
0,0,0,0,12,12,12,12,12,12,12,12,12,12,12,12,
0,0,0,12,12,12,12,12,12,12,12,12,12,12,12,12,
0,0,12,12,12,12,12,12,12,12,12,12,12,0,0,0,
0,12,12,12,12,12,12,12,12,12,12,0,0,0,0,0,
12,12,12,12,12,12,0,0,0,0,0,0,0,0,0,0,
12,12,12,12,12,0,0,0,0,0,0,0,0,0,0,0,
12,12,12,0,0,0,0,0,0,0,0,0,0,0,0,0,
12,12,0,0,0,0,0,0,0,0,0,0,0,0,0,0,
12,0,0,0,0,0,0,0,0,0,0,0,0,0,0,0,
12,0,0,0,0,0,0,0,0,0,0,0,0,0,0,0,
0,0,0,0,0,0,0,0,0,0,0,0,0,0,0,0,
0,0,0,0,0,0,0,0,0,0,0,0,0,0,0,0,
0,0,0,12,0,0,0,0,0,0,0,0,0,0,0,0
</chunk>
   <chunk x="48" y="-32" width="16" height="16">
12,12,12,12,12,12,12,12,0,0,0,0,0,0,0,0,
12,12,12,12,12,12,12,12,0,0,0,0,0,0,0,0,
12,12,12,12,12,12,12,12,0,0,0,0,0,0,0,0,
12,12,12,12,12,12,12,12,0,0,0,0,0,0,0,0,
12,12,12,12,12,12,12,12,0,0,0,0,0,0,0,0,
0,12,12,12,12,12,12,12,0,0,0,0,0,0,0,0,
0,12,12,12,12,12,12,12,0,0,0,0,0,0,0,0,
0,12,12,12,12,12,12,12,0,0,0,0,0,0,0,0,
0,12,12,12,12,12,12,12,0,0,0,0,0,0,0,0,
0,12,12,12,12,12,12,12,0,0,0,0,0,0,0,0,
0,12,12,12,12,12,12,12,0,0,0,0,0,0,0,0,
0,12,12,12,12,12,12,12,0,0,0,0,0,0,0,0,
0,12,12,12,12,12,12,12,0,0,0,0,0,0,0,0,
0,12,12,12,12,12,12,12,0,0,0,0,0,0,0,0,
0,12,12,12,12,12,12,12,0,0,0,0,0,0,0,0,
0,12,12,12,12,12,12,12,0,0,0,0,0,0,0,0
</chunk>
   <chunk x="64" y="-32" width="16" height="16">
0,0,0,0,0,0,0,0,0,0,0,0,0,0,0,12,
0,0,0,0,0,0,0,0,0,0,0,0,0,0,0,12,
0,0,0,0,0,0,0,0,0,0,0,0,0,0,0,12,
0,0,0,0,0,0,0,0,0,0,0,0,0,0,0,0,
0,0,0,0,0,0,0,0,0,0,0,0,0,0,0,0,
0,0,0,0,0,0,0,0,0,0,0,0,0,0,0,0,
0,0,0,0,0,0,0,0,0,0,0,0,0,0,0,0,
0,0,0,0,0,0,0,0,0,0,0,0,0,0,0,0,
0,0,0,0,0,0,0,0,0,0,0,0,0,0,0,0,
0,0,0,0,0,0,0,0,0,0,0,0,0,0,0,0,
0,0,0,0,0,0,0,0,0,0,0,0,0,0,0,0,
0,0,0,0,0,0,0,0,0,0,0,0,0,0,0,0,
0,0,0,0,0,0,0,0,0,0,0,0,0,0,0,0,
0,0,0,0,0,0,0,0,0,0,0,0,0,0,0,0,
0,0,0,0,0,0,0,0,0,0,0,0,0,0,0,0,
0,0,0,0,0,0,0,0,0,0,0,0,0,0,0,0
</chunk>
   <chunk x="80" y="-32" width="16" height="16">
12,12,12,12,12,12,12,12,12,12,12,12,12,0,0,0,
12,12,12,12,12,12,12,12,12,12,12,12,12,0,0,0,
12,12,12,12,12,12,12,12,12,12,12,12,12,0,0,0,
12,12,12,12,12,12,12,12,12,12,12,12,12,0,0,0,
12,12,12,12,12,12,12,12,12,12,12,12,12,0,0,0,
12,12,12,12,12,12,12,12,12,12,12,12,12,12,0,0,
12,12,12,12,12,12,12,12,12,12,12,12,12,12,0,0,
12,12,12,12,12,12,12,12,12,12,12,12,12,12,0,0,
0,12,12,12,12,12,12,12,12,12,12,12,12,12,0,0,
0,12,12,12,12,12,12,12,12,12,12,12,12,12,0,0,
0,12,12,12,12,12,12,12,12,12,12,12,12,12,0,0,
0,12,12,12,12,12,12,12,12,12,12,12,12,12,0,0,
0,0,12,12,12,12,12,12,12,12,12,12,12,12,0,0,
0,0,12,12,12,12,12,12,12,12,12,12,12,12,0,0,
0,0,12,12,12,12,12,12,12,12,12,12,12,12,0,0,
0,0,12,12,12,12,12,12,12,12,12,12,12,12,0,0
</chunk>
   <chunk x="112" y="-32" width="16" height="16">
0,0,0,0,0,0,0,0,0,0,0,0,0,0,12,12,
0,0,0,0,0,0,0,0,0,0,0,0,0,0,12,12,
0,0,0,0,0,0,0,0,0,0,0,0,0,12,12,12,
0,0,0,0,0,12,12,0,0,0,0,0,0,12,12,12,
0,0,0,0,12,12,12,0,0,0,0,0,0,12,12,12,
0,0,0,12,12,12,0,0,0,0,0,0,0,12,12,12,
0,0,0,0,0,0,0,0,0,0,0,0,0,12,12,12,
0,0,0,0,0,0,0,0,0,0,0,0,0,12,12,12,
12,12,0,0,0,0,0,0,0,0,0,0,0,12,12,12,
0,12,0,0,0,0,0,12,12,0,0,0,0,12,12,12,
0,0,0,0,0,0,0,0,12,0,0,0,0,12,12,12,
0,0,0,0,0,0,0,0,0,0,0,0,0,12,12,12,
0,0,0,0,0,0,0,0,0,0,0,0,12,12,12,12,
0,0,0,0,0,0,0,0,0,0,0,0,12,12,12,12,
0,0,0,0,0,0,0,0,0,0,0,0,12,12,12,12,
0,0,0,0,0,0,0,0,0,0,0,0,12,12,12,12
</chunk>
   <chunk x="128" y="-32" width="16" height="16">
12,12,12,12,12,0,0,0,0,0,0,0,0,0,0,0,
12,12,12,12,12,0,0,0,0,0,0,0,0,0,0,0,
12,12,12,12,12,0,0,0,0,0,0,0,0,0,0,0,
12,12,12,12,12,0,0,0,0,0,0,0,0,0,0,0,
12,12,12,12,12,0,0,0,0,0,0,0,0,0,0,0,
12,12,12,12,12,0,0,0,0,0,0,0,0,0,0,0,
12,12,12,12,12,0,0,0,0,0,0,0,0,0,0,0,
12,12,12,12,12,0,0,0,0,0,0,0,0,0,0,0,
12,12,12,12,12,0,0,0,0,0,0,0,0,0,0,0,
12,12,12,12,12,0,0,0,0,0,0,0,0,0,0,0,
12,12,12,12,12,0,0,0,0,0,0,0,0,0,0,0,
12,12,12,12,12,0,0,0,0,0,0,0,0,0,0,0,
12,12,12,12,0,0,0,0,0,0,0,0,0,0,0,0,
12,12,12,12,0,0,0,0,0,0,0,0,0,0,0,0,
12,12,12,12,0,0,0,0,0,0,0,0,0,0,0,0,
12,12,12,12,0,0,0,0,0,0,0,0,0,0,0,0
</chunk>
   <chunk x="-160" y="-16" width="16" height="16">
0,0,0,0,0,0,0,0,0,0,0,0,0,0,0,0,
0,0,0,0,0,0,0,0,0,0,0,0,0,0,0,0,
0,0,0,0,0,0,0,0,0,0,0,0,0,0,0,0,
0,0,0,0,0,0,0,0,0,0,0,0,0,0,0,0,
0,0,0,0,0,0,0,0,0,0,0,0,0,0,0,0,
0,0,0,0,0,0,0,0,0,0,0,0,0,0,0,0,
0,0,0,0,0,0,0,0,0,0,0,0,0,0,0,0,
0,0,0,0,0,0,0,0,0,0,0,0,0,0,0,0,
0,0,0,0,0,0,0,0,0,0,0,0,0,0,0,0,
0,0,0,0,0,0,0,0,0,0,0,0,0,0,0,0,
0,0,0,0,0,0,0,0,0,0,0,0,0,0,0,0,
0,0,0,0,0,0,0,0,0,0,0,0,0,0,0,0,
0,0,0,0,0,0,0,0,0,0,0,0,0,0,0,0,
0,0,0,0,0,0,0,0,0,0,0,0,0,0,0,0,
0,0,0,0,0,0,0,0,0,0,0,0,0,0,0,0,
0,0,0,0,0,0,0,0,0,0,0,0,0,0,0,12
</chunk>
   <chunk x="-144" y="-16" width="16" height="16">
0,0,0,0,0,0,0,0,0,0,0,0,0,0,0,0,
0,0,0,0,0,0,0,0,0,0,0,0,0,0,0,0,
0,0,0,0,0,0,0,0,0,0,0,0,0,12,12,12,
0,0,0,0,0,0,0,0,0,0,0,12,12,12,12,12,
0,0,0,0,0,0,0,0,0,12,12,12,12,12,12,12,
0,0,0,0,0,0,0,0,12,12,12,12,12,12,12,12,
0,0,0,0,0,0,0,12,12,12,12,12,12,12,12,12,
0,0,0,0,0,0,12,12,12,12,12,12,12,12,12,12,
0,0,0,0,0,12,12,12,12,12,12,12,12,12,12,12,
0,0,0,0,12,12,12,12,12,12,12,12,12,12,12,12,
0,0,0,12,12,12,12,12,12,12,12,12,12,12,12,12,
0,0,12,12,12,12,12,12,12,12,12,12,12,12,12,12,
0,12,12,12,12,12,12,12,12,12,12,12,12,12,12,12,
12,12,12,12,12,12,12,12,12,12,12,12,12,12,12,12,
12,12,12,12,12,12,12,12,12,12,12,12,12,12,12,12,
12,12,12,12,12,12,12,12,12,12,12,12,12,12,12,12
</chunk>
   <chunk x="-128" y="-16" width="16" height="16">
0,0,0,12,12,12,12,12,12,12,12,12,12,12,12,12,
0,0,12,12,12,12,12,12,12,12,12,12,12,12,12,0,
12,12,12,12,12,12,12,12,12,12,12,12,12,0,0,0,
12,12,12,12,12,12,12,12,12,12,12,12,0,0,0,0,
12,12,12,12,12,12,12,12,12,12,0,0,0,0,0,0,
12,12,12,12,12,12,12,12,12,0,0,0,0,0,0,0,
12,12,12,12,12,12,12,12,0,0,0,0,0,0,0,0,
12,12,12,12,12,12,0,0,0,0,0,0,0,0,0,0,
12,12,12,12,12,12,0,0,0,0,0,0,0,0,0,0,
12,12,12,12,12,0,0,0,0,0,0,0,0,0,0,0,
12,12,12,12,0,0,0,0,0,0,0,0,0,0,0,0,
12,12,12,0,0,0,0,0,0,0,0,0,0,0,0,0,
12,12,0,0,0,0,0,0,0,0,0,0,0,0,0,0,
12,12,0,0,0,0,0,0,0,0,0,0,0,0,0,0,
12,0,0,0,0,0,0,0,0,0,0,0,0,0,0,0,
0,0,0,0,0,0,0,0,0,0,0,0,0,0,0,0
</chunk>
   <chunk x="-48" y="-16" width="16" height="16">
0,0,0,0,0,0,0,0,0,0,0,0,0,0,0,0,
0,0,0,0,0,0,0,0,0,0,0,0,0,0,0,0,
0,0,0,0,0,0,0,0,0,0,0,0,0,0,0,0,
0,0,0,0,0,0,0,0,0,0,0,0,0,0,0,0,
0,0,0,0,0,0,0,0,0,0,0,0,0,0,0,0,
0,0,0,0,0,0,0,0,0,0,0,0,0,0,0,0,
0,0,0,0,0,0,0,0,0,0,0,0,0,0,0,0,
0,0,0,0,0,0,0,0,0,0,0,0,0,0,0,0,
0,0,0,0,0,0,0,0,0,0,0,0,0,0,0,0,
0,0,0,0,0,0,0,0,0,0,0,0,0,0,0,0,
0,0,0,0,0,0,0,0,0,0,0,0,0,0,0,0,
12,12,12,12,0,0,0,0,0,0,12,12,12,0,0,0,
12,12,12,12,12,0,0,0,0,0,0,12,12,0,0,0,
12,12,12,12,12,0,0,0,0,0,0,0,0,0,0,0,
12,12,12,12,0,0,0,0,0,0,0,0,0,0,0,0,
12,12,12,12,0,0,0,0,0,0,0,0,0,0,0,0
</chunk>
   <chunk x="-32" y="-16" width="16" height="16">
0,0,0,0,0,0,0,0,0,0,0,0,0,0,0,0,
0,0,0,0,0,0,0,0,0,0,0,0,0,0,0,0,
0,0,0,0,0,0,0,0,0,0,0,0,0,0,0,0,
0,0,0,0,0,0,0,0,0,0,0,0,0,0,0,0,
0,0,0,0,0,0,0,0,0,0,0,0,0,0,0,0,
0,0,0,0,0,0,0,0,0,0,0,0,0,0,0,0,
0,0,0,0,0,0,0,0,0,0,0,0,0,0,0,0,
0,0,0,0,0,0,0,0,0,0,0,0,0,0,0,0,
0,0,0,0,0,0,0,0,0,0,0,0,0,0,0,0,
0,12,12,12,12,12,0,0,0,0,0,0,0,0,0,0,
0,12,12,12,12,12,12,12,12,12,12,12,12,12,12,12,
0,12,12,12,12,12,12,12,12,12,12,12,12,12,12,12,
0,12,12,12,12,12,12,12,12,12,12,12,12,12,12,12,
0,0,0,0,12,12,12,12,12,12,12,12,12,12,12,12,
0,0,0,0,0,0,12,12,12,12,12,12,12,12,12,12,
0,0,0,0,0,0,0,0,0,0,12,12,12,12,12,12
</chunk>
   <chunk x="-16" y="-16" width="16" height="16">
0,0,0,0,0,0,0,0,0,0,0,0,0,0,0,0,
0,0,0,0,0,0,0,0,0,0,0,0,0,0,0,0,
0,0,0,0,0,0,0,0,0,0,0,0,0,0,0,0,
0,0,0,0,0,0,0,0,0,0,0,0,0,0,0,0,
0,0,0,0,0,0,0,0,0,0,0,0,0,0,0,0,
0,12,12,12,12,12,12,0,0,0,0,0,0,0,0,0,
12,12,12,12,12,12,12,12,0,0,0,0,0,0,0,0,
12,12,12,12,12,12,12,12,0,0,0,0,0,0,0,0,
12,12,12,12,12,12,12,12,0,0,0,0,0,0,0,12,
12,12,12,12,12,12,12,12,12,12,0,0,0,0,12,12,
12,12,12,12,12,12,12,12,0,0,0,0,12,12,12,12,
12,12,12,12,12,12,12,0,0,0,0,12,12,12,12,12,
12,12,12,12,12,12,12,12,0,0,0,12,12,12,12,12,
12,12,12,12,12,12,12,12,0,0,0,0,0,12,12,0,
12,12,12,12,12,12,12,0,0,0,0,0,0,0,0,0,
12,12,12,12,12,12,12,12,0,0,0,0,0,0,0,0
</chunk>
   <chunk x="0" y="-16" width="16" height="16">
0,0,0,0,0,0,0,0,0,0,0,0,0,0,0,0,
0,0,0,0,0,0,0,0,0,0,0,0,0,0,0,0,
0,0,0,0,0,0,0,0,0,0,0,0,0,0,0,0,
0,0,0,0,0,0,0,0,0,0,0,0,0,0,0,0,
0,0,0,0,0,0,0,0,0,0,0,0,0,0,0,0,
0,0,0,0,0,0,0,0,0,0,0,0,0,0,0,0,
0,0,0,0,0,0,0,0,0,0,0,0,0,0,0,0,
0,0,0,0,0,0,0,0,0,0,0,0,0,0,0,0,
12,12,12,0,0,0,0,0,0,0,0,0,0,0,0,12,
12,12,12,0,0,0,0,0,0,0,0,0,0,0,12,12,
12,12,0,0,0,0,0,0,0,0,0,0,0,12,12,12,
12,0,0,0,0,0,0,0,0,0,0,0,12,12,12,12,
0,0,0,0,0,0,0,0,0,0,0,12,12,12,12,12,
0,0,0,0,0,0,0,0,0,0,12,12,12,12,12,12,
0,0,0,0,0,0,0,0,0,12,12,12,12,12,12,12,
0,0,0,0,0,0,0,0,12,12,12,12,12,12,12,12
</chunk>
   <chunk x="16" y="-16" width="16" height="16">
0,0,0,0,0,0,0,12,12,12,12,12,12,12,0,0,
0,0,0,0,0,0,12,12,12,12,12,12,12,12,12,12,
0,0,0,0,0,12,12,12,12,12,12,12,12,12,12,12,
0,0,0,0,12,12,12,12,12,12,12,12,12,12,12,12,
0,0,0,12,12,12,12,12,12,12,12,12,12,12,12,12,
0,0,12,12,12,12,12,12,12,12,12,12,12,12,12,0,
0,12,12,12,12,12,12,12,12,12,12,12,12,12,0,0,
12,12,12,12,12,12,12,12,12,12,12,12,12,0,0,0,
12,12,12,12,12,12,12,12,12,12,12,12,0,0,0,0,
12,12,12,12,12,12,12,12,12,12,12,12,0,0,0,0,
12,12,12,12,12,12,12,12,12,12,12,0,0,0,0,0,
12,12,12,12,12,12,12,12,12,12,12,0,0,0,0,0,
12,12,12,12,12,12,12,12,12,12,0,0,0,0,0,0,
12,12,12,12,12,12,12,12,12,0,0,0,0,0,0,0,
12,12,12,12,12,12,12,12,0,0,0,0,0,0,0,0,
12,12,12,12,12,12,12,0,0,0,0,0,0,0,0,0
</chunk>
   <chunk x="32" y="-16" width="16" height="16">
0,0,0,12,0,0,0,0,0,0,0,0,0,0,0,0,
0,0,0,12,0,0,0,0,0,0,0,0,0,0,0,0,
0,0,0,12,0,0,0,0,0,0,0,0,0,0,0,0,
0,0,0,12,0,0,0,0,0,0,0,0,0,0,0,0,
0,0,0,12,0,0,0,0,0,0,0,0,0,0,0,0,
0,0,0,0,0,0,0,0,0,0,0,0,0,0,0,0,
0,0,0,0,0,0,0,0,0,0,0,0,0,0,0,0,
0,0,0,0,0,0,0,0,0,0,0,0,0,0,0,0,
0,0,0,0,0,0,0,0,0,0,0,0,0,0,0,0,
0,0,0,0,0,0,0,0,0,0,0,0,0,0,0,0,
0,0,0,0,0,0,0,0,0,0,0,0,0,0,0,0,
0,0,0,0,0,0,0,0,0,0,0,0,0,0,0,0,
0,0,0,0,0,0,0,0,0,0,0,0,0,0,0,0,
0,0,0,0,0,0,0,0,0,0,0,0,0,0,0,0,
0,0,0,0,0,0,0,0,0,0,0,0,0,0,0,0,
0,0,0,0,0,0,0,0,0,0,0,0,0,0,0,0
</chunk>
   <chunk x="48" y="-16" width="16" height="16">
0,12,12,12,12,12,12,12,0,0,0,0,0,0,0,0,
0,12,12,12,12,12,12,12,0,0,0,0,0,0,0,0,
0,12,12,12,12,12,12,12,12,0,0,0,0,0,0,0,
0,12,12,12,12,12,12,12,12,0,0,0,0,0,0,0,
0,12,12,12,12,12,12,12,12,0,0,0,0,0,0,0,
0,12,12,12,12,12,12,12,12,12,0,0,0,0,0,0,
0,12,12,12,12,12,12,12,12,12,0,0,0,0,0,0,
0,12,12,12,12,12,12,12,12,12,0,0,0,0,0,0,
0,12,12,12,12,12,12,12,12,12,0,0,0,0,0,0,
0,12,12,12,12,12,12,12,12,12,12,0,0,0,0,0,
0,12,12,12,12,12,12,12,12,12,12,0,0,0,0,0,
0,12,12,12,12,12,12,12,12,12,12,0,0,0,0,0,
0,0,12,12,12,12,12,12,12,12,12,12,0,0,0,0,
0,0,12,12,12,12,12,12,12,12,12,12,12,0,0,0,
0,0,0,12,12,12,12,12,12,12,12,12,12,0,0,0,
0,0,0,0,12,12,12,12,12,12,12,12,12,12,0,0
</chunk>
   <chunk x="80" y="-16" width="16" height="16">
0,0,0,12,12,12,12,12,12,12,12,12,12,0,0,0,
0,0,0,12,12,12,12,12,12,12,12,12,12,0,0,0,
0,0,0,12,12,12,12,12,12,12,12,12,12,0,0,0,
0,0,0,12,12,12,12,12,12,12,12,12,12,0,0,0,
0,0,0,0,12,12,12,12,12,12,12,12,12,0,0,0,
0,0,0,0,12,12,12,12,12,12,12,12,12,0,0,0,
0,0,0,0,12,12,12,12,12,12,12,12,12,0,0,0,
0,0,0,0,0,12,12,12,12,12,12,12,12,0,0,0,
0,0,0,0,0,12,12,12,12,12,12,12,12,0,0,0,
0,0,0,0,0,12,12,12,12,12,12,12,12,0,0,0,
0,0,0,0,0,12,12,12,12,12,12,12,12,0,0,0,
0,0,0,0,0,0,12,12,12,12,12,12,12,0,0,0,
0,0,0,0,0,0,12,12,12,12,12,12,12,0,0,0,
0,0,0,0,0,0,12,12,12,12,12,12,12,0,0,0,
0,0,0,0,0,0,12,12,12,12,12,12,0,0,0,0,
0,0,0,0,0,0,12,12,12,12,12,12,0,0,0,0
</chunk>
   <chunk x="112" y="-16" width="16" height="16">
0,0,0,0,0,0,0,0,0,0,0,12,12,12,12,12,
0,0,0,0,0,0,0,0,0,0,0,12,12,12,12,12,
0,0,0,0,0,0,0,0,0,0,12,12,12,12,12,12,
0,0,0,0,0,0,0,0,0,12,12,12,12,12,12,12,
0,0,0,0,0,0,0,0,0,12,12,12,12,12,12,12,
0,0,0,0,0,0,0,0,12,12,12,12,12,12,12,12,
0,0,0,0,0,0,0,12,12,12,12,12,12,12,12,12,
0,0,0,0,0,0,12,12,12,12,12,12,12,12,12,12,
0,0,0,0,0,0,12,12,12,12,12,12,12,12,12,12,
0,0,0,0,12,12,12,12,12,12,12,12,12,12,12,12,
0,0,0,0,12,12,12,12,12,12,12,12,12,12,12,12,
0,0,0,12,12,12,12,12,12,12,12,12,12,12,12,12,
0,0,12,12,12,12,12,12,12,12,12,12,12,12,12,12,
0,0,12,12,12,12,12,12,12,12,12,12,12,12,12,12,
0,12,12,12,12,12,12,12,12,12,12,12,12,12,12,12,
12,12,12,12,12,12,12,12,12,12,12,12,12,12,12,12
</chunk>
   <chunk x="128" y="-16" width="16" height="16">
12,12,12,12,0,0,0,0,0,0,0,0,0,0,0,0,
12,12,12,12,0,0,0,0,0,0,0,0,0,0,0,0,
12,12,12,12,0,0,0,0,0,0,0,0,0,0,0,0,
12,12,12,12,0,0,0,0,0,0,0,0,0,0,0,0,
12,12,12,12,0,0,0,0,0,0,0,0,0,0,0,0,
12,12,12,12,0,0,0,0,0,0,0,0,0,0,0,0,
12,12,12,0,0,0,0,0,0,0,0,0,0,0,0,0,
12,12,12,0,0,0,0,0,0,0,0,0,0,0,0,0,
12,12,12,0,0,0,0,0,0,0,0,0,0,0,0,0,
12,12,12,0,0,0,0,0,0,0,0,0,0,0,0,0,
12,12,0,0,0,0,0,0,0,0,0,0,0,0,0,0,
12,12,0,0,0,0,0,0,0,0,0,0,0,0,0,0,
12,12,0,0,0,0,0,0,0,0,0,0,0,0,0,0,
12,0,0,0,0,0,0,0,0,0,0,0,0,0,0,0,
12,0,0,0,0,0,0,0,0,0,0,0,0,0,0,0,
0,0,0,0,0,0,0,0,0,0,0,0,0,0,0,0
</chunk>
   <chunk x="-160" y="0" width="16" height="16">
0,0,0,0,0,0,0,0,0,0,0,0,0,0,12,12,
0,0,0,0,0,0,0,0,0,0,0,0,0,12,12,12,
0,0,0,0,0,0,0,0,0,0,0,0,12,12,12,12,
0,0,0,0,0,0,0,0,0,0,12,12,12,12,12,12,
0,0,0,0,0,0,0,0,0,12,12,12,12,12,12,12,
0,0,0,0,0,0,0,0,0,12,12,12,12,12,12,12,
0,0,0,0,0,0,0,0,0,12,12,12,12,12,12,12,
0,0,0,0,0,0,0,0,0,12,12,12,12,12,12,12,
0,0,0,0,0,0,0,0,0,12,12,12,12,12,12,12,
0,0,0,0,0,0,0,0,0,12,12,12,12,12,12,12,
0,0,0,0,0,0,0,0,0,12,12,12,12,12,12,12,
0,0,0,0,0,0,0,0,0,12,12,12,12,12,12,12,
0,0,0,0,0,0,0,0,0,12,12,12,12,12,12,12,
0,0,0,0,0,0,0,0,0,12,12,12,12,12,12,12,
0,0,0,0,0,0,0,0,0,12,12,12,12,12,12,12,
0,0,0,0,0,0,0,0,0,12,12,12,12,12,12,12
</chunk>
   <chunk x="-144" y="0" width="16" height="16">
12,12,12,12,12,12,12,12,12,12,12,12,12,12,12,12,
12,12,12,12,12,12,12,12,12,12,12,12,12,12,12,0,
12,12,12,12,12,12,12,12,12,12,12,12,12,12,12,0,
12,12,12,12,12,12,12,12,12,12,12,12,12,12,12,0,
12,12,12,12,12,12,12,12,12,12,12,12,12,12,0,0,
12,12,12,12,12,12,12,12,12,12,12,12,12,12,0,0,
12,12,12,12,12,12,12,12,12,12,12,12,12,12,0,0,
12,12,12,12,12,12,12,12,12,12,12,12,12,12,0,0,
12,12,12,12,12,12,12,12,12,12,12,12,12,12,0,0,
12,12,12,12,12,12,12,12,12,12,12,12,12,12,0,0,
12,12,12,12,12,12,12,12,12,12,12,12,12,12,0,0,
12,12,12,12,12,12,12,12,12,12,12,12,12,12,0,0,
12,12,12,12,12,12,12,12,12,12,12,12,12,12,0,0,
12,12,12,12,12,12,12,12,12,12,12,12,12,12,0,0,
12,12,12,12,12,12,12,12,12,12,12,12,12,12,0,0,
12,12,12,12,12,12,12,12,12,12,12,12,12,12,0,0
</chunk>
   <chunk x="-48" y="0" width="16" height="16">
12,12,12,12,12,0,0,0,0,0,0,0,0,0,0,0,
12,12,12,12,12,0,0,0,0,0,0,0,0,0,0,0,
12,12,12,12,0,0,0,0,0,0,0,0,0,0,0,0,
12,12,12,12,0,0,0,0,0,0,0,0,0,0,0,0,
12,12,12,12,12,0,0,0,0,0,0,0,0,0,0,0,
12,12,12,12,12,0,0,0,0,0,0,0,0,0,0,0,
0,12,12,12,12,0,0,0,0,0,0,12,12,0,0,0,
0,12,12,12,12,0,0,0,0,0,0,12,0,0,0,0,
0,12,12,12,12,0,0,0,0,0,0,0,0,0,0,0,
0,0,0,0,0,0,0,0,0,0,0,0,0,0,0,0,
0,0,0,0,0,0,0,0,0,0,0,0,0,0,0,0,
0,0,0,0,0,0,0,12,12,12,12,12,12,12,12,0,
0,0,0,0,0,0,0,12,12,12,12,12,12,12,12,12,
0,0,0,0,0,0,0,0,12,12,12,12,12,12,12,12,
0,0,0,0,0,0,0,0,0,0,0,0,12,12,12,12,
0,0,0,0,0,0,0,0,0,0,0,0,0,0,0,0
</chunk>
   <chunk x="-32" y="0" width="16" height="16">
0,0,0,0,0,0,0,0,0,0,0,0,0,12,12,12,
0,0,0,0,0,0,0,0,0,0,0,0,0,0,0,12,
0,0,0,0,0,0,0,0,0,0,0,0,0,0,0,0,
0,0,0,0,0,0,0,0,0,0,0,0,0,0,0,0,
0,0,0,0,0,0,0,0,0,0,0,0,0,0,0,0,
0,0,0,0,0,0,0,0,0,0,0,0,0,0,12,12,
0,0,0,0,0,0,0,0,0,0,0,0,0,0,12,12,
0,0,0,0,0,0,0,0,0,0,0,0,0,12,12,12,
0,0,0,0,0,0,0,0,0,0,0,0,12,12,12,12,
0,0,0,0,0,0,0,0,0,0,0,12,12,12,12,12,
0,0,0,0,0,0,12,12,12,12,12,12,12,12,12,12,
0,0,0,0,12,12,12,12,12,12,12,12,12,12,12,0,
12,12,12,0,12,12,12,12,12,12,12,12,12,12,0,0,
12,12,12,12,12,12,12,12,12,12,12,12,12,12,0,0,
12,12,12,12,12,12,12,0,12,12,12,12,12,0,0,0,
0,0,0,12,12,0,0,0,0,0,12,12,0,0,0,0
</chunk>
   <chunk x="-16" y="0" width="16" height="16">
12,12,12,12,12,12,12,12,0,0,0,0,0,0,0,0,
12,12,12,12,12,12,12,0,0,0,0,0,0,0,0,0,
12,12,12,12,12,12,12,12,0,0,0,0,0,0,0,0,
12,12,12,12,12,12,12,12,0,0,0,0,0,0,0,0,
12,12,12,12,12,12,12,12,12,12,12,12,12,12,12,12,
12,12,12,12,12,12,12,12,12,12,12,12,12,12,12,12,
12,12,12,12,12,12,12,12,12,12,12,12,12,12,12,12,
12,12,12,12,12,12,12,12,12,12,12,12,12,12,12,12,
12,12,12,12,12,12,12,12,12,12,12,12,12,12,12,12,
12,12,12,12,12,12,12,12,12,12,12,12,12,12,12,12,
12,12,12,12,12,12,12,12,12,12,12,12,12,12,12,12,
12,12,12,12,12,12,12,12,12,12,12,12,12,12,12,12,
0,0,0,0,0,0,0,0,0,0,0,0,0,0,0,12,
0,0,0,0,0,0,0,0,0,0,0,0,0,0,0,0,
0,0,0,0,0,0,0,0,0,0,0,0,0,0,0,0,
0,0,0,0,0,0,0,0,0,0,0,0,0,0,0,0
</chunk>
   <chunk x="0" y="0" width="16" height="16">
0,0,0,0,0,0,12,12,12,12,12,12,12,12,12,12,
0,0,0,0,0,0,12,12,12,12,12,12,12,12,12,12,
0,0,0,0,0,12,12,12,12,12,12,12,12,12,12,12,
0,0,0,0,12,12,12,12,12,12,12,12,12,12,12,12,
12,12,12,12,12,12,12,12,12,12,12,12,12,12,12,12,
12,12,12,12,12,12,12,12,12,12,12,12,12,12,12,0,
12,12,12,12,12,12,12,12,12,12,12,12,12,12,0,0,
12,12,12,12,12,12,12,12,12,12,12,12,12,12,0,0,
12,12,12,12,12,12,12,12,12,12,12,12,12,12,0,0,
12,12,12,12,12,12,12,12,12,12,12,12,12,12,0,0,
12,12,12,12,12,12,12,12,12,12,12,12,12,0,0,0,
12,12,12,12,12,12,0,0,0,0,0,0,0,0,0,0,
0,0,0,0,0,0,0,0,0,0,0,0,0,0,0,0,
0,0,0,0,0,0,0,0,0,0,0,0,0,0,0,0,
0,0,0,0,0,0,0,0,0,0,0,0,0,0,0,0,
0,0,0,0,0,0,0,0,0,0,0,0,0,0,0,0
</chunk>
   <chunk x="16" y="0" width="16" height="16">
12,12,12,12,12,12,0,0,0,0,0,0,0,0,0,0,
12,12,12,12,12,0,0,0,0,0,0,0,0,0,0,0,
12,12,12,12,0,0,0,0,0,0,0,0,0,0,0,0,
12,12,0,0,0,0,0,0,0,0,0,0,0,0,0,0,
12,0,0,0,0,0,0,0,0,0,0,0,0,0,0,0,
0,0,0,0,0,0,0,0,0,0,0,0,0,0,0,0,
0,0,0,0,0,0,0,0,0,0,0,0,0,0,0,0,
0,0,0,0,0,0,0,0,0,0,0,0,0,0,0,0,
0,0,0,0,0,0,0,0,0,0,0,0,0,0,0,0,
0,0,0,0,0,0,0,0,0,0,0,0,0,0,0,0,
0,0,0,0,0,0,0,0,0,0,0,0,0,0,0,0,
0,0,0,0,0,0,0,0,0,0,0,0,0,0,0,0,
0,0,0,0,0,0,0,0,0,0,0,0,0,0,0,0,
0,0,0,0,0,0,0,0,0,0,0,0,0,0,0,0,
0,0,0,0,0,0,0,0,0,0,0,0,0,0,0,0,
0,0,0,0,0,0,0,0,0,0,0,0,0,0,0,0
</chunk>
   <chunk x="48" y="0" width="16" height="16">
0,0,0,0,12,12,12,12,12,12,12,12,12,12,0,0,
0,0,0,0,0,12,12,12,12,12,12,12,12,12,12,0,
0,0,0,0,0,0,12,12,12,12,12,12,12,12,12,12,
0,0,0,0,0,0,12,12,12,12,12,12,12,12,12,12,
0,0,0,0,0,0,0,12,12,12,12,12,12,12,12,12,
0,0,0,0,0,0,0,12,12,12,12,12,12,12,12,12,
0,0,0,0,0,0,0,0,12,12,12,12,12,12,12,12,
0,0,0,0,0,0,0,0,0,12,12,12,12,12,12,12,
0,0,0,0,0,0,0,0,0,12,12,12,12,12,12,12,
0,0,0,0,0,0,0,0,0,0,12,12,12,12,12,12,
0,0,0,0,0,0,0,0,0,0,0,12,12,12,12,12,
0,0,0,0,0,0,0,0,0,0,0,12,12,12,12,12,
0,0,0,0,0,0,0,0,0,0,0,12,12,12,12,12,
0,0,0,0,0,0,0,0,0,0,0,0,0,0,0,0,
0,0,0,0,0,0,0,0,0,0,0,0,0,0,0,0,
0,0,0,0,0,0,0,0,0,0,0,0,0,0,0,0
</chunk>
   <chunk x="64" y="0" width="16" height="16">
0,0,0,0,0,0,0,0,0,0,0,0,0,0,0,0,
0,0,0,0,0,0,0,0,0,0,0,0,0,0,0,0,
12,12,0,0,0,0,0,0,0,0,0,0,0,0,0,0,
12,12,12,0,0,0,0,0,0,0,0,0,0,0,0,0,
12,12,12,12,0,0,0,0,0,0,0,0,0,0,0,0,
12,12,12,12,12,0,0,0,0,0,0,0,0,0,0,0,
12,12,12,12,12,0,0,0,0,0,0,0,0,0,0,0,
12,12,12,12,12,12,0,0,0,0,0,0,0,0,0,0,
12,12,12,12,12,12,0,0,0,0,0,0,0,0,0,0,
12,12,12,12,12,12,12,0,0,0,0,0,0,0,0,0,
12,12,12,12,12,12,12,0,0,0,0,0,0,0,0,0,
12,12,12,12,12,12,12,12,0,0,0,0,0,0,0,0,
12,12,12,12,12,12,12,12,0,0,0,0,0,0,0,0,
0,0,0,0,12,12,12,12,0,0,0,0,0,0,0,0,
0,0,0,0,0,12,12,12,12,0,0,0,0,0,0,0,
0,0,0,0,0,0,0,0,12,12,0,0,0,0,0,0
</chunk>
   <chunk x="80" y="0" width="16" height="16">
0,0,0,0,0,0,12,12,12,12,12,12,0,0,0,0,
0,0,0,0,0,0,0,12,12,12,12,12,0,0,0,0,
0,0,0,0,0,0,0,12,12,12,12,0,0,0,0,0,
0,0,0,0,0,0,0,12,12,12,12,0,0,0,0,0,
0,0,0,0,0,0,0,12,12,12,12,0,0,0,0,0,
0,0,0,0,0,0,0,12,12,12,12,0,0,0,0,0,
0,0,0,0,0,0,0,12,12,12,12,0,0,0,0,0,
0,0,0,0,0,0,0,0,12,12,0,0,0,0,0,0,
0,0,0,0,0,0,0,0,12,12,0,0,0,0,0,0,
0,0,0,0,0,0,0,0,12,0,0,0,0,0,0,0,
0,0,0,0,0,0,0,0,0,0,0,0,0,0,0,0,
0,0,0,0,0,0,0,0,0,0,0,0,0,0,0,0,
0,0,0,0,0,0,0,0,0,0,0,0,0,0,0,0,
0,0,0,0,0,0,0,0,0,0,0,0,0,0,0,0,
0,0,0,0,0,0,0,0,0,0,0,0,0,0,0,0,
0,0,0,0,0,0,0,0,0,0,0,0,0,0,0,0
</chunk>
   <chunk x="96" y="0" width="16" height="16">
0,0,0,0,0,0,0,0,0,0,0,0,0,0,0,0,
0,0,0,0,0,0,0,0,0,0,0,0,0,0,0,12,
0,0,0,0,0,0,0,0,0,0,0,0,0,0,0,12,
0,0,0,0,0,0,0,0,0,0,0,0,0,0,0,12,
0,0,0,0,0,0,0,0,0,0,0,0,0,0,12,12,
0,0,0,0,0,0,0,0,0,0,0,0,0,0,12,12,
0,0,0,0,0,0,0,0,0,0,0,0,0,0,12,12,
0,0,0,0,0,0,0,0,0,0,0,0,0,12,12,12,
0,0,0,0,0,0,0,0,0,0,0,0,12,12,12,12,
0,0,0,0,0,0,0,0,0,0,0,12,12,12,12,12,
0,0,0,0,0,0,0,0,12,12,12,12,12,12,12,12,
0,0,0,0,0,0,0,12,12,12,12,12,12,12,12,12,
0,0,0,0,0,0,12,12,12,12,12,12,12,12,12,12,
0,0,0,0,0,12,12,12,12,12,12,12,0,0,0,0,
0,0,0,0,12,12,12,12,12,12,12,0,0,0,0,0,
0,0,0,12,12,12,12,0,0,0,0,0,0,0,0,0
</chunk>
   <chunk x="112" y="0" width="16" height="16">
12,12,12,12,12,12,12,12,12,12,12,12,12,12,12,0,
12,12,12,12,12,12,12,12,12,12,12,12,12,12,0,0,
12,12,12,12,12,12,12,12,12,12,12,12,12,12,0,0,
12,12,12,12,12,12,12,12,12,12,12,12,12,0,0,0,
12,12,12,12,12,12,12,12,12,12,12,12,0,0,0,0,
12,12,12,12,12,12,12,12,12,12,12,12,0,0,0,0,
12,12,12,12,12,12,12,12,12,12,12,0,0,0,0,0,
12,12,12,12,12,12,12,12,12,12,12,0,0,0,0,0,
12,12,12,12,12,12,12,12,12,12,12,0,0,0,0,0,
12,12,12,12,12,12,12,0,0,0,0,0,0,0,0,0,
12,12,12,12,12,12,0,0,0,0,0,0,0,0,0,0,
12,12,12,0,0,0,0,0,0,0,0,0,0,0,0,0,
0,0,0,0,0,0,0,0,0,0,0,0,0,0,0,0,
0,0,0,0,0,0,0,0,0,0,0,0,0,0,0,0,
0,0,0,0,0,0,0,0,0,0,0,0,0,0,0,0,
0,0,0,0,0,0,0,0,0,0,0,0,0,0,0,0
</chunk>
   <chunk x="-160" y="16" width="16" height="16">
0,0,0,0,0,0,0,0,0,12,12,12,12,12,12,12,
0,0,0,0,0,0,0,0,0,12,12,12,12,12,12,12,
0,0,0,0,0,0,0,0,0,12,12,12,12,12,12,12,
0,0,0,0,0,0,0,0,0,0,12,12,12,12,12,12,
0,0,0,0,0,0,0,0,0,0,12,12,12,12,12,12,
0,0,0,0,0,0,0,0,0,0,12,12,12,12,12,12,
0,0,0,0,0,0,0,0,0,0,0,0,0,12,12,12,
0,0,0,0,0,0,0,0,0,0,0,0,0,0,12,12,
0,0,0,0,0,0,0,0,0,0,0,0,0,0,12,12,
0,0,0,0,0,0,0,0,0,0,0,0,0,0,0,12,
0,0,0,0,0,0,0,0,0,0,0,0,0,0,0,0,
0,0,0,0,0,0,0,0,0,0,0,0,0,0,0,0,
0,0,0,0,0,0,0,0,0,0,0,0,0,0,0,0,
0,0,0,0,0,0,0,0,0,0,0,0,0,0,0,0,
0,0,0,0,0,0,0,0,0,0,0,0,0,0,0,0,
0,0,0,0,0,0,0,0,0,0,0,0,0,0,0,0
</chunk>
   <chunk x="-144" y="16" width="16" height="16">
12,12,12,12,12,12,12,12,12,12,12,12,12,12,12,12,
12,12,12,12,12,12,12,12,12,12,12,12,12,12,12,12,
12,12,12,12,12,12,12,12,12,12,12,12,12,12,12,12,
12,12,12,12,12,12,12,12,12,12,12,12,12,12,12,12,
12,12,12,12,12,12,12,12,12,12,12,12,12,12,12,12,
12,12,12,12,12,12,12,12,12,12,12,12,12,12,12,12,
12,12,12,12,12,12,12,12,12,12,12,12,12,12,12,12,
12,12,12,12,12,12,12,12,12,12,12,12,12,12,12,12,
12,12,12,12,12,12,12,12,12,12,12,12,12,12,12,12,
12,12,12,12,12,12,12,12,12,12,12,12,12,12,12,12,
12,12,12,12,12,12,12,12,12,12,12,12,12,12,12,12,
12,12,12,12,12,12,12,12,12,12,12,12,12,12,12,12,
0,12,12,12,12,12,12,12,12,12,12,12,12,12,12,12,
0,0,12,12,12,12,12,12,12,12,12,12,12,12,12,12,
0,0,0,12,12,12,12,12,12,12,12,12,12,12,12,12,
0,0,0,0,12,12,12,12,12,12,12,12,12,12,12,12
</chunk>
   <chunk x="-128" y="16" width="16" height="16">
0,0,0,0,0,0,0,0,0,0,0,0,0,0,0,0,
12,12,12,12,12,0,0,0,0,0,0,0,0,0,0,0,
12,12,12,12,12,12,12,12,12,12,12,12,12,0,0,0,
12,12,12,12,12,12,12,12,12,12,12,12,12,12,12,0,
12,12,12,12,12,12,12,12,12,12,12,12,12,12,12,12,
12,12,12,12,12,12,12,12,12,12,12,12,12,12,12,12,
12,12,12,12,12,12,12,12,12,12,12,12,12,12,12,12,
12,12,12,12,12,12,12,12,12,12,12,12,12,12,12,12,
12,12,12,12,12,12,12,12,12,12,12,12,12,12,12,12,
12,12,12,12,12,12,12,12,12,12,12,12,12,12,12,12,
12,12,12,12,12,12,12,12,12,12,12,12,12,12,12,12,
12,12,12,12,12,12,12,12,12,12,12,12,12,12,12,12,
12,12,12,12,12,12,12,12,12,12,12,12,12,12,12,12,
12,12,12,12,12,12,12,12,12,12,12,12,12,12,12,12,
12,12,12,12,12,12,12,12,12,12,12,12,12,12,12,12,
12,12,12,12,12,12,12,12,12,12,12,12,12,12,12,12
</chunk>
   <chunk x="-112" y="16" width="16" height="16">
0,0,0,0,0,0,0,0,0,0,0,0,0,0,0,0,
0,0,0,0,0,0,0,0,0,0,0,0,0,0,0,0,
0,0,0,0,0,0,0,0,0,0,0,0,0,0,0,0,
0,0,0,0,0,0,0,0,0,0,0,0,0,0,0,0,
12,0,0,0,0,0,0,0,0,0,0,0,0,0,0,0,
12,12,12,0,0,0,0,0,0,0,0,0,0,0,0,0,
12,12,12,12,12,12,0,0,0,0,0,0,0,0,0,0,
12,12,12,12,12,12,12,0,0,0,0,0,0,0,0,0,
12,12,12,12,12,12,12,12,12,12,12,12,12,12,12,12,
12,12,12,12,12,12,12,12,12,12,12,12,12,12,12,12,
12,12,12,12,12,12,12,12,12,12,12,12,12,12,12,12,
12,12,12,12,12,12,12,12,12,12,12,12,12,12,12,12,
12,12,12,12,12,12,12,12,12,12,12,12,12,12,12,12,
12,12,12,12,12,12,12,12,12,12,12,12,12,12,12,12,
12,12,12,12,12,12,12,12,12,12,12,12,12,12,12,12,
12,12,12,12,12,12,12,12,12,12,12,12,12,12,12,12
</chunk>
   <chunk x="-96" y="16" width="16" height="16">
0,0,0,0,0,0,0,0,0,0,0,0,0,0,0,0,
0,0,0,0,0,0,0,0,0,0,0,0,0,0,0,0,
0,0,0,0,0,0,0,0,0,0,0,0,0,0,0,0,
0,0,0,0,0,0,0,0,0,0,0,0,0,0,0,0,
0,0,0,0,0,0,0,0,0,0,0,0,0,0,0,0,
0,0,0,0,0,0,0,0,0,0,0,0,0,0,0,0,
0,0,0,0,0,0,0,0,0,0,0,0,0,0,0,0,
0,0,0,0,0,0,0,0,0,0,0,0,0,0,0,0,
12,12,12,12,12,12,12,0,0,0,0,0,0,12,12,12,
12,12,12,12,12,12,12,0,0,0,0,0,0,12,12,12,
12,12,12,12,12,12,12,0,0,0,0,0,0,12,12,12,
12,12,12,12,12,12,12,0,0,0,0,0,0,12,12,12,
12,12,12,12,12,12,12,0,0,0,0,0,0,12,12,12,
12,12,12,12,12,12,0,0,0,0,0,0,0,12,12,12,
12,12,12,12,12,12,0,0,0,0,0,0,0,0,0,0,
12,12,12,12,12,0,0,0,0,0,0,0,0,0,0,0
</chunk>
   <chunk x="-80" y="16" width="16" height="16">
0,0,0,0,0,0,0,0,0,0,0,0,0,0,0,0,
0,0,0,0,0,0,0,0,0,0,0,0,0,0,0,0,
0,0,0,0,0,0,0,0,0,0,0,0,0,0,0,0,
0,0,0,0,0,0,0,0,0,0,0,0,0,0,0,0,
0,0,0,0,0,0,0,0,0,0,0,0,0,0,0,0,
0,0,0,0,0,0,0,0,0,0,0,0,0,0,0,0,
0,0,0,0,0,0,0,0,0,0,0,0,0,0,0,0,
0,0,0,0,0,0,0,0,0,0,0,0,0,0,0,0,
12,12,0,0,0,0,0,0,12,12,12,12,12,12,12,12,
12,12,0,0,0,0,0,0,12,12,12,12,12,12,12,12,
12,12,0,0,0,0,0,0,12,12,12,12,12,12,12,12,
12,12,0,0,0,0,0,0,12,12,12,12,12,12,12,12,
12,12,0,0,0,0,0,0,12,12,12,12,12,12,12,12,
0,0,0,0,0,0,0,0,0,12,12,12,12,12,12,12,
0,0,0,0,0,0,0,0,0,0,0,12,12,12,12,12,
0,0,0,0,0,0,0,0,0,0,0,0,0,12,12,0
</chunk>
   <chunk x="-64" y="16" width="16" height="16">
0,0,0,0,0,0,0,0,0,0,0,0,0,0,0,0,
0,0,0,0,0,0,0,0,0,0,0,0,0,0,0,0,
0,0,0,0,0,0,0,0,0,0,0,0,0,0,0,0,
0,0,0,0,0,0,0,0,0,0,0,0,0,0,0,0,
0,0,0,0,0,0,0,0,0,0,0,0,0,0,0,0,
0,0,0,0,0,0,0,0,0,0,0,0,0,0,0,0,
0,0,0,0,0,0,0,0,0,0,0,0,0,0,0,0,
0,0,0,0,0,0,0,0,0,0,0,0,0,0,0,0,
12,12,0,0,0,0,0,0,0,0,12,12,12,12,12,12,
12,12,0,0,0,0,0,0,0,0,12,12,12,12,12,12,
12,12,0,0,0,0,0,0,0,0,12,12,12,12,12,12,
12,12,0,0,0,0,0,0,0,0,0,0,12,12,12,12,
12,12,0,0,0,0,0,0,0,0,0,0,0,12,12,12,
12,12,0,0,0,0,0,0,0,0,0,0,0,0,12,12,
0,0,0,0,0,0,0,0,0,0,0,0,0,0,12,12,
0,0,0,0,0,0,0,0,0,0,0,0,0,0,0,0
</chunk>
   <chunk x="-48" y="16" width="16" height="16">
0,0,0,0,12,12,12,12,0,0,0,0,0,0,0,0,
0,0,0,12,12,12,12,12,12,0,0,0,0,0,0,0,
0,0,0,12,12,12,12,12,12,12,0,0,0,0,0,0,
0,0,0,12,12,12,12,12,12,12,0,0,0,0,0,0,
0,0,12,12,12,12,12,12,12,12,12,0,0,0,0,0,
0,0,12,12,12,12,12,12,12,12,12,12,0,0,0,0,
0,0,0,12,12,12,12,12,12,12,12,12,12,12,0,0,
0,0,0,0,0,12,12,12,12,12,12,12,12,12,0,0,
0,0,0,0,0,0,12,12,12,12,12,12,0,0,0,0,
0,0,0,0,0,0,0,12,12,12,12,0,0,0,0,0,
12,0,0,0,0,0,0,12,12,0,0,0,0,0,0,0,
12,0,0,0,0,0,0,0,0,0,0,0,0,0,0,0,
12,0,0,0,0,0,0,0,0,0,0,0,0,0,0,0,
12,12,0,0,0,0,0,0,0,0,0,0,0,0,0,0,
12,12,0,0,0,0,0,0,0,0,0,0,0,0,0,0,
0,0,0,0,0,0,0,0,0,0,0,0,0,0,0,0
</chunk>
   <chunk x="64" y="16" width="16" height="16">
0,0,0,0,0,0,0,0,0,12,12,0,0,0,0,0,
0,0,0,0,0,0,0,0,0,0,12,0,0,0,0,0,
0,0,0,0,0,0,0,0,0,0,0,0,0,0,0,0,
0,0,0,0,0,0,0,0,0,0,0,0,0,0,0,0,
0,0,0,0,0,0,0,0,0,0,0,0,0,0,0,0,
0,0,0,0,0,0,0,0,0,0,0,0,0,0,0,0,
0,0,0,0,0,0,0,0,0,0,0,0,0,0,0,0,
0,0,0,0,0,0,0,0,0,0,0,0,0,0,0,0,
0,0,0,0,0,0,0,0,0,0,0,0,0,0,0,0,
0,0,0,0,0,0,0,0,0,0,0,0,0,0,0,0,
0,0,0,0,0,0,0,0,0,0,0,0,0,0,0,0,
0,0,0,0,0,0,0,0,0,0,0,0,0,0,0,0,
0,0,0,0,0,0,0,0,0,0,0,0,0,0,0,0,
0,0,0,0,0,0,0,0,0,0,0,0,0,0,0,0,
0,0,0,0,0,0,0,0,0,0,0,0,0,0,0,0,
0,0,0,0,0,0,0,0,0,0,0,0,0,0,0,0
</chunk>
   <chunk x="-144" y="32" width="16" height="16">
0,0,0,0,0,12,12,12,12,12,12,12,12,12,12,12,
0,0,0,0,0,0,0,12,12,12,12,12,12,12,12,12,
0,0,0,0,0,0,0,0,0,0,0,0,0,12,12,12,
0,0,0,0,0,0,0,0,0,0,0,0,0,0,0,0,
0,0,0,0,0,0,0,0,0,0,0,0,0,0,0,0,
0,0,0,0,0,0,0,0,0,0,0,0,0,0,0,0,
0,0,0,0,0,0,0,0,0,0,0,0,0,0,0,0,
0,0,0,0,0,0,0,0,0,0,0,0,0,0,0,0,
0,0,0,0,0,0,0,0,0,0,0,0,0,0,0,0,
0,0,0,0,0,0,0,0,0,0,0,0,0,0,0,0,
0,0,0,0,0,0,0,0,0,0,0,0,0,0,0,0,
0,0,0,0,0,0,0,0,0,0,0,0,0,0,0,0,
0,0,0,0,0,0,0,0,0,0,0,0,0,0,0,0,
0,0,0,0,0,0,0,0,0,0,0,0,0,0,0,0,
0,0,0,0,0,0,0,0,0,0,0,0,0,0,0,0,
0,0,0,0,0,0,0,0,0,0,0,0,0,0,0,0
</chunk>
   <chunk x="-128" y="32" width="16" height="16">
12,12,12,12,12,12,12,12,12,12,12,12,12,12,12,12,
12,12,12,12,12,12,12,12,12,12,12,12,12,12,12,12,
12,12,12,12,12,12,12,12,12,12,12,12,12,12,12,12,
0,0,0,0,0,0,0,0,0,0,0,0,0,0,0,0,
0,0,0,0,0,0,0,0,0,0,0,0,0,0,0,0,
0,0,0,0,0,0,0,0,0,0,0,0,0,0,0,0,
0,0,0,0,0,0,0,0,0,0,0,0,0,0,0,0,
0,0,0,0,0,0,0,0,0,0,0,0,0,0,0,0,
0,0,0,0,0,0,0,0,0,0,0,0,0,0,0,0,
0,0,0,0,0,0,0,0,0,0,0,0,0,0,0,0,
0,0,0,0,0,0,0,0,0,0,0,0,0,0,0,0,
0,0,0,0,0,0,0,0,0,0,0,0,0,0,0,0,
0,0,0,0,0,0,0,0,0,0,0,0,0,0,0,0,
0,0,0,0,0,0,0,0,0,0,0,0,0,0,0,0,
0,0,0,0,0,0,0,0,0,0,0,0,0,0,0,0,
0,0,0,0,0,0,0,0,0,0,0,0,0,0,0,0
</chunk>
   <chunk x="-112" y="32" width="16" height="16">
12,12,12,12,12,12,12,12,12,12,12,12,12,12,12,12,
12,12,12,12,12,12,12,12,12,12,12,12,12,12,12,0,
12,12,12,12,12,12,12,0,0,0,0,0,0,0,0,0,
0,0,0,0,0,0,0,0,0,0,0,0,0,0,0,0,
0,0,0,0,0,0,0,0,0,0,0,0,0,0,0,0,
0,0,0,0,0,0,0,0,0,0,0,0,0,0,0,0,
0,0,0,0,0,0,0,0,0,0,0,0,0,0,0,0,
0,0,0,0,0,0,0,0,0,0,0,0,0,0,0,0,
0,0,0,0,0,0,0,0,0,0,0,0,0,0,0,0,
0,0,0,0,0,0,0,0,0,0,0,0,0,0,0,0,
0,0,0,0,0,0,0,0,0,0,0,0,0,0,0,0,
0,0,0,0,0,0,0,0,0,0,0,0,0,0,0,0,
0,0,0,0,0,0,0,0,0,0,0,0,0,0,0,0,
0,0,0,0,0,0,0,0,0,0,0,0,0,0,0,0,
0,0,0,0,0,0,0,0,0,0,0,0,0,0,0,0,
0,0,0,0,0,0,0,0,0,0,0,0,0,0,0,0
</chunk>
   <chunk x="-96" y="32" width="16" height="16">
12,12,12,12,0,0,0,0,0,0,0,0,0,0,0,0,
0,0,0,0,0,0,0,0,0,0,0,0,0,0,0,0,
0,0,0,0,0,0,0,0,0,0,0,0,0,0,0,0,
0,0,0,0,0,0,0,0,0,0,0,0,0,0,0,0,
0,0,0,0,0,0,0,0,0,0,0,0,0,0,0,0,
0,0,0,0,0,0,0,0,0,0,0,0,0,0,0,0,
0,0,0,0,0,0,0,0,0,0,0,0,0,0,0,0,
0,0,0,0,0,0,0,0,0,0,0,0,0,0,0,0,
0,0,0,0,0,0,0,0,0,0,0,0,0,0,0,0,
0,0,0,0,0,0,0,0,0,0,0,0,0,0,0,0,
0,0,0,0,0,0,0,0,0,0,0,0,0,0,0,0,
0,0,0,0,0,0,0,0,0,0,0,0,0,0,0,0,
0,0,0,0,0,0,0,0,0,0,0,0,0,0,0,0,
0,0,0,0,0,0,0,0,0,0,0,0,0,0,0,0,
0,0,0,0,0,0,0,0,0,0,0,0,0,0,0,0,
0,0,0,0,0,0,0,0,0,0,0,0,0,0,0,0
</chunk>
  </data>
 </layer>
 <layer id="2" name="temp" width="4" height="4">
  <data encoding="csv">
   <chunk x="-128" y="-112" width="16" height="16">
0,0,0,0,0,0,0,0,0,0,0,0,0,0,0,0,
0,0,0,0,0,0,0,0,0,0,0,0,0,0,0,0,
0,0,0,0,0,0,0,0,0,0,0,0,0,0,0,0,
0,0,0,0,0,0,0,0,0,0,0,0,0,0,0,0,
0,0,0,0,0,0,0,0,0,0,0,0,0,0,0,0,
0,0,0,0,0,0,0,0,0,0,0,0,0,0,0,0,
0,0,0,0,0,0,0,0,0,0,0,0,0,0,0,0,
0,0,0,0,0,0,0,0,0,0,0,0,0,0,0,0,
0,0,0,0,0,0,0,0,0,0,0,0,0,0,0,0,
0,0,0,0,0,0,0,0,0,0,0,0,0,0,0,0,
0,0,0,0,0,0,0,0,0,0,0,0,0,0,0,0,
0,0,0,0,0,0,0,0,0,0,0,0,0,0,0,0,
0,0,0,0,0,0,0,0,0,0,0,0,0,0,0,0,
0,0,0,0,0,0,0,0,0,0,0,0,0,0,0,0,
0,0,0,0,0,0,0,0,0,0,0,0,0,0,0,0,
0,0,0,0,0,0,0,0,0,0,12,12,12,12,12,24
</chunk>
   <chunk x="-112" y="-112" width="16" height="16">
0,0,0,0,0,0,0,0,0,0,0,0,0,0,0,0,
0,0,0,0,0,0,0,0,0,0,0,0,0,0,0,0,
0,0,0,0,0,0,0,0,0,0,0,0,0,0,0,0,
0,0,0,0,0,0,0,0,0,0,0,0,0,0,0,0,
0,0,0,0,0,0,0,0,0,0,0,0,0,0,0,0,
0,0,0,0,0,0,0,0,0,0,0,0,0,0,0,0,
0,0,0,0,0,0,0,0,0,0,0,0,0,0,0,0,
0,0,0,0,0,0,0,0,0,0,0,0,0,0,0,0,
0,0,0,0,0,0,0,0,0,0,0,0,0,0,0,0,
0,0,0,0,0,0,0,0,0,0,0,0,0,0,0,0,
0,0,0,0,0,0,0,0,0,0,0,0,0,0,0,0,
0,0,0,0,0,0,0,0,0,0,0,0,0,0,0,0,
0,0,0,0,0,0,0,0,0,0,0,0,0,0,0,0,
0,0,0,0,0,0,0,0,0,0,0,0,0,0,0,0,
0,0,0,0,0,0,0,0,0,0,0,0,0,0,0,0,
25,0,0,0,0,0,0,0,0,0,0,0,0,0,5,12
</chunk>
   <chunk x="-96" y="-112" width="16" height="16">
0,0,0,0,0,0,0,0,0,0,0,0,0,0,0,0,
0,0,0,0,0,0,0,0,0,0,0,0,0,0,0,0,
0,0,0,0,0,0,0,0,0,0,0,0,0,0,0,0,
0,0,0,0,0,0,0,0,0,0,0,0,0,0,0,0,
0,0,0,0,0,0,0,0,0,0,0,0,0,0,0,0,
0,0,0,0,0,0,0,0,0,0,0,0,0,0,0,0,
0,0,0,0,0,0,0,0,0,0,0,0,0,0,0,0,
0,0,0,0,0,0,0,0,0,0,0,0,0,0,0,0,
0,0,0,0,0,0,0,0,0,0,0,0,0,0,0,0,
0,0,0,0,0,0,0,0,0,0,0,0,0,0,0,0,
0,0,0,0,0,0,0,0,0,0,0,0,0,0,0,0,
0,0,0,0,0,0,0,0,0,0,0,0,0,0,0,0,
0,0,0,0,0,0,0,0,0,0,0,0,0,0,0,0,
0,0,0,0,0,0,0,0,0,0,0,0,0,0,0,0,
0,0,0,0,0,0,0,0,0,0,0,0,0,0,0,0,
12,12,0,0,0,0,0,0,0,0,0,0,0,0,0,0
</chunk>
   <chunk x="-128" y="-96" width="16" height="16">
0,0,0,0,0,0,0,0,0,0,12,12,12,12,12,12,
0,0,0,0,0,0,0,0,0,0,12,12,12,12,12,12,
0,0,0,0,0,0,0,0,0,0,12,12,12,12,12,12,
0,0,0,0,0,0,0,0,0,0,12,12,12,12,12,12,
0,0,0,0,0,0,0,0,0,0,12,12,12,12,12,12,
0,0,0,0,0,0,0,0,0,0,12,12,12,12,12,12,
0,0,0,0,0,0,0,0,0,0,12,12,12,12,12,12,
0,0,0,0,0,0,0,0,0,0,12,12,12,12,12,12,
0,0,0,0,0,0,0,0,0,0,0,0,0,32,33,12,
0,0,0,0,0,0,0,0,0,0,0,0,0,0,0,12,
0,0,0,0,0,0,0,0,0,0,0,0,0,0,0,12,
0,0,0,0,0,0,0,0,0,0,0,0,0,0,0,12,
0,0,0,0,0,0,0,0,0,0,0,0,0,0,0,12,
0,0,0,0,0,0,0,0,0,0,0,0,0,0,0,12,
0,0,0,0,0,0,0,0,0,0,0,0,0,0,0,12,
0,0,0,0,0,0,0,0,0,0,0,0,0,0,0,12
</chunk>
   <chunk x="-112" y="-96" width="16" height="16">
12,12,12,12,12,0,0,0,12,12,12,12,12,12,12,12,
12,12,12,12,12,0,0,0,12,12,12,12,12,12,12,12,
12,12,12,12,12,0,0,0,12,12,12,12,12,12,12,12,
12,12,12,12,12,0,0,0,12,12,12,12,12,12,12,12,
12,12,12,12,12,0,0,0,12,12,12,12,12,12,12,12,
12,12,12,12,12,0,0,0,12,12,12,12,12,12,12,12,
12,12,12,12,12,0,0,0,12,12,12,12,12,12,12,12,
12,12,12,12,12,0,0,0,12,12,12,12,12,12,12,12,
12,12,12,12,12,0,0,0,12,12,12,12,12,12,34,35,
12,12,12,12,12,0,0,0,12,12,12,12,12,12,0,0,
12,12,12,12,12,0,0,0,12,12,12,12,12,12,0,0,
12,12,12,12,12,0,0,0,12,12,12,12,12,12,0,0,
12,12,12,12,12,0,0,0,12,12,12,12,12,12,0,0,
12,12,12,12,12,0,0,0,0,0,0,0,0,0,0,0,
12,12,12,12,12,0,0,0,0,0,0,0,0,0,0,0,
12,12,12,12,12,0,0,0,0,0,0,0,0,0,0,0
</chunk>
   <chunk x="-96" y="-96" width="16" height="16">
12,12,12,12,12,12,12,0,0,0,0,0,0,0,0,0,
12,12,12,12,12,12,12,0,0,0,0,0,0,0,0,0,
12,12,12,12,12,12,12,0,0,0,0,0,0,0,0,0,
12,12,12,12,12,12,12,0,0,0,0,0,0,0,0,0,
12,12,12,12,12,12,12,0,0,0,0,0,0,0,0,0,
12,12,12,12,12,12,12,0,0,0,0,0,0,0,0,0,
12,34,35,32,33,12,12,0,0,0,0,0,0,0,0,0,
12,0,0,0,0,0,0,0,0,0,0,0,0,0,0,0,
0,0,0,0,0,0,0,0,0,0,0,0,0,0,0,0,
0,0,0,0,0,0,0,0,0,0,0,0,0,0,0,0,
0,0,0,0,0,0,0,0,0,0,0,0,0,0,0,0,
0,0,0,0,0,0,0,0,0,0,0,0,0,0,0,0,
0,0,0,0,0,0,0,0,0,0,0,0,0,0,0,0,
0,0,0,0,0,0,0,0,0,0,0,0,0,0,0,0,
0,0,0,0,0,0,0,0,0,0,0,0,0,0,0,0,
0,0,0,0,0,0,0,0,0,0,0,0,0,0,0,0
</chunk>
   <chunk x="-128" y="-80" width="16" height="16">
0,0,0,0,0,0,0,0,0,0,0,0,0,0,0,12,
0,0,0,0,0,0,0,0,0,0,0,0,0,0,0,12,
0,0,0,0,0,0,0,0,0,0,0,0,0,0,0,12,
0,0,0,0,0,0,0,0,0,0,0,0,0,0,0,12,
0,0,0,0,0,0,0,0,0,0,0,0,0,0,0,12,
0,0,0,0,0,0,0,0,0,0,0,0,0,0,0,12,
0,0,0,0,0,0,0,0,0,0,0,0,0,0,0,12,
0,0,0,0,0,0,0,0,0,0,0,0,0,0,0,15,
0,0,0,0,0,0,0,0,0,0,0,0,0,0,0,0,
0,0,0,0,0,0,0,0,0,0,0,0,0,0,0,0,
0,0,0,0,0,0,0,0,0,0,0,0,0,0,0,0,
0,0,0,0,0,0,0,0,0,0,0,0,0,0,0,0,
0,0,0,0,0,0,0,0,0,0,0,0,0,0,0,0,
0,0,0,0,0,0,0,0,0,0,0,0,0,0,0,0,
0,0,0,0,0,0,0,0,0,0,0,0,0,0,0,0,
0,0,0,0,0,0,0,0,0,0,0,0,0,0,0,0
</chunk>
   <chunk x="-112" y="-80" width="16" height="16">
12,12,12,12,12,0,0,0,0,0,0,0,0,0,0,0,
12,12,12,12,12,0,0,0,0,0,0,0,0,0,0,0,
12,12,12,12,12,12,0,0,0,0,0,0,0,0,0,0,
12,12,12,12,12,12,0,0,0,0,0,0,0,0,0,0,
12,12,12,12,12,12,0,0,0,0,0,0,0,0,0,0,
12,12,12,12,12,12,0,0,0,0,0,0,0,0,0,0,
12,12,12,12,12,12,12,6,0,0,0,0,0,0,0,0,
12,12,12,12,12,12,12,12,0,0,0,0,0,0,0,0,
12,12,12,12,12,12,12,12,0,0,0,0,0,0,0,12,
12,12,12,12,12,12,12,12,12,6,0,0,0,0,0,12,
12,12,12,12,12,12,12,12,12,12,0,0,0,0,0,12,
15,12,12,12,12,12,12,12,12,12,0,0,0,0,0,12,
0,0,12,12,12,12,12,12,12,12,0,0,0,0,0,12,
0,0,12,12,12,12,12,12,12,12,0,0,0,0,0,12,
0,12,12,12,12,12,12,12,12,12,0,0,0,0,0,12,
0,12,12,12,12,34,35,0,0,0,0,0,0,0,0,12
</chunk>
   <chunk x="-96" y="-80" width="16" height="16">
0,0,0,0,0,0,0,0,0,0,0,0,0,0,0,0,
12,12,0,0,0,0,0,0,0,0,0,0,0,0,0,0,
12,12,0,0,0,0,0,0,0,0,0,0,0,0,0,0,
12,12,12,12,12,0,0,0,0,0,0,0,0,0,0,0,
12,12,12,12,12,0,0,0,0,0,0,0,0,0,0,0,
12,12,12,12,12,0,0,0,0,0,0,0,0,0,0,0,
12,12,12,12,12,0,0,0,0,0,0,0,0,0,0,0,
12,12,12,12,12,0,0,0,0,0,0,0,0,0,0,0,
12,12,12,12,12,0,0,0,0,0,0,0,0,0,0,0,
12,12,12,12,12,0,0,0,0,0,0,0,0,0,0,0,
12,12,12,12,12,0,0,0,0,0,0,0,0,0,0,0,
12,12,12,12,12,0,0,0,0,0,0,0,0,0,0,0,
12,12,12,12,12,0,0,0,0,0,0,0,0,0,0,0,
12,12,12,12,12,0,0,0,0,0,0,0,0,0,0,0,
12,12,12,12,12,0,0,0,0,0,0,0,0,0,0,0,
12,12,12,12,12,0,0,0,0,0,0,0,0,0,0,0
</chunk>
   <chunk x="-128" y="-64" width="16" height="16">
0,0,0,0,0,0,0,0,0,0,0,0,0,0,0,0,
0,0,0,0,0,0,0,0,0,0,0,0,0,0,0,0,
0,0,0,0,0,0,0,0,0,0,0,0,0,0,0,5,
0,0,0,0,0,0,0,0,0,0,0,0,0,22,23,12,
0,0,0,0,0,0,0,0,0,0,0,0,0,12,12,12,
0,0,0,0,0,0,0,0,0,0,0,0,0,12,12,12,
0,0,0,0,0,0,0,0,0,0,0,0,0,12,12,12,
0,0,0,0,0,0,0,0,0,0,0,0,0,32,33,12,
0,0,0,0,0,0,0,0,0,0,0,0,0,0,0,15,
0,0,0,0,0,0,0,0,0,0,0,0,0,0,0,0,
0,0,0,0,0,0,0,0,0,0,0,0,0,0,0,0,
0,0,0,0,0,0,0,0,0,0,0,0,0,0,0,0,
0,0,0,0,0,0,0,0,0,0,0,0,0,0,0,0,
0,0,0,0,0,0,0,0,0,0,0,0,0,0,0,0,
0,0,0,0,0,0,0,0,0,0,0,0,0,0,0,0,
0,0,0,0,0,0,0,0,0,0,0,0,0,0,0,0
</chunk>
   <chunk x="-112" y="-64" width="16" height="16">
0,12,12,12,12,0,0,0,0,0,0,0,0,0,0,12,
0,12,12,12,12,0,0,0,0,0,0,0,0,0,0,12,
12,12,12,12,12,0,0,0,0,0,0,0,0,0,0,12,
12,12,12,12,12,0,0,0,0,0,0,0,0,0,0,12,
12,12,12,12,12,0,0,0,0,0,0,0,0,0,0,12,
12,12,12,12,12,0,0,0,0,0,0,0,0,0,0,12,
12,12,12,12,12,0,0,0,0,0,0,0,0,0,0,15,
12,12,12,12,12,0,0,0,0,0,0,0,0,0,0,0,
12,12,12,12,12,12,12,12,12,12,12,0,0,0,0,0,
15,12,12,12,12,12,12,12,12,12,12,0,0,0,0,0,
0,12,12,12,12,12,12,12,12,12,12,0,0,0,0,0,
0,0,0,0,12,12,12,12,12,12,12,0,0,0,0,0,
0,0,5,12,12,12,12,12,12,12,12,0,0,0,0,0,
0,5,12,12,12,12,12,12,12,12,12,0,0,0,0,0,
5,12,12,12,12,12,12,12,12,12,12,0,0,0,0,0,
12,12,12,12,12,12,12,12,12,12,12,0,0,0,0,12
</chunk>
   <chunk x="-96" y="-64" width="16" height="16">
12,12,12,12,12,0,0,0,0,0,0,0,0,0,0,0,
12,12,12,12,12,12,0,0,0,0,0,0,0,0,0,0,
12,12,12,12,12,12,0,0,0,0,0,0,0,0,0,0,
12,12,12,12,12,12,12,0,0,0,0,0,0,0,0,0,
12,12,12,12,12,12,12,0,0,0,0,0,0,0,0,0,
12,12,12,12,12,12,12,12,6,0,0,0,0,0,0,0,
12,12,12,12,12,12,12,12,12,0,0,0,0,0,0,0,
12,12,12,12,12,12,12,12,12,0,0,0,0,0,0,0,
12,12,12,12,12,12,12,12,12,12,6,0,0,0,0,0,
12,12,12,12,12,12,12,12,12,12,12,0,0,0,0,0,
12,12,12,12,12,12,12,12,12,12,12,0,0,0,0,0,
0,0,0,0,32,33,12,12,12,12,12,12,0,0,0,0,
0,0,0,0,0,0,15,12,12,12,12,12,0,0,0,0,
0,0,0,0,0,0,0,12,12,12,12,12,12,0,0,0,
0,0,0,0,0,0,0,12,12,12,12,12,12,0,0,0,
12,12,12,12,12,12,12,12,12,12,12,12,12,12,0,0
</chunk>
   <chunk x="32" y="-64" width="16" height="16">
0,0,0,0,0,0,0,0,0,0,0,0,0,0,0,0,
0,0,0,0,0,0,0,0,0,0,0,0,0,0,0,0,
0,0,0,0,0,0,0,0,0,0,0,0,0,0,0,0,
0,0,0,0,0,0,0,0,0,0,0,0,0,0,0,0,
0,0,0,0,0,0,0,0,0,0,0,0,0,0,0,0,
0,0,0,0,0,0,0,0,0,0,0,0,0,0,0,0,
0,0,0,0,0,0,0,0,0,0,0,0,0,0,0,0,
0,0,0,0,0,0,0,0,0,0,0,0,0,0,0,0,
0,0,0,0,0,0,0,0,0,0,0,0,0,0,0,0,
0,0,0,0,0,0,0,0,0,0,0,0,0,0,0,0,
0,0,0,0,0,0,0,0,0,0,0,0,0,0,0,0,
0,0,0,0,0,0,0,0,0,0,0,0,0,0,0,0,
0,0,0,0,0,0,0,0,22,23,12,12,12,12,24,25,
0,0,0,0,22,23,12,12,12,12,12,12,12,12,12,12,
0,0,0,5,12,12,12,12,12,12,12,12,12,12,12,12,
0,0,5,12,12,12,12,12,12,12,12,12,12,12,12,12
</chunk>
   <chunk x="48" y="-64" width="16" height="16">
0,0,0,0,0,0,0,0,0,0,0,0,0,0,0,0,
0,0,0,0,0,0,0,0,0,0,0,0,0,0,0,0,
0,0,0,0,0,0,0,0,0,0,0,0,0,0,0,0,
0,0,0,0,0,0,0,0,0,0,0,0,0,0,0,0,
0,0,0,0,0,0,0,0,0,0,0,0,0,0,0,0,
0,0,0,0,0,0,0,0,0,0,0,0,0,0,0,0,
0,0,0,0,0,0,0,0,0,0,0,0,0,0,0,0,
0,0,0,0,0,0,0,0,0,0,0,0,0,0,0,0,
0,0,0,0,0,0,0,0,0,0,0,0,0,0,0,0,
0,0,0,0,0,0,0,0,0,0,0,0,0,0,0,0,
0,0,0,0,0,0,0,0,0,0,0,0,0,0,0,0,
0,0,0,0,0,0,0,0,0,0,0,0,0,0,0,0,
0,0,0,0,0,0,0,0,0,0,0,0,0,0,0,0,
12,12,12,12,12,12,12,12,12,0,0,0,0,0,0,0,
12,12,12,12,12,12,12,12,12,0,0,0,0,0,0,0,
12,12,12,12,12,12,12,12,12,0,0,0,0,0,0,0
</chunk>
   <chunk x="-128" y="-48" width="16" height="16">
0,0,0,0,0,0,0,0,0,0,0,0,0,0,0,0,
0,0,0,0,0,0,0,0,0,0,0,0,0,0,0,0,
0,0,0,0,0,0,0,0,0,0,0,0,0,0,0,0,
0,0,0,0,0,0,0,0,0,0,0,0,0,0,0,0,
0,0,0,0,0,0,0,0,0,0,0,0,0,0,0,0,
0,0,0,0,0,0,0,0,0,0,0,0,0,0,0,0,
0,0,0,0,0,0,0,0,0,0,0,0,0,0,0,0,
0,0,0,0,0,0,0,0,0,0,0,0,0,0,0,0,
0,0,0,0,0,0,0,0,0,0,0,0,0,0,0,0,
0,0,0,0,0,0,0,0,0,0,0,0,0,0,0,0,
0,0,0,0,0,0,0,0,0,0,0,0,0,0,0,0,
0,0,0,0,0,0,0,0,0,0,0,0,0,0,0,0,
0,0,0,0,0,0,0,0,0,0,0,0,0,0,0,0,
0,0,0,0,0,0,0,0,0,0,0,0,0,0,0,5,
0,0,0,0,0,0,0,0,0,0,0,0,0,0,0,12,
0,0,0,0,0,0,0,0,0,0,0,0,0,0,0,12
</chunk>
   <chunk x="-112" y="-48" width="16" height="16">
12,12,12,12,12,12,12,12,12,12,12,0,0,0,0,12,
12,12,12,12,12,12,12,12,12,12,12,0,0,0,0,12,
12,12,12,12,12,12,12,12,12,12,12,0,0,0,0,12,
12,12,12,12,12,12,12,12,12,12,12,0,0,0,0,12,
12,12,12,12,12,12,12,12,12,12,12,0,0,0,0,12,
12,12,12,12,12,12,12,12,12,12,12,12,0,0,0,12,
32,33,12,12,12,12,12,12,12,12,12,12,0,0,0,12,
0,0,12,12,12,12,12,12,12,12,12,12,0,0,0,12,
0,0,12,12,12,12,12,12,12,12,12,12,12,0,0,12,
0,0,12,12,12,12,12,12,12,12,12,12,12,0,0,0,
0,12,12,12,12,12,12,12,12,12,12,12,12,0,0,0,
0,12,12,12,12,12,12,12,12,12,12,12,12,0,0,12,
0,12,12,12,12,12,12,12,12,12,12,12,12,0,0,12,
12,12,12,12,12,12,12,12,12,12,12,12,12,0,0,15,
12,12,12,12,12,12,12,12,12,12,12,12,0,0,0,0,
12,12,12,12,12,12,12,12,12,12,12,12,12,12,0,0
</chunk>
   <chunk x="-96" y="-48" width="16" height="16">
12,12,12,12,12,12,12,12,12,12,12,12,12,12,0,0,
12,12,12,12,12,12,12,12,12,12,12,12,12,12,0,0,
12,12,12,12,12,12,12,12,12,12,12,12,12,12,0,0,
12,12,12,12,12,12,12,12,12,12,12,12,12,12,0,0,
12,12,12,12,12,12,12,12,12,12,12,12,12,12,0,0,
12,12,12,12,12,12,12,12,12,12,12,12,12,12,12,0,
12,12,12,12,12,12,12,12,12,12,12,12,12,12,12,0,
12,12,12,12,12,12,12,12,12,12,12,12,12,12,12,0,
12,12,12,12,12,12,12,12,12,12,12,12,12,12,12,12,
12,12,12,12,12,12,12,12,12,12,12,12,12,12,12,12,
0,12,12,12,12,12,12,12,12,12,12,12,12,12,12,12,
12,12,12,12,12,12,12,12,12,12,12,12,12,12,12,12,
12,12,12,12,12,12,12,12,12,12,12,12,12,12,12,12,
12,12,12,12,12,12,12,12,12,12,12,12,12,12,0,12,
15,12,12,12,12,12,12,12,12,12,12,12,12,12,0,12,
0,12,12,12,12,34,35,12,12,12,12,12,12,12,0,0
</chunk>
   <chunk x="-80" y="-48" width="16" height="16">
0,0,0,0,0,0,0,0,0,0,0,0,0,0,0,0,
0,0,0,0,0,0,0,0,0,0,0,0,0,0,0,0,
0,0,0,0,0,0,0,0,0,0,0,0,0,0,0,0,
0,0,0,0,0,0,0,0,0,0,0,0,0,0,0,0,
0,0,0,0,0,0,0,0,0,0,0,0,0,0,0,0,
0,0,0,0,0,0,0,0,0,0,0,0,0,0,0,0,
0,0,0,0,0,0,0,0,0,0,0,0,0,0,0,0,
0,0,0,0,0,0,0,0,0,0,0,0,0,0,0,0,
0,0,0,0,0,0,0,0,0,0,0,0,0,0,0,0,
0,0,0,0,0,0,0,0,0,0,0,0,0,0,0,0,
12,0,0,0,0,0,0,0,0,0,0,0,0,0,0,0,
12,0,0,0,0,0,0,0,0,0,0,0,0,0,0,0,
12,12,6,0,0,0,0,0,0,0,0,0,0,0,0,0,
12,12,12,6,0,0,0,0,0,0,0,0,0,0,0,0,
12,12,12,12,24,25,0,0,0,0,0,0,0,0,0,0,
12,12,12,12,12,12,0,0,0,0,0,0,0,0,0,0
</chunk>
   <chunk x="0" y="-48" width="16" height="16">
0,0,0,0,0,0,0,0,0,0,0,0,0,0,0,0,
0,0,0,0,0,0,0,0,0,0,0,0,0,0,0,0,
0,0,0,0,0,0,0,0,0,0,0,0,0,0,0,0,
0,0,0,0,0,0,0,0,0,0,0,0,0,0,0,0,
0,0,0,0,0,0,0,0,0,0,0,0,0,0,0,0,
0,0,0,0,0,0,0,0,0,0,0,0,0,0,0,0,
0,0,0,0,0,0,0,0,0,0,0,0,0,0,0,0,
0,0,0,0,0,0,0,0,0,0,0,0,0,0,0,0,
0,0,0,0,0,0,0,0,0,0,0,0,0,0,0,0,
0,0,0,0,0,0,0,0,0,0,0,0,0,0,0,0,
0,0,0,0,0,0,0,0,0,0,0,0,0,0,0,0,
0,0,0,0,0,0,0,0,0,0,0,0,0,0,0,0,
0,0,0,0,0,0,0,0,0,0,0,0,0,0,0,0,
0,0,0,0,0,0,0,0,0,0,0,0,0,0,0,0,
0,0,0,0,0,0,0,0,0,0,0,0,0,0,0,5,
0,0,0,0,0,0,0,0,0,0,0,0,0,0,5,12
</chunk>
   <chunk x="16" y="-48" width="16" height="16">
0,0,0,0,0,0,0,0,0,0,0,0,0,0,0,0,
0,0,0,0,0,0,0,0,0,0,0,0,0,0,0,0,
0,0,0,0,0,0,0,0,0,0,0,0,0,0,0,0,
0,0,0,0,0,0,0,0,0,0,0,0,0,0,0,0,
0,0,0,0,0,0,0,0,0,0,0,0,0,0,0,0,
0,0,0,0,0,0,0,0,0,0,0,0,0,0,5,12,
0,0,0,0,0,0,0,0,0,0,0,0,22,23,12,12,
0,0,0,0,0,0,0,0,0,0,0,5,12,12,12,12,
0,0,0,0,0,0,0,0,0,22,23,12,12,12,12,12,
0,0,0,0,0,0,0,0,5,12,12,12,12,12,12,12,
0,0,0,0,0,0,22,23,12,12,12,12,12,12,12,12,
0,0,0,22,23,12,12,12,12,12,12,12,12,12,12,12,
0,0,5,12,12,12,12,12,12,12,12,12,12,12,12,16,
22,23,12,12,12,12,12,12,12,12,12,12,12,34,35,0,
12,12,12,12,12,12,12,12,12,12,12,34,35,0,0,0,
12,12,12,12,12,12,12,12,12,34,35,0,0,0,0,0
</chunk>
   <chunk x="32" y="-48" width="16" height="16">
0,5,12,12,12,12,12,12,12,12,12,12,12,12,12,12,
0,12,12,12,12,12,12,12,12,12,12,12,12,12,12,12,
0,12,12,12,12,12,12,12,12,12,12,12,12,12,12,12,
12,12,12,12,12,12,12,12,12,12,12,12,12,12,12,12,
12,12,12,12,12,12,12,12,12,12,12,12,12,12,12,12,
12,12,12,12,12,12,12,12,12,12,12,12,12,12,12,34,
12,12,12,12,12,12,12,12,12,12,12,12,12,34,35,0,
12,12,12,12,12,12,12,12,12,12,12,12,16,0,0,0,
12,12,12,12,12,12,12,12,12,12,34,35,0,0,0,0,
12,12,12,12,12,12,12,12,12,16,0,0,0,0,0,0,
12,12,12,12,12,12,12,12,16,0,0,0,0,0,0,0,
34,35,0,0,0,0,0,0,0,0,0,0,0,0,0,0,
0,0,0,0,0,0,0,0,0,0,0,0,0,0,0,0,
0,0,0,0,0,0,0,0,0,0,0,0,0,0,0,0,
0,0,0,0,0,0,0,0,0,0,0,0,0,0,0,0,
0,0,0,0,0,0,0,5,12,12,12,12,12,12,12,12
</chunk>
   <chunk x="48" y="-48" width="16" height="16">
12,12,12,12,12,12,12,12,12,0,0,0,0,0,0,0,
12,12,12,12,12,12,12,12,12,0,0,0,0,0,0,0,
12,12,12,12,12,12,12,12,12,0,0,0,0,0,0,0,
12,12,12,12,12,12,12,12,12,0,0,0,0,0,0,0,
12,34,35,0,0,0,0,0,0,0,0,0,0,0,0,0,
35,0,0,0,0,0,0,0,0,0,0,0,0,0,0,0,
0,0,0,0,0,0,0,0,0,0,0,0,0,0,0,0,
0,0,0,0,0,0,0,0,0,0,0,0,0,0,0,0,
0,0,0,0,0,0,0,0,0,0,0,0,0,0,0,0,
0,0,0,0,0,0,0,0,0,0,0,0,0,0,0,0,
0,0,0,0,0,0,0,0,0,0,0,0,0,0,0,0,
0,0,0,0,0,0,0,0,0,0,0,0,0,0,0,0,
0,0,0,0,0,0,0,0,0,0,0,0,0,0,0,0,
0,0,0,0,0,0,0,0,0,0,0,0,0,0,0,0,
0,0,0,0,0,0,0,0,0,0,0,0,0,0,0,0,
12,12,12,12,12,12,12,12,0,0,0,0,0,0,0,0
</chunk>
   <chunk x="64" y="-48" width="16" height="16">
0,0,0,0,0,0,0,0,0,0,0,0,0,0,0,0,
0,0,0,0,0,0,0,0,0,0,0,0,0,0,0,0,
0,0,0,0,0,0,0,0,0,0,0,0,0,0,0,0,
0,0,0,0,0,0,0,0,0,0,0,0,0,0,0,0,
0,0,0,0,0,0,0,0,0,0,0,0,0,0,0,0,
0,0,0,0,0,0,0,0,0,0,0,0,0,0,0,0,
0,0,0,0,0,0,0,0,0,0,0,0,0,0,0,0,
0,0,0,0,0,0,0,0,0,0,0,0,0,0,0,0,
0,0,0,0,0,0,0,0,0,0,0,0,0,0,0,0,
0,0,0,0,0,0,0,0,0,0,0,0,0,0,0,0,
0,0,0,0,0,0,0,0,0,0,0,0,0,0,0,0,
0,0,0,0,0,0,0,0,0,0,0,0,0,0,0,0,
0,0,0,0,0,0,0,0,0,0,0,0,0,0,0,0,
0,0,0,0,0,0,0,0,0,0,0,0,0,0,0,0,
0,0,0,0,0,0,0,0,0,0,0,0,0,0,0,0,
0,0,0,0,0,0,0,0,0,0,0,0,0,0,0,5
</chunk>
   <chunk x="80" y="-48" width="16" height="16">
0,0,0,0,0,0,0,0,0,0,0,0,0,0,0,0,
0,0,0,0,0,0,0,0,0,0,0,0,0,0,0,0,
0,0,0,0,0,0,0,0,0,0,0,0,0,0,0,0,
0,0,0,0,0,0,0,0,0,0,0,0,0,0,0,0,
0,0,0,0,0,0,0,0,0,0,0,0,0,0,0,0,
0,0,0,0,0,0,0,0,0,0,0,0,0,0,0,0,
0,0,0,0,0,0,0,0,0,0,0,0,0,0,0,0,
0,0,0,0,0,0,0,0,0,0,0,0,0,0,0,0,
0,0,0,0,0,0,0,0,0,0,0,0,0,0,0,0,
0,0,0,0,0,0,0,0,0,0,0,0,0,0,0,0,
0,0,0,0,0,0,0,0,0,0,0,0,0,0,0,0,
0,0,0,0,0,0,0,0,0,0,0,0,0,0,0,0,
0,0,0,0,0,0,0,0,0,0,0,0,0,0,0,0,
0,0,0,0,0,0,0,0,22,23,12,12,0,0,0,0,
0,0,0,0,0,22,23,12,12,12,12,12,0,0,0,0,
12,12,12,12,12,12,12,12,12,12,12,12,0,0,0,0
</chunk>
   <chunk x="112" y="-48" width="16" height="16">
0,0,0,0,0,0,0,0,0,0,0,0,0,0,0,0,
0,0,0,0,0,0,0,0,0,0,0,0,0,0,0,0,
0,0,0,0,0,0,0,0,0,0,0,0,0,0,0,0,
0,0,0,0,0,0,0,0,0,0,0,0,0,0,0,0,
0,0,0,0,0,0,0,0,0,0,0,0,0,0,0,0,
0,0,0,0,0,0,0,0,0,0,0,0,0,0,0,0,
0,0,0,0,0,0,0,0,0,0,0,0,0,0,0,0,
0,0,0,0,0,0,0,0,0,0,0,0,0,0,0,0,
0,0,0,0,0,0,0,0,0,0,0,0,0,0,0,0,
0,0,0,0,0,0,0,0,0,0,0,0,0,0,0,0,
0,0,0,0,0,0,0,0,0,0,0,0,0,0,0,0,
0,0,0,0,0,0,0,0,0,0,0,0,0,0,0,0,
0,0,0,0,0,0,0,0,0,0,0,0,0,0,0,0,
0,0,0,0,0,0,0,0,0,0,0,0,0,0,0,0,
0,0,0,0,0,0,0,0,0,0,0,0,0,0,12,12,
0,0,0,0,0,0,0,0,0,0,0,0,0,0,12,12
</chunk>
   <chunk x="128" y="-48" width="16" height="16">
0,0,0,0,0,0,0,0,0,0,0,0,0,0,0,0,
0,0,0,0,0,0,0,0,0,0,0,0,0,0,0,0,
0,0,0,0,0,0,0,0,0,0,0,0,0,0,0,0,
0,0,0,0,0,0,0,0,0,0,0,0,0,0,0,0,
0,0,0,0,0,0,0,0,0,0,0,0,0,0,0,0,
0,0,0,0,0,0,0,0,0,0,0,0,0,0,0,0,
0,0,0,0,0,0,0,0,0,0,0,0,0,0,0,0,
0,0,0,0,0,0,0,0,0,0,0,0,0,0,0,0,
0,0,0,0,0,0,0,0,0,0,0,0,0,0,0,0,
0,0,0,0,0,0,0,0,0,0,0,0,0,0,0,0,
0,0,0,0,0,0,0,0,0,0,0,0,0,0,0,0,
0,0,0,0,0,0,0,0,0,0,0,0,0,0,0,0,
0,0,0,0,0,0,0,0,0,0,0,0,0,0,0,0,
0,0,0,0,0,0,0,0,0,0,0,0,0,0,0,0,
12,12,12,12,12,0,0,0,0,0,0,0,0,0,0,0,
12,12,12,12,12,0,0,0,0,0,0,0,0,0,0,0
</chunk>
   <chunk x="-128" y="-32" width="16" height="16">
0,0,0,0,0,0,0,0,0,0,0,0,0,0,12,12,
0,0,0,0,0,0,0,0,0,0,0,0,0,0,12,12,
0,0,0,0,0,0,0,0,0,0,0,0,0,0,12,12,
0,0,0,0,0,0,0,0,0,0,0,0,0,0,12,12,
0,0,0,0,0,0,0,0,0,0,0,0,5,12,12,12,
0,0,0,0,0,0,0,0,0,0,0,0,12,12,12,12,
0,0,0,0,0,0,0,0,0,0,0,0,12,12,12,12,
0,0,0,0,0,0,0,0,0,0,0,0,12,12,12,12,
0,0,0,0,0,0,0,0,0,0,5,12,12,12,12,12,
0,0,0,0,0,0,0,0,0,0,12,12,12,12,12,12,
0,0,0,0,0,0,0,0,0,0,0,12,12,12,12,12,
0,0,0,0,0,0,0,0,0,5,12,12,12,12,12,12,
0,0,0,0,0,0,0,22,23,12,12,12,12,12,12,12,
0,0,0,0,0,0,5,12,12,12,12,12,12,12,12,12,
0,0,0,0,22,23,12,12,12,12,12,12,12,12,12,12,
0,0,0,5,12,12,12,12,12,12,12,12,12,12,12,12
</chunk>
   <chunk x="-112" y="-32" width="16" height="16">
12,12,12,12,12,12,12,12,12,12,12,12,12,12,0,0,
12,12,12,12,12,12,12,12,12,12,12,12,12,12,0,0,
12,12,12,12,12,12,12,12,12,12,12,12,0,0,0,0,
12,12,12,12,12,12,12,12,12,12,12,12,12,12,0,0,
12,12,12,12,12,34,35,15,12,12,12,12,34,35,0,0,
12,12,12,12,16,0,0,0,0,0,0,0,0,0,0,0,
12,12,12,12,0,0,0,0,0,0,0,0,0,0,0,0,
12,12,12,12,0,0,0,0,0,0,0,0,0,0,0,0,
12,12,12,12,0,0,0,0,0,0,0,0,0,0,0,0,
12,12,12,16,0,0,0,0,0,0,0,0,0,0,0,0,
12,12,12,0,0,0,0,0,0,0,0,0,0,0,0,0,
12,12,12,0,0,0,0,0,0,0,0,0,0,0,0,0,
12,12,12,0,0,0,0,0,0,0,0,0,0,0,0,0,
12,12,12,0,0,0,0,0,0,0,0,0,0,0,0,0,
12,12,12,0,0,0,0,0,0,0,0,0,0,0,0,0,
12,34,35,0,0,0,0,0,0,0,0,0,0,0,0,0
</chunk>
   <chunk x="-96" y="-32" width="16" height="16">
0,0,0,0,0,0,0,12,12,12,12,12,12,12,0,0,
0,0,0,0,0,0,0,12,12,12,12,12,12,12,0,0,
0,0,0,0,0,5,12,12,12,12,12,12,12,12,0,0,
0,0,0,22,23,12,12,12,12,12,12,12,12,12,0,0,
0,0,12,12,12,12,12,12,12,12,12,12,12,12,0,0,
0,0,12,12,12,12,12,12,12,12,12,12,12,12,0,0,
0,0,15,12,12,12,12,12,12,12,12,12,12,16,0,0,
0,0,0,32,33,12,12,12,12,12,12,12,16,0,0,0,
0,0,0,0,0,0,0,0,0,0,0,0,0,0,0,0,
0,0,0,0,0,0,0,0,0,0,0,0,0,0,0,0,
0,0,0,0,0,0,0,0,0,0,0,0,0,0,0,0,
0,0,0,0,0,0,0,0,0,0,0,0,0,0,0,0,
0,0,0,0,0,0,0,0,0,0,0,0,0,0,0,0,
0,0,0,0,0,0,0,0,0,0,0,0,0,0,0,0,
0,0,0,0,0,0,0,0,0,0,0,0,0,0,0,0,
0,0,0,0,0,0,0,0,0,0,0,0,0,0,0,0
</chunk>
   <chunk x="-80" y="-32" width="16" height="16">
32,33,12,12,12,12,0,0,0,0,0,0,0,0,0,0,
0,0,15,12,12,12,0,0,0,0,0,0,0,0,0,0,
0,0,0,0,0,0,0,0,0,0,0,0,0,0,0,0,
0,0,0,0,0,0,0,0,0,0,0,0,0,0,0,0,
0,0,0,0,0,0,0,0,0,0,0,0,0,0,0,0,
0,0,0,0,0,0,0,0,0,0,0,0,0,0,0,0,
0,0,0,0,0,0,0,0,0,0,0,0,0,0,0,0,
0,0,0,0,0,0,0,0,0,0,0,0,0,0,0,0,
0,0,0,0,0,0,0,0,0,0,0,0,0,0,0,0,
0,0,0,0,0,0,0,0,0,0,0,0,0,0,0,0,
0,0,0,0,0,0,0,0,0,0,0,0,0,0,0,0,
0,0,0,0,0,0,0,0,0,0,0,0,0,0,0,0,
0,0,0,0,0,0,0,0,0,0,0,0,0,0,0,0,
0,0,0,0,0,0,0,0,0,0,0,0,0,0,0,0,
0,0,0,0,0,0,0,0,0,0,0,0,0,0,0,0,
0,0,0,0,0,0,0,0,0,0,0,0,0,0,0,0
</chunk>
   <chunk x="0" y="-32" width="16" height="16">
0,0,0,0,0,0,0,0,0,0,0,0,22,23,12,12,
0,0,0,0,0,0,0,0,0,0,0,5,12,12,12,12,
0,0,0,0,0,0,0,0,0,0,0,12,12,12,12,34,
0,0,0,0,0,0,0,0,0,0,0,0,0,0,0,0,
0,0,0,0,0,0,0,0,0,0,0,0,0,0,0,0,
0,0,0,0,0,0,0,0,0,0,0,0,0,0,0,0,
0,0,0,0,0,0,0,0,0,0,0,0,0,0,0,0,
0,0,0,0,0,0,0,0,0,0,0,0,0,0,0,0,
0,0,0,0,0,0,0,0,0,0,0,0,0,0,0,0,
0,0,0,0,0,0,0,0,0,0,0,0,0,0,0,0,
0,0,0,0,0,0,0,0,0,0,0,0,0,0,0,0,
0,0,0,0,0,0,0,0,0,0,0,0,0,0,0,0,
0,0,0,0,0,0,0,0,0,0,0,0,0,0,0,0,
0,0,0,0,0,0,0,0,0,0,0,0,0,0,0,0,
0,0,0,0,0,0,0,0,0,0,0,0,0,0,0,0,
0,0,0,0,0,0,0,0,0,0,0,0,0,0,0,0
</chunk>
   <chunk x="16" y="-32" width="16" height="16">
12,12,12,12,12,12,34,35,0,0,0,0,0,0,0,0,
12,12,12,34,35,0,0,0,0,0,0,0,0,0,0,0,
35,0,0,0,0,0,0,0,0,0,0,0,0,0,0,0,
0,0,0,0,0,0,0,0,0,0,0,0,0,0,0,0,
0,0,0,0,0,0,0,0,0,0,0,0,0,0,0,0,
0,0,0,0,0,0,0,0,0,0,0,0,0,0,0,0,
0,0,0,0,0,0,0,0,0,0,0,0,0,0,0,0,
0,0,0,0,0,0,0,0,0,0,0,0,0,0,0,5,
0,0,0,0,0,0,0,0,0,0,0,0,0,0,5,12,
0,0,0,0,0,0,0,0,0,0,0,0,0,5,12,12,
0,0,0,0,0,0,0,0,0,0,0,0,5,12,12,12,
0,0,0,0,0,0,0,0,0,0,0,5,12,12,12,12,
0,0,0,0,0,0,0,0,0,0,5,12,12,12,12,12,
0,0,0,0,0,0,0,0,0,5,12,12,12,12,12,12,
0,0,0,0,0,0,0,0,5,12,12,12,12,12,12,16,
0,0,0,0,0,0,0,5,12,12,12,12,12,12,12,0
</chunk>
   <chunk x="32" y="-32" width="16" height="16">
0,0,0,0,0,0,5,12,12,12,12,12,12,12,12,12,
0,0,0,0,0,5,12,12,12,12,12,12,12,12,12,12,
0,0,0,0,5,12,12,12,12,12,12,12,12,12,12,12,
0,0,0,5,12,12,12,12,12,12,12,12,12,12,12,12,
0,0,5,12,12,12,12,12,12,12,12,12,12,12,12,12,
0,5,12,12,12,12,12,12,12,12,12,12,12,34,35,32,
5,12,12,12,12,12,12,12,12,12,12,34,35,0,0,0,
12,12,12,12,12,12,34,35,0,0,0,0,0,0,0,0,
12,12,12,12,12,16,0,0,0,0,0,0,0,0,0,0,
12,12,12,34,35,0,0,0,0,0,0,0,0,0,0,0,
12,12,16,0,0,0,0,0,0,0,0,0,0,0,0,0,
12,16,0,0,0,0,0,0,0,0,0,0,0,0,0,0,
12,0,0,0,0,0,0,0,0,0,0,0,0,0,0,0,
16,0,0,0,0,0,0,0,0,0,0,0,0,0,0,0,
0,0,0,0,0,0,0,0,0,0,0,0,0,0,0,0,
0,0,0,12,0,0,0,0,0,0,0,0,0,0,0,0
</chunk>
   <chunk x="48" y="-32" width="16" height="16">
12,12,12,12,12,12,12,12,0,0,0,0,0,0,0,0,
12,12,12,12,12,12,12,12,0,0,0,0,0,0,0,0,
12,12,12,12,12,12,12,12,0,0,0,0,0,0,0,0,
12,12,12,12,12,12,12,12,0,0,0,0,0,0,0,0,
12,12,12,12,12,12,12,12,0,0,0,0,0,0,0,0,
33,12,12,12,12,12,12,12,0,0,0,0,0,0,0,0,
0,12,12,12,12,12,12,12,0,0,0,0,0,0,0,0,
0,12,12,12,12,12,12,12,0,0,0,0,0,0,0,0,
0,12,12,12,12,12,12,12,0,0,0,0,0,0,0,0,
0,12,12,12,12,12,12,12,0,0,0,0,0,0,0,0,
0,12,12,12,12,12,12,12,0,0,0,0,0,0,0,0,
0,12,12,12,12,12,12,12,0,0,0,0,0,0,0,0,
0,12,12,12,12,12,12,12,0,0,0,0,0,0,0,0,
0,12,12,12,12,12,12,12,0,0,0,0,0,0,0,0,
0,12,12,12,12,12,12,12,0,0,0,0,0,0,0,0,
0,12,12,12,12,12,12,12,0,0,0,0,0,0,0,0
</chunk>
   <chunk x="64" y="-32" width="16" height="16">
0,0,0,0,0,0,0,0,0,0,0,0,0,0,0,12,
0,0,0,0,0,0,0,0,0,0,0,0,0,0,0,12,
0,0,0,0,0,0,0,0,0,0,0,0,0,0,0,12,
0,0,0,0,0,0,0,0,0,0,0,0,0,0,0,15,
0,0,0,0,0,0,0,0,0,0,0,0,0,0,0,0,
0,0,0,0,0,0,0,0,0,0,0,0,0,0,0,0,
0,0,0,0,0,0,0,0,0,0,0,0,0,0,0,0,
0,0,0,0,0,0,0,0,0,0,0,0,0,0,0,0,
0,0,0,0,0,0,0,0,0,0,0,0,0,0,0,0,
0,0,0,0,0,0,0,0,0,0,0,0,0,0,0,0,
0,0,0,0,0,0,0,0,0,0,0,0,0,0,0,0,
0,0,0,0,0,0,0,0,0,0,0,0,0,0,0,0,
0,0,0,0,0,0,0,0,0,0,0,0,0,0,0,0,
0,0,0,0,0,0,0,0,0,0,0,0,0,0,0,0,
0,0,0,0,0,0,0,0,0,0,0,0,0,0,0,0,
0,0,0,0,0,0,0,0,0,0,0,0,0,0,0,0
</chunk>
   <chunk x="80" y="-32" width="16" height="16">
12,12,12,12,12,12,12,12,12,12,12,12,12,0,0,0,
12,12,12,12,12,12,12,12,12,12,12,12,12,0,0,0,
12,12,12,12,12,12,12,12,12,12,12,12,12,0,0,0,
12,12,12,12,12,12,12,12,12,12,12,12,12,0,0,0,
12,12,12,12,12,12,12,12,12,12,12,12,12,0,0,0,
12,12,12,12,12,12,12,12,12,12,12,12,12,12,0,0,
12,12,12,12,12,12,12,12,12,12,12,12,12,12,0,0,
12,12,12,12,12,12,12,12,12,12,12,12,12,12,0,0,
15,12,12,12,12,12,12,12,12,12,12,12,12,12,0,0,
0,12,12,12,12,12,12,12,12,12,12,12,12,12,0,0,
0,12,12,12,12,12,12,12,12,12,12,12,12,12,0,0,
0,12,12,12,12,12,12,12,12,12,12,12,12,12,0,0,
0,15,12,12,12,12,12,12,12,12,12,12,12,12,0,0,
0,0,12,12,12,12,12,12,12,12,12,12,12,12,0,0,
0,0,12,12,12,12,12,12,12,12,12,12,12,12,0,0,
0,0,12,12,12,12,12,12,12,12,12,12,12,12,0,0
</chunk>
   <chunk x="112" y="-32" width="16" height="16">
0,0,0,0,0,0,0,0,0,0,0,0,0,0,12,12,
0,0,0,0,0,0,0,0,0,0,0,0,0,0,12,12,
0,0,0,0,0,0,0,0,0,0,0,0,0,12,12,12,
0,0,0,0,5,12,12,0,0,0,0,0,0,12,12,12,
0,0,0,5,12,12,12,0,0,0,0,0,0,12,12,12,
0,0,0,12,12,12,16,0,0,0,0,0,0,12,12,12,
0,0,0,0,0,0,0,0,0,0,0,0,0,12,12,12,
0,0,0,0,0,0,0,0,0,0,0,0,0,12,12,12,
12,12,0,0,0,0,0,0,0,0,0,0,0,12,12,12,
15,12,0,0,0,0,0,12,12,0,0,0,0,12,12,12,
0,0,0,0,0,0,0,15,12,0,0,0,0,12,12,12,
0,0,0,0,0,0,0,0,0,0,0,0,0,12,12,12,
0,0,0,0,0,0,0,0,0,0,0,0,12,12,12,12,
0,0,0,0,0,0,0,0,0,0,0,0,12,12,12,12,
0,0,0,0,0,0,0,0,0,0,0,0,12,12,12,12,
0,0,0,0,0,0,0,0,0,0,0,0,12,12,12,12
</chunk>
   <chunk x="128" y="-32" width="16" height="16">
12,12,12,12,12,0,0,0,0,0,0,0,0,0,0,0,
12,12,12,12,12,0,0,0,0,0,0,0,0,0,0,0,
12,12,12,12,12,0,0,0,0,0,0,0,0,0,0,0,
12,12,12,12,12,0,0,0,0,0,0,0,0,0,0,0,
12,12,12,12,12,0,0,0,0,0,0,0,0,0,0,0,
12,12,12,12,12,0,0,0,0,0,0,0,0,0,0,0,
12,12,12,12,12,0,0,0,0,0,0,0,0,0,0,0,
12,12,12,12,12,0,0,0,0,0,0,0,0,0,0,0,
12,12,12,12,12,0,0,0,0,0,0,0,0,0,0,0,
12,12,12,12,12,0,0,0,0,0,0,0,0,0,0,0,
12,12,12,12,12,0,0,0,0,0,0,0,0,0,0,0,
12,12,12,12,12,0,0,0,0,0,0,0,0,0,0,0,
12,12,12,12,16,0,0,0,0,0,0,0,0,0,0,0,
12,12,12,12,0,0,0,0,0,0,0,0,0,0,0,0,
12,12,12,12,0,0,0,0,0,0,0,0,0,0,0,0,
12,12,12,12,0,0,0,0,0,0,0,0,0,0,0,0
</chunk>
   <chunk x="-160" y="-16" width="16" height="16">
0,0,0,0,0,0,0,0,0,0,0,0,0,0,0,0,
0,0,0,0,0,0,0,0,0,0,0,0,0,0,0,0,
0,0,0,0,0,0,0,0,0,0,0,0,0,0,0,0,
0,0,0,0,0,0,0,0,0,0,0,0,0,0,0,0,
0,0,0,0,0,0,0,0,0,0,0,0,0,0,0,0,
0,0,0,0,0,0,0,0,0,0,0,0,0,0,0,0,
0,0,0,0,0,0,0,0,0,0,0,0,0,0,0,0,
0,0,0,0,0,0,0,0,0,0,0,0,0,0,0,0,
0,0,0,0,0,0,0,0,0,0,0,0,0,0,0,0,
0,0,0,0,0,0,0,0,0,0,0,0,0,0,0,0,
0,0,0,0,0,0,0,0,0,0,0,0,0,0,0,0,
0,0,0,0,0,0,0,0,0,0,0,0,0,0,0,0,
0,0,0,0,0,0,0,0,0,0,0,0,0,0,0,0,
0,0,0,0,0,0,0,0,0,0,0,0,0,0,0,0,
0,0,0,0,0,0,0,0,0,0,0,0,0,0,0,0,
0,0,0,0,0,0,0,0,0,0,0,0,0,0,5,12
</chunk>
   <chunk x="-144" y="-16" width="16" height="16">
0,0,0,0,0,0,0,0,0,0,0,0,0,0,0,0,
0,0,0,0,0,0,0,0,0,0,0,0,0,0,0,0,
0,0,0,0,0,0,0,0,0,0,0,22,23,12,12,12,
0,0,0,0,0,0,0,0,0,22,23,12,12,12,12,12,
0,0,0,0,0,0,0,0,5,12,12,12,12,12,12,12,
0,0,0,0,0,0,0,5,12,12,12,12,12,12,12,12,
0,0,0,0,0,0,5,12,12,12,12,12,12,12,12,12,
0,0,0,0,0,5,12,12,12,12,12,12,12,12,12,12,
0,0,0,0,5,12,12,12,12,12,12,12,12,12,12,12,
0,0,0,5,12,12,12,12,12,12,12,12,12,12,12,12,
0,0,5,12,12,12,12,12,12,12,12,12,12,12,12,12,
0,5,12,12,12,12,12,12,12,12,12,12,12,12,12,12,
5,12,12,12,12,12,12,12,12,12,12,12,12,12,12,12,
12,12,12,12,12,12,12,12,12,12,12,12,12,12,12,12,
12,12,12,12,12,12,12,12,12,12,12,12,12,12,12,12,
12,12,12,12,12,12,12,12,12,12,12,12,12,12,12,12
</chunk>
   <chunk x="-128" y="-16" width="16" height="16">
0,0,5,12,12,12,12,12,12,12,12,12,12,12,12,12,
22,23,12,12,12,12,12,12,12,12,12,12,12,12,12,16,
12,12,12,12,12,12,12,12,12,12,12,12,12,34,35,0,
12,12,12,12,12,12,12,12,12,12,12,12,16,0,0,0,
12,12,12,12,12,12,12,12,12,12,34,35,0,0,0,0,
12,12,12,12,12,12,12,12,12,16,0,0,0,0,0,0,
12,12,12,12,12,12,12,12,16,0,0,0,0,0,0,0,
12,12,12,12,12,12,34,35,0,0,0,0,0,0,0,0,
12,12,12,12,12,12,0,0,0,0,0,0,0,0,0,0,
12,12,12,12,12,16,0,0,0,0,0,0,0,0,0,0,
12,12,12,12,16,0,0,0,0,0,0,0,0,0,0,0,
12,12,12,16,0,0,0,0,0,0,0,0,0,0,0,0,
12,12,16,0,0,0,0,0,0,0,0,0,0,0,0,0,
12,12,0,0,0,0,0,0,0,0,0,0,0,0,0,0,
12,16,0,0,0,0,0,0,0,0,0,0,0,0,0,0,
16,0,0,0,0,0,0,0,0,0,0,0,0,0,0,0
</chunk>
   <chunk x="-112" y="-16" width="16" height="16">
16,0,0,0,0,0,0,0,0,0,0,0,0,0,0,0,
0,0,0,0,0,0,0,0,0,0,0,0,0,0,0,0,
0,0,0,0,0,0,0,0,0,0,0,0,0,0,0,0,
0,0,0,0,0,0,0,0,0,0,0,0,0,0,0,0,
0,0,0,0,0,0,0,0,0,0,0,0,0,0,0,0,
0,0,0,0,0,0,0,0,0,0,0,0,0,0,0,0,
0,0,0,0,0,0,0,0,0,0,0,0,0,0,0,0,
0,0,0,0,0,0,0,0,0,0,0,0,0,0,0,0,
0,0,0,0,0,0,0,0,0,0,0,0,0,0,0,0,
0,0,0,0,0,0,0,0,0,0,0,0,0,0,0,0,
0,0,0,0,0,0,0,0,0,0,0,0,0,0,0,0,
0,0,0,0,0,0,0,0,0,0,0,0,0,0,0,0,
0,0,0,0,0,0,0,0,0,0,0,0,0,0,0,0,
0,0,0,0,0,0,0,0,0,0,0,0,0,0,0,0,
0,0,0,0,0,0,0,0,0,0,0,0,0,0,0,0,
0,0,0,0,0,0,0,0,0,0,0,0,0,0,0,0
</chunk>
   <chunk x="-48" y="-16" width="16" height="16">
0,0,0,0,0,0,0,0,0,0,0,0,0,0,0,0,
0,0,0,0,0,0,0,0,0,0,0,0,0,0,0,0,
0,0,0,0,0,0,0,0,0,0,0,0,0,0,0,0,
0,0,0,0,0,0,0,0,0,0,0,0,0,0,0,0,
0,0,0,0,0,0,0,0,0,0,0,0,0,0,0,0,
0,0,0,0,0,0,0,0,0,0,0,0,0,0,0,0,
0,0,0,0,0,0,0,0,0,0,0,0,0,0,0,0,
0,0,0,0,0,0,0,0,0,0,0,0,0,0,0,0,
0,0,0,0,0,0,0,0,0,0,0,0,0,0,0,0,
0,0,0,0,0,0,0,0,0,0,0,0,0,0,0,0,
0,0,0,0,0,0,0,0,0,0,0,0,0,0,0,0,
12,12,12,12,6,0,0,0,0,0,12,12,12,0,0,0,
12,12,12,12,12,0,0,0,0,0,15,12,12,0,0,0,
12,12,12,12,12,0,0,0,0,0,0,0,0,0,0,0,
12,12,12,12,0,0,0,0,0,0,0,0,0,0,0,0,
12,12,12,12,0,0,0,0,0,0,0,0,0,0,0,0
</chunk>
   <chunk x="-32" y="-16" width="16" height="16">
0,0,0,0,0,0,0,0,0,0,0,0,0,0,0,0,
0,0,0,0,0,0,0,0,0,0,0,0,0,0,0,0,
0,0,0,0,0,0,0,0,0,0,0,0,0,0,0,0,
0,0,0,0,0,0,0,0,0,0,0,0,0,0,0,0,
0,0,0,0,0,0,0,0,0,0,0,0,0,0,0,0,
0,0,0,0,0,0,0,0,0,0,0,0,0,0,0,0,
0,0,0,0,0,0,0,0,0,0,0,0,0,0,0,0,
0,0,0,0,0,0,0,0,0,0,0,0,0,0,0,0,
0,0,0,0,0,0,0,0,0,0,0,0,0,0,0,0,
0,12,12,12,12,12,24,25,0,0,0,0,0,0,0,0,
0,12,12,12,12,12,12,12,12,12,12,12,12,12,12,12,
0,12,12,12,12,12,12,12,12,12,12,12,12,12,12,12,
0,12,12,12,12,12,12,12,12,12,12,12,12,12,12,12,
0,0,32,33,12,12,12,12,12,12,12,12,12,12,12,12,
0,0,0,0,32,33,12,12,12,12,12,12,12,12,12,12,
0,0,0,0,0,0,0,0,32,33,12,12,12,12,12,12
</chunk>
   <chunk x="-16" y="-16" width="16" height="16">
0,0,0,0,0,0,0,0,0,0,0,0,0,0,0,0,
0,0,0,0,0,0,0,0,0,0,0,0,0,0,0,0,
0,0,0,0,0,0,0,0,0,0,0,0,0,0,0,0,
0,0,0,0,0,0,0,0,0,0,0,0,0,0,0,0,
0,0,0,0,0,0,0,0,0,0,0,0,0,0,0,0,
5,12,12,12,12,12,12,6,0,0,0,0,0,0,0,0,
12,12,12,12,12,12,12,12,0,0,0,0,0,0,0,0,
12,12,12,12,12,12,12,12,0,0,0,0,0,0,0,0,
12,12,12,12,12,12,12,12,0,0,0,0,0,0,5,12,
12,12,12,12,12,12,12,12,12,12,0,0,22,23,12,12,
12,12,12,12,12,12,12,12,34,35,0,5,12,12,12,12,
12,12,12,12,12,12,12,0,0,0,0,12,12,12,12,12,
12,12,12,12,12,12,12,12,0,0,0,12,12,12,12,12,
12,12,12,12,12,12,12,12,0,0,0,32,33,12,12,16,
12,12,12,12,12,12,12,0,0,0,0,0,0,0,0,0,
12,12,12,12,12,12,12,12,0,0,0,0,0,0,0,0
</chunk>
   <chunk x="0" y="-16" width="16" height="16">
0,0,0,0,0,0,0,0,0,0,0,0,0,0,0,0,
0,0,0,0,0,0,0,0,0,0,0,0,0,0,0,0,
0,0,0,0,0,0,0,0,0,0,0,0,0,0,0,0,
0,0,0,0,0,0,0,0,0,0,0,0,0,0,0,0,
0,0,0,0,0,0,0,0,0,0,0,0,0,0,0,0,
0,0,0,0,0,0,0,0,0,0,0,0,0,0,0,0,
0,0,0,0,0,0,0,0,0,0,0,0,0,0,0,0,
0,0,0,0,0,0,0,0,0,0,0,0,0,0,0,5,
12,12,12,0,0,0,0,0,0,0,0,0,0,0,5,12,
12,12,12,0,0,0,0,0,0,0,0,0,0,5,12,12,
12,12,16,0,0,0,0,0,0,0,0,0,5,12,12,12,
12,16,0,0,0,0,0,0,0,0,0,5,12,12,12,12,
16,0,0,0,0,0,0,0,0,0,5,12,12,12,12,12,
0,0,0,0,0,0,0,0,0,5,12,12,12,12,12,12,
0,0,0,0,0,0,0,0,5,12,12,12,12,12,12,12,
0,0,0,0,0,0,22,23,12,12,12,12,12,12,12,12
</chunk>
   <chunk x="16" y="-16" width="16" height="16">
0,0,0,0,0,0,5,12,12,12,12,12,12,12,0,0,
0,0,0,0,0,5,12,12,12,12,12,12,12,12,12,12,
0,0,0,0,5,12,12,12,12,12,12,12,12,12,12,12,
0,0,0,5,12,12,12,12,12,12,12,12,12,12,12,12,
0,0,5,12,12,12,12,12,12,12,12,12,12,12,12,12,
0,5,12,12,12,12,12,12,12,12,12,12,12,12,12,16,
5,12,12,12,12,12,12,12,12,12,12,12,12,12,16,0,
12,12,12,12,12,12,12,12,12,12,12,12,12,16,0,0,
12,12,12,12,12,12,12,12,12,12,12,12,16,0,0,0,
12,12,12,12,12,12,12,12,12,12,12,12,0,0,0,0,
12,12,12,12,12,12,12,12,12,12,12,16,0,0,0,0,
12,12,12,12,12,12,12,12,12,12,12,0,0,0,0,0,
12,12,12,12,12,12,12,12,12,12,16,0,0,0,0,0,
12,12,12,12,12,12,12,12,12,16,0,0,0,0,0,0,
12,12,12,12,12,12,12,12,16,0,0,0,0,0,0,0,
12,12,12,12,12,12,12,16,0,0,0,0,0,0,0,0
</chunk>
   <chunk x="32" y="-16" width="16" height="16">
0,0,0,12,0,0,0,0,0,0,0,0,0,0,0,0,
0,0,0,12,0,0,0,0,0,0,0,0,0,0,0,0,
0,0,0,12,0,0,0,0,0,0,0,0,0,0,0,0,
0,0,0,12,0,0,0,0,0,0,0,0,0,0,0,0,
0,0,0,12,0,0,0,0,0,0,0,0,0,0,0,0,
0,0,0,0,0,0,0,0,0,0,0,0,0,0,0,0,
0,0,0,0,0,0,0,0,0,0,0,0,0,0,0,0,
0,0,0,0,0,0,0,0,0,0,0,0,0,0,0,0,
0,0,0,0,0,0,0,0,0,0,0,0,0,0,0,0,
0,0,0,0,0,0,0,0,0,0,0,0,0,0,0,0,
0,0,0,0,0,0,0,0,0,0,0,0,0,0,0,0,
0,0,0,0,0,0,0,0,0,0,0,0,0,0,0,0,
0,0,0,0,0,0,0,0,0,0,0,0,0,0,0,0,
0,0,0,0,0,0,0,0,0,0,0,0,0,0,0,0,
0,0,0,0,0,0,0,0,0,0,0,0,0,0,0,0,
0,0,0,0,0,0,0,0,0,0,0,0,0,0,0,0
</chunk>
   <chunk x="48" y="-16" width="16" height="16">
0,12,12,12,12,12,12,12,0,0,0,0,0,0,0,0,
0,12,12,12,12,12,12,12,0,0,0,0,0,0,0,0,
0,12,12,12,12,12,12,12,12,0,0,0,0,0,0,0,
0,12,12,12,12,12,12,12,12,0,0,0,0,0,0,0,
0,12,12,12,12,12,12,12,12,0,0,0,0,0,0,0,
0,12,12,12,12,12,12,12,12,12,0,0,0,0,0,0,
0,12,12,12,12,12,12,12,12,12,0,0,0,0,0,0,
0,12,12,12,12,12,12,12,12,12,0,0,0,0,0,0,
0,12,12,12,12,12,12,12,12,12,0,0,0,0,0,0,
0,12,12,12,12,12,12,12,12,12,12,0,0,0,0,0,
0,12,12,12,12,12,12,12,12,12,12,0,0,0,0,0,
0,12,12,12,12,12,12,12,12,12,12,0,0,0,0,0,
0,15,12,12,12,12,12,12,12,12,12,12,6,0,0,0,
0,0,12,12,12,12,12,12,12,12,12,12,12,0,0,0,
0,0,15,12,12,12,12,12,12,12,12,12,12,0,0,0,
0,0,0,15,12,12,12,12,12,12,12,12,12,12,0,0
</chunk>
   <chunk x="80" y="-16" width="16" height="16">
0,0,15,12,12,12,12,12,12,12,12,12,12,16,0,0,
0,0,0,12,12,12,12,12,12,12,12,12,12,0,0,0,
0,0,0,12,12,12,12,12,12,12,12,12,12,0,0,0,
0,0,0,12,12,12,12,12,12,12,12,12,12,0,0,0,
0,0,0,15,12,12,12,12,12,12,12,12,12,0,0,0,
0,0,0,0,12,12,12,12,12,12,12,12,12,0,0,0,
0,0,0,0,12,12,12,12,12,12,12,12,12,0,0,0,
0,0,0,0,15,12,12,12,12,12,12,12,12,0,0,0,
0,0,0,0,0,12,12,12,12,12,12,12,12,0,0,0,
0,0,0,0,0,12,12,12,12,12,12,12,12,0,0,0,
0,0,0,0,0,12,12,12,12,12,12,12,12,0,0,0,
0,0,0,0,0,15,12,12,12,12,12,12,12,0,0,0,
0,0,0,0,0,0,12,12,12,12,12,12,12,0,0,0,
0,0,0,0,0,0,12,12,12,12,12,12,12,0,0,0,
0,0,0,0,0,0,12,12,12,12,12,12,16,0,0,0,
0,0,0,0,0,0,12,12,12,12,12,12,0,0,0,0
</chunk>
   <chunk x="112" y="-16" width="16" height="16">
0,0,0,0,0,0,0,0,0,0,0,12,12,12,12,12,
0,0,0,0,0,0,0,0,0,0,0,12,12,12,12,12,
0,0,0,0,0,0,0,0,0,5,12,12,12,12,12,12,
0,0,0,0,0,0,0,0,0,12,12,12,12,12,12,12,
0,0,0,0,0,0,0,0,0,12,12,12,12,12,12,12,
0,0,0,0,0,0,0,5,12,12,12,12,12,12,12,12,
0,0,0,0,0,0,5,12,12,12,12,12,12,12,12,12,
0,0,0,0,0,0,12,12,12,12,12,12,12,12,12,12,
0,0,0,0,0,0,12,12,12,12,12,12,12,12,12,12,
0,0,0,0,12,12,12,12,12,12,12,12,12,12,12,12,
0,0,0,0,12,12,12,12,12,12,12,12,12,12,12,12,
0,0,5,12,12,12,12,12,12,12,12,12,12,12,12,12,
0,0,12,12,12,12,12,12,12,12,12,12,12,12,12,12,
0,0,12,12,12,12,12,12,12,12,12,12,12,12,12,12,
5,12,12,12,12,12,12,12,12,12,12,12,12,12,12,12,
12,12,12,12,12,12,12,12,12,12,12,12,12,12,12,12
</chunk>
   <chunk x="128" y="-16" width="16" height="16">
12,12,12,12,0,0,0,0,0,0,0,0,0,0,0,0,
12,12,12,12,0,0,0,0,0,0,0,0,0,0,0,0,
12,12,12,12,0,0,0,0,0,0,0,0,0,0,0,0,
12,12,12,12,0,0,0,0,0,0,0,0,0,0,0,0,
12,12,12,12,0,0,0,0,0,0,0,0,0,0,0,0,
12,12,12,12,0,0,0,0,0,0,0,0,0,0,0,0,
12,12,12,16,0,0,0,0,0,0,0,0,0,0,0,0,
12,12,12,0,0,0,0,0,0,0,0,0,0,0,0,0,
12,12,12,0,0,0,0,0,0,0,0,0,0,0,0,0,
12,12,12,0,0,0,0,0,0,0,0,0,0,0,0,0,
12,12,16,0,0,0,0,0,0,0,0,0,0,0,0,0,
12,12,0,0,0,0,0,0,0,0,0,0,0,0,0,0,
12,12,0,0,0,0,0,0,0,0,0,0,0,0,0,0,
12,16,0,0,0,0,0,0,0,0,0,0,0,0,0,0,
12,0,0,0,0,0,0,0,0,0,0,0,0,0,0,0,
16,0,0,0,0,0,0,0,0,0,0,0,0,0,0,0
</chunk>
   <chunk x="-160" y="0" width="16" height="16">
0,0,0,0,0,0,0,0,0,0,0,0,0,5,12,12,
0,0,0,0,0,0,0,0,0,0,0,0,5,12,12,12,
0,0,0,0,0,0,0,0,0,0,22,23,12,12,12,12,
0,0,0,0,0,0,0,0,0,5,12,12,12,12,12,12,
0,0,0,0,0,0,0,0,0,12,12,12,12,12,12,12,
0,0,0,0,0,0,0,0,0,12,12,12,12,12,12,12,
0,0,0,0,0,0,0,0,0,12,12,12,12,12,12,12,
0,0,0,0,0,0,0,0,0,12,12,12,12,12,12,12,
0,0,0,0,0,0,0,0,0,12,12,12,12,12,12,12,
0,0,0,0,0,0,0,0,0,12,12,12,12,12,12,12,
0,0,0,0,0,0,0,0,0,12,12,12,12,12,12,12,
0,0,0,0,0,0,0,0,0,12,12,12,12,12,12,12,
0,0,0,0,0,0,0,0,0,12,12,12,12,12,12,12,
0,0,0,0,0,0,0,0,0,12,12,12,12,12,12,12,
0,0,0,0,0,0,0,0,0,12,12,12,12,12,12,12,
0,0,0,0,0,0,0,0,0,12,12,12,12,12,12,12
</chunk>
   <chunk x="-144" y="0" width="16" height="16">
12,12,12,12,12,12,12,12,12,12,12,12,12,12,12,12,
12,12,12,12,12,12,12,12,12,12,12,12,12,12,12,16,
12,12,12,12,12,12,12,12,12,12,12,12,12,12,12,0,
12,12,12,12,12,12,12,12,12,12,12,12,12,12,12,0,
12,12,12,12,12,12,12,12,12,12,12,12,12,12,16,0,
12,12,12,12,12,12,12,12,12,12,12,12,12,12,0,0,
12,12,12,12,12,12,12,12,12,12,12,12,12,12,0,0,
12,12,12,12,12,12,12,12,12,12,12,12,12,12,0,0,
12,12,12,12,12,12,12,12,12,12,12,12,12,12,0,0,
12,12,12,12,12,12,12,12,12,12,12,12,12,12,0,0,
12,12,12,12,12,12,12,12,12,12,12,12,12,12,0,0,
12,12,12,12,12,12,12,12,12,12,12,12,12,12,0,0,
12,12,12,12,12,12,12,12,12,12,12,12,12,12,0,0,
12,12,12,12,12,12,12,12,12,12,12,12,12,12,0,0,
12,12,12,12,12,12,12,12,12,12,12,12,12,12,0,0,
12,12,12,12,12,12,12,12,12,12,12,12,12,12,0,0
</chunk>
   <chunk x="-48" y="0" width="16" height="16">
12,12,12,12,12,0,0,0,0,0,0,0,0,0,0,0,
12,12,12,12,12,0,0,0,0,0,0,0,0,0,0,0,
12,12,12,12,0,0,0,0,0,0,0,0,0,0,0,0,
12,12,12,12,0,0,0,0,0,0,0,0,0,0,0,0,
12,12,12,12,12,0,0,0,0,0,0,0,0,0,0,0,
12,12,12,12,12,0,0,0,0,0,0,0,0,0,0,0,
15,12,12,12,12,0,0,0,0,0,0,12,12,0,0,0,
0,12,12,12,12,0,0,0,0,0,0,12,16,0,0,0,
0,12,12,12,12,0,0,0,0,0,0,0,0,0,0,0,
0,0,0,0,0,0,0,0,0,0,0,0,0,0,0,0,
0,0,0,0,0,0,0,0,0,0,0,0,0,0,0,0,
0,0,0,0,0,0,0,12,12,12,12,12,12,12,12,24,
0,0,0,0,0,0,0,12,12,12,12,12,12,12,12,12,
0,0,0,0,0,0,0,15,12,12,12,12,12,12,12,12,
0,0,0,0,0,0,0,0,0,0,32,33,12,12,12,12,
0,0,0,0,0,0,0,0,0,0,0,0,0,0,0,0
</chunk>
   <chunk x="-32" y="0" width="16" height="16">
0,0,0,0,0,0,0,0,0,0,0,32,33,12,12,12,
0,0,0,0,0,0,0,0,0,0,0,0,0,32,33,12,
0,0,0,0,0,0,0,0,0,0,0,0,0,0,0,15,
0,0,0,0,0,0,0,0,0,0,0,0,0,0,0,0,
0,0,0,0,0,0,0,0,0,0,0,0,0,0,0,0,
0,0,0,0,0,0,0,0,0,0,0,0,0,0,12,12,
0,0,0,0,0,0,0,0,0,0,0,0,0,0,12,12,
0,0,0,0,0,0,0,0,0,0,0,0,5,12,12,12,
0,0,0,0,0,0,0,0,0,0,0,5,12,12,12,12,
0,0,0,0,0,0,0,0,0,22,23,12,12,12,12,12,
0,0,0,0,22,23,12,12,12,12,12,12,12,12,12,12,
25,0,0,0,12,12,12,12,12,12,12,12,12,12,12,0,
12,12,12,0,12,12,12,12,12,12,12,12,12,12,16,0,
12,12,12,12,12,12,12,12,12,12,12,12,12,12,0,0,
12,12,12,12,12,12,12,0,12,12,12,12,12,16,0,0,
0,32,33,12,12,34,35,0,32,33,12,12,16,0,0,0
</chunk>
   <chunk x="-16" y="0" width="16" height="16">
12,12,12,12,12,12,12,12,0,0,0,0,0,0,0,0,
12,12,12,12,12,12,12,0,0,0,0,0,0,0,0,0,
12,12,12,12,12,12,12,12,0,0,0,0,0,0,0,0,
12,12,12,12,12,12,12,12,0,0,0,0,0,0,0,0,
12,12,12,12,12,12,12,12,12,12,12,12,12,12,12,12,
12,12,12,12,12,12,12,12,12,12,12,12,12,12,12,12,
12,12,12,12,12,12,12,12,12,12,12,12,12,12,12,12,
12,12,12,12,12,12,12,12,12,12,12,12,12,12,12,12,
12,12,12,12,12,12,12,12,12,12,12,12,12,12,12,12,
12,12,12,12,12,12,12,12,12,12,12,12,12,12,12,12,
12,12,12,12,12,12,12,12,12,12,12,12,12,12,12,12,
12,12,12,12,12,12,12,12,12,12,12,12,12,12,12,12,
0,0,0,0,0,0,0,0,0,0,0,0,0,32,33,12,
0,0,0,0,0,0,0,0,0,0,0,0,0,0,0,0,
0,0,0,0,0,0,0,0,0,0,0,0,0,0,0,0,
0,0,0,0,0,0,0,0,0,0,0,0,0,0,0,0
</chunk>
   <chunk x="0" y="0" width="16" height="16">
0,0,0,0,0,0,12,12,12,12,12,12,12,12,12,12,
0,0,0,0,0,0,12,12,12,12,12,12,12,12,12,12,
0,0,0,0,5,12,12,12,12,12,12,12,12,12,12,12,
0,0,22,23,12,12,12,12,12,12,12,12,12,12,12,12,
12,12,12,12,12,12,12,12,12,12,12,12,12,12,12,12,
12,12,12,12,12,12,12,12,12,12,12,12,12,12,12,34,
12,12,12,12,12,12,12,12,12,12,12,12,12,12,16,0,
12,12,12,12,12,12,12,12,12,12,12,12,12,12,0,0,
12,12,12,12,12,12,12,12,12,12,12,12,12,12,0,0,
12,12,12,12,12,12,12,12,12,12,12,12,12,12,0,0,
12,12,12,12,12,12,12,12,12,12,12,12,12,16,0,0,
12,12,12,12,12,12,34,35,0,0,0,0,0,0,0,0,
34,35,0,0,0,0,0,0,0,0,0,0,0,0,0,0,
0,0,0,0,0,0,0,0,0,0,0,0,0,0,0,0,
0,0,0,0,0,0,0,0,0,0,0,0,0,0,0,0,
0,0,0,0,0,0,0,0,0,0,0,0,0,0,0,0
</chunk>
   <chunk x="16" y="0" width="16" height="16">
12,12,12,12,12,12,16,0,0,0,0,0,0,0,0,0,
12,12,12,12,12,16,0,0,0,0,0,0,0,0,0,0,
12,12,12,12,16,0,0,0,0,0,0,0,0,0,0,0,
12,12,34,35,0,0,0,0,0,0,0,0,0,0,0,0,
12,16,0,0,0,0,0,0,0,0,0,0,0,0,0,0,
35,0,0,0,0,0,0,0,0,0,0,0,0,0,0,0,
0,0,0,0,0,0,0,0,0,0,0,0,0,0,0,0,
0,0,0,0,0,0,0,0,0,0,0,0,0,0,0,0,
0,0,0,0,0,0,0,0,0,0,0,0,0,0,0,0,
0,0,0,0,0,0,0,0,0,0,0,0,0,0,0,0,
0,0,0,0,0,0,0,0,0,0,0,0,0,0,0,0,
0,0,0,0,0,0,0,0,0,0,0,0,0,0,0,0,
0,0,0,0,0,0,0,0,0,0,0,0,0,0,0,0,
0,0,0,0,0,0,0,0,0,0,0,0,0,0,0,0,
0,0,0,0,0,0,0,0,0,0,0,0,0,0,0,0,
0,0,0,0,0,0,0,0,0,0,0,0,0,0,0,0
</chunk>
   <chunk x="48" y="0" width="16" height="16">
0,0,0,0,12,12,12,12,12,12,12,12,12,12,0,0,
0,0,0,0,15,12,12,12,12,12,12,12,12,12,12,24,
0,0,0,0,0,15,12,12,12,12,12,12,12,12,12,12,
0,0,0,0,0,0,12,12,12,12,12,12,12,12,12,12,
0,0,0,0,0,0,15,12,12,12,12,12,12,12,12,12,
0,0,0,0,0,0,0,12,12,12,12,12,12,12,12,12,
0,0,0,0,0,0,0,15,12,12,12,12,12,12,12,12,
0,0,0,0,0,0,0,0,15,12,12,12,12,12,12,12,
0,0,0,0,0,0,0,0,0,12,12,12,12,12,12,12,
0,0,0,0,0,0,0,0,0,15,12,12,12,12,12,12,
0,0,0,0,0,0,0,0,0,0,15,12,12,12,12,12,
0,0,0,0,0,0,0,0,0,0,0,12,12,12,12,12,
0,0,0,0,0,0,0,0,0,0,0,12,12,12,12,12,
0,0,0,0,0,0,0,0,0,0,0,0,0,0,0,0,
0,0,0,0,0,0,0,0,0,0,0,0,0,0,0,0,
0,0,0,0,0,0,0,0,0,0,0,0,0,0,0,0
</chunk>
   <chunk x="64" y="0" width="16" height="16">
0,0,0,0,0,0,0,0,0,0,0,0,0,0,0,0,
25,0,0,0,0,0,0,0,0,0,0,0,0,0,0,0,
12,12,6,0,0,0,0,0,0,0,0,0,0,0,0,0,
12,12,12,6,0,0,0,0,0,0,0,0,0,0,0,0,
12,12,12,12,6,0,0,0,0,0,0,0,0,0,0,0,
12,12,12,12,12,0,0,0,0,0,0,0,0,0,0,0,
12,12,12,12,12,0,0,0,0,0,0,0,0,0,0,0,
12,12,12,12,12,12,0,0,0,0,0,0,0,0,0,0,
12,12,12,12,12,12,0,0,0,0,0,0,0,0,0,0,
12,12,12,12,12,12,12,0,0,0,0,0,0,0,0,0,
12,12,12,12,12,12,12,0,0,0,0,0,0,0,0,0,
12,12,12,12,12,12,12,12,0,0,0,0,0,0,0,0,
12,12,12,12,12,12,12,12,0,0,0,0,0,0,0,0,
0,0,32,33,12,12,12,12,0,0,0,0,0,0,0,0,
0,0,0,0,15,12,12,12,12,6,0,0,0,0,0,0,
0,0,0,0,0,0,32,33,12,12,6,0,0,0,0,0
</chunk>
   <chunk x="80" y="0" width="16" height="16">
0,0,0,0,0,0,12,12,12,12,12,12,0,0,0,0,
0,0,0,0,0,0,15,12,12,12,12,12,0,0,0,0,
0,0,0,0,0,0,0,12,12,12,12,16,0,0,0,0,
0,0,0,0,0,0,0,12,12,12,12,0,0,0,0,0,
0,0,0,0,0,0,0,12,12,12,12,0,0,0,0,0,
0,0,0,0,0,0,0,12,12,12,12,0,0,0,0,0,
0,0,0,0,0,0,0,12,12,12,12,0,0,0,0,0,
0,0,0,0,0,0,0,15,12,12,16,0,0,0,0,0,
0,0,0,0,0,0,0,0,12,12,0,0,0,0,0,0,
0,0,0,0,0,0,0,0,12,16,0,0,0,0,0,0,
0,0,0,0,0,0,0,0,0,0,0,0,0,0,0,0,
0,0,0,0,0,0,0,0,0,0,0,0,0,0,0,0,
0,0,0,0,0,0,0,0,0,0,0,0,0,0,0,0,
0,0,0,0,0,0,0,0,0,0,0,0,0,0,0,0,
0,0,0,0,0,0,0,0,0,0,0,0,0,0,0,0,
0,0,0,0,0,0,0,0,0,0,0,0,0,0,0,0
</chunk>
   <chunk x="96" y="0" width="16" height="16">
0,0,0,0,0,0,0,0,0,0,0,0,0,0,0,0,
0,0,0,0,0,0,0,0,0,0,0,0,0,0,0,12,
0,0,0,0,0,0,0,0,0,0,0,0,0,0,0,12,
0,0,0,0,0,0,0,0,0,0,0,0,0,0,0,12,
0,0,0,0,0,0,0,0,0,0,0,0,0,0,12,12,
0,0,0,0,0,0,0,0,0,0,0,0,0,0,12,12,
0,0,0,0,0,0,0,0,0,0,0,0,0,0,12,12,
0,0,0,0,0,0,0,0,0,0,0,0,5,12,12,12,
0,0,0,0,0,0,0,0,0,0,0,5,12,12,12,12,
0,0,0,0,0,0,0,0,0,22,23,12,12,12,12,12,
0,0,0,0,0,0,0,5,12,12,12,12,12,12,12,12,
0,0,0,0,0,0,5,12,12,12,12,12,12,12,12,12,
0,0,0,0,0,5,12,12,12,12,12,12,12,12,12,12,
0,0,0,0,5,12,12,12,12,12,12,12,34,35,0,0,
0,0,0,5,12,12,12,12,12,12,12,16,0,0,0,0,
0,0,0,12,12,12,12,34,35,0,0,0,0,0,0,0
</chunk>
   <chunk x="112" y="0" width="16" height="16">
12,12,12,12,12,12,12,12,12,12,12,12,12,12,12,16,
12,12,12,12,12,12,12,12,12,12,12,12,12,12,16,0,
12,12,12,12,12,12,12,12,12,12,12,12,12,12,0,0,
12,12,12,12,12,12,12,12,12,12,12,12,12,16,0,0,
12,12,12,12,12,12,12,12,12,12,12,12,16,0,0,0,
12,12,12,12,12,12,12,12,12,12,12,12,0,0,0,0,
12,12,12,12,12,12,12,12,12,12,12,16,0,0,0,0,
12,12,12,12,12,12,12,12,12,12,12,0,0,0,0,0,
12,12,12,12,12,12,12,12,12,12,12,0,0,0,0,0,
12,12,12,12,12,12,12,34,35,0,0,0,0,0,0,0,
12,12,12,12,12,12,16,0,0,0,0,0,0,0,0,0,
12,12,12,34,35,0,0,0,0,0,0,0,0,0,0,0,
34,35,0,0,0,0,0,0,0,0,0,0,0,0,0,0,
0,0,0,0,0,0,0,0,0,0,0,0,0,0,0,0,
0,0,0,0,0,0,0,0,0,0,0,0,0,0,0,0,
0,0,0,0,0,0,0,0,0,0,0,0,0,0,0,0
</chunk>
   <chunk x="-160" y="16" width="16" height="16">
0,0,0,0,0,0,0,0,0,12,12,12,12,12,12,12,
0,0,0,0,0,0,0,0,0,12,12,12,12,12,12,12,
0,0,0,0,0,0,0,0,0,12,12,12,12,12,12,12,
0,0,0,0,0,0,0,0,0,15,12,12,12,12,12,12,
0,0,0,0,0,0,0,0,0,0,12,12,12,12,12,12,
0,0,0,0,0,0,0,0,0,0,12,12,12,12,12,12,
0,0,0,0,0,0,0,0,0,0,0,32,33,12,12,12,
0,0,0,0,0,0,0,0,0,0,0,0,0,15,12,12,
0,0,0,0,0,0,0,0,0,0,0,0,0,0,12,12,
0,0,0,0,0,0,0,0,0,0,0,0,0,0,15,12,
0,0,0,0,0,0,0,0,0,0,0,0,0,0,0,15,
0,0,0,0,0,0,0,0,0,0,0,0,0,0,0,0,
0,0,0,0,0,0,0,0,0,0,0,0,0,0,0,0,
0,0,0,0,0,0,0,0,0,0,0,0,0,0,0,0,
0,0,0,0,0,0,0,0,0,0,0,0,0,0,0,0,
0,0,0,0,0,0,0,0,0,0,0,0,0,0,0,0
</chunk>
   <chunk x="-144" y="16" width="16" height="16">
12,12,12,12,12,12,12,12,12,12,12,12,12,12,12,12,
12,12,12,12,12,12,12,12,12,12,12,12,12,12,12,12,
12,12,12,12,12,12,12,12,12,12,12,12,12,12,12,12,
12,12,12,12,12,12,12,12,12,12,12,12,12,12,12,12,
12,12,12,12,12,12,12,12,12,12,12,12,12,12,12,12,
12,12,12,12,12,12,12,12,12,12,12,12,12,12,12,12,
12,12,12,12,12,12,12,12,12,12,12,12,12,12,12,12,
12,12,12,12,12,12,12,12,12,12,12,12,12,12,12,12,
12,12,12,12,12,12,12,12,12,12,12,12,12,12,12,12,
12,12,12,12,12,12,12,12,12,12,12,12,12,12,12,12,
12,12,12,12,12,12,12,12,12,12,12,12,12,12,12,12,
12,12,12,12,12,12,12,12,12,12,12,12,12,12,12,12,
15,12,12,12,12,12,12,12,12,12,12,12,12,12,12,12,
0,15,12,12,12,12,12,12,12,12,12,12,12,12,12,12,
0,0,15,12,12,12,12,12,12,12,12,12,12,12,12,12,
0,0,0,15,12,12,12,12,12,12,12,12,12,12,12,12
</chunk>
   <chunk x="-128" y="16" width="16" height="16">
24,25,0,0,0,0,0,0,0,0,0,0,0,0,0,0,
12,12,12,12,12,24,25,0,0,0,0,0,0,0,0,0,
12,12,12,12,12,12,12,12,12,12,12,12,12,24,25,0,
12,12,12,12,12,12,12,12,12,12,12,12,12,12,12,24,
12,12,12,12,12,12,12,12,12,12,12,12,12,12,12,12,
12,12,12,12,12,12,12,12,12,12,12,12,12,12,12,12,
12,12,12,12,12,12,12,12,12,12,12,12,12,12,12,12,
12,12,12,12,12,12,12,12,12,12,12,12,12,12,12,12,
12,12,12,12,12,12,12,12,12,12,12,12,12,12,12,12,
12,12,12,12,12,12,12,12,12,12,12,12,12,12,12,12,
12,12,12,12,12,12,12,12,12,12,12,12,12,12,12,12,
12,12,12,12,12,12,12,12,12,12,12,12,12,12,12,12,
12,12,12,12,12,12,12,12,12,12,12,12,12,12,12,12,
12,12,12,12,12,12,12,12,12,12,12,12,12,12,12,12,
12,12,12,12,12,12,12,12,12,12,12,12,12,12,12,12,
12,12,12,12,12,12,12,12,12,12,12,12,12,12,12,12
</chunk>
   <chunk x="-112" y="16" width="16" height="16">
0,0,0,0,0,0,0,0,0,0,0,0,0,0,0,0,
0,0,0,0,0,0,0,0,0,0,0,0,0,0,0,0,
0,0,0,0,0,0,0,0,0,0,0,0,0,0,0,0,
25,0,0,0,0,0,0,0,0,0,0,0,0,0,0,0,
12,24,25,0,0,0,0,0,0,0,0,0,0,0,0,0,
12,12,12,24,25,0,0,0,0,0,0,0,0,0,0,0,
12,12,12,12,12,12,6,0,0,0,0,0,0,0,0,0,
12,12,12,12,12,12,12,24,25,0,0,0,0,0,0,0,
12,12,12,12,12,12,12,12,12,12,12,12,12,12,12,12,
12,12,12,12,12,12,12,12,12,12,12,12,12,12,12,12,
12,12,12,12,12,12,12,12,12,12,12,12,12,12,12,12,
12,12,12,12,12,12,12,12,12,12,12,12,12,12,12,12,
12,12,12,12,12,12,12,12,12,12,12,12,12,12,12,12,
12,12,12,12,12,12,12,12,12,12,12,12,12,12,12,12,
12,12,12,12,12,12,12,12,12,12,12,12,12,12,12,12,
12,12,12,12,12,12,12,12,12,12,12,12,12,12,12,12
</chunk>
   <chunk x="-96" y="16" width="16" height="16">
0,0,0,0,0,0,0,0,0,0,0,0,0,0,0,0,
0,0,0,0,0,0,0,0,0,0,0,0,0,0,0,0,
0,0,0,0,0,0,0,0,0,0,0,0,0,0,0,0,
0,0,0,0,0,0,0,0,0,0,0,0,0,0,0,0,
0,0,0,0,0,0,0,0,0,0,0,0,0,0,0,0,
0,0,0,0,0,0,0,0,0,0,0,0,0,0,0,0,
0,0,0,0,0,0,0,0,0,0,0,0,0,0,0,0,
0,0,0,0,0,0,0,0,0,0,0,0,0,0,0,0,
12,12,12,12,12,12,12,0,0,0,0,0,0,12,12,12,
12,12,12,12,12,12,12,0,0,0,0,0,0,12,12,12,
12,12,12,12,12,12,12,0,0,0,0,0,0,12,12,12,
12,12,12,12,12,12,12,0,0,0,0,0,0,12,12,12,
12,12,12,12,12,12,12,0,0,0,0,0,0,12,12,12,
12,12,12,12,12,12,16,0,0,0,0,0,0,12,12,12,
12,12,12,12,12,12,0,0,0,0,0,0,0,0,0,0,
12,12,12,12,12,16,0,0,0,0,0,0,0,0,0,0
</chunk>
   <chunk x="-80" y="16" width="16" height="16">
0,0,0,0,0,0,0,0,0,0,0,0,0,0,0,0,
0,0,0,0,0,0,0,0,0,0,0,0,0,0,0,0,
0,0,0,0,0,0,0,0,0,0,0,0,0,0,0,0,
0,0,0,0,0,0,0,0,0,0,0,0,0,0,0,0,
0,0,0,0,0,0,0,0,0,0,0,0,0,0,0,0,
0,0,0,0,0,0,0,0,0,0,0,0,0,0,0,0,
0,0,0,0,0,0,0,0,0,0,0,0,0,0,0,0,
0,0,0,0,0,0,0,0,0,0,0,0,0,0,0,0,
12,12,0,0,0,0,0,0,12,12,12,12,12,12,12,12,
12,12,0,0,0,0,0,0,12,12,12,12,12,12,12,12,
12,12,0,0,0,0,0,0,12,12,12,12,12,12,12,12,
12,12,0,0,0,0,0,0,12,12,12,12,12,12,12,12,
12,12,0,0,0,0,0,0,12,12,12,12,12,12,12,12,
34,35,0,0,0,0,0,0,15,12,12,12,12,12,12,12,
0,0,0,0,0,0,0,0,0,32,33,12,12,12,12,12,
0,0,0,0,0,0,0,0,0,0,0,32,33,12,12,16
</chunk>
   <chunk x="-64" y="16" width="16" height="16">
0,0,0,0,0,0,0,0,0,0,0,0,0,0,0,0,
0,0,0,0,0,0,0,0,0,0,0,0,0,0,0,0,
0,0,0,0,0,0,0,0,0,0,0,0,0,0,0,0,
0,0,0,0,0,0,0,0,0,0,0,0,0,0,0,0,
0,0,0,0,0,0,0,0,0,0,0,0,0,0,0,0,
0,0,0,0,0,0,0,0,0,0,0,0,0,0,0,0,
0,0,0,0,0,0,0,0,0,0,0,0,0,0,0,0,
0,0,0,0,0,0,0,0,0,0,0,0,0,0,0,0,
12,12,0,0,0,0,0,0,0,0,12,12,12,12,12,12,
12,12,0,0,0,0,0,0,0,0,12,12,12,12,12,12,
12,12,0,0,0,0,0,0,0,0,12,12,12,12,12,12,
12,12,0,0,0,0,0,0,0,0,32,33,12,12,12,12,
12,12,0,0,0,0,0,0,0,0,0,0,15,12,12,12,
12,12,0,0,0,0,0,0,0,0,0,0,0,15,12,12,
34,35,0,0,0,0,0,0,0,0,0,0,0,0,12,12,
0,0,0,0,0,0,0,0,0,0,0,0,0,0,0,0
</chunk>
   <chunk x="-48" y="16" width="16" height="16">
0,0,0,5,12,12,12,12,6,0,0,0,0,0,0,0,
0,0,0,12,12,12,12,12,12,6,0,0,0,0,0,0,
0,0,0,12,12,12,12,12,12,12,0,0,0,0,0,0,
0,0,0,12,12,12,12,12,12,12,0,0,0,0,0,0,
0,0,12,12,12,12,12,12,12,12,12,6,0,0,0,0,
0,0,12,12,12,12,12,12,12,12,12,12,24,25,0,0,
0,0,15,12,12,12,12,12,12,12,12,12,12,12,0,0,
0,0,0,32,33,12,12,12,12,12,12,12,12,12,0,0,
0,0,0,0,0,15,12,12,12,12,12,12,34,35,0,0,
0,0,0,0,0,0,15,12,12,12,12,16,0,0,0,0,
12,0,0,0,0,0,0,12,12,34,35,0,0,0,0,0,
12,0,0,0,0,0,0,0,0,0,0,0,0,0,0,0,
12,0,0,0,0,0,0,0,0,0,0,0,0,0,0,0,
12,12,0,0,0,0,0,0,0,0,0,0,0,0,0,0,
12,12,0,0,0,0,0,0,0,0,0,0,0,0,0,0,
0,0,0,0,0,0,0,0,0,0,0,0,0,0,0,0
</chunk>
   <chunk x="64" y="16" width="16" height="16">
0,0,0,0,0,0,0,0,15,12,12,0,0,0,0,0,
0,0,0,0,0,0,0,0,0,15,12,0,0,0,0,0,
0,0,0,0,0,0,0,0,0,0,0,0,0,0,0,0,
0,0,0,0,0,0,0,0,0,0,0,0,0,0,0,0,
0,0,0,0,0,0,0,0,0,0,0,0,0,0,0,0,
0,0,0,0,0,0,0,0,0,0,0,0,0,0,0,0,
0,0,0,0,0,0,0,0,0,0,0,0,0,0,0,0,
0,0,0,0,0,0,0,0,0,0,0,0,0,0,0,0,
0,0,0,0,0,0,0,0,0,0,0,0,0,0,0,0,
0,0,0,0,0,0,0,0,0,0,0,0,0,0,0,0,
0,0,0,0,0,0,0,0,0,0,0,0,0,0,0,0,
0,0,0,0,0,0,0,0,0,0,0,0,0,0,0,0,
0,0,0,0,0,0,0,0,0,0,0,0,0,0,0,0,
0,0,0,0,0,0,0,0,0,0,0,0,0,0,0,0,
0,0,0,0,0,0,0,0,0,0,0,0,0,0,0,0,
0,0,0,0,0,0,0,0,0,0,0,0,0,0,0,0
</chunk>
   <chunk x="-144" y="32" width="16" height="16">
0,0,0,0,15,12,12,12,12,12,12,12,12,12,12,12,
0,0,0,0,0,32,33,12,12,12,12,12,12,12,12,12,
0,0,0,0,0,0,0,0,0,0,0,32,33,12,12,12,
0,0,0,0,0,0,0,0,0,0,0,0,0,0,0,0,
0,0,0,0,0,0,0,0,0,0,0,0,0,0,0,0,
0,0,0,0,0,0,0,0,0,0,0,0,0,0,0,0,
0,0,0,0,0,0,0,0,0,0,0,0,0,0,0,0,
0,0,0,0,0,0,0,0,0,0,0,0,0,0,0,0,
0,0,0,0,0,0,0,0,0,0,0,0,0,0,0,0,
0,0,0,0,0,0,0,0,0,0,0,0,0,0,0,0,
0,0,0,0,0,0,0,0,0,0,0,0,0,0,0,0,
0,0,0,0,0,0,0,0,0,0,0,0,0,0,0,0,
0,0,0,0,0,0,0,0,0,0,0,0,0,0,0,0,
0,0,0,0,0,0,0,0,0,0,0,0,0,0,0,0,
0,0,0,0,0,0,0,0,0,0,0,0,0,0,0,0,
0,0,0,0,0,0,0,0,0,0,0,0,0,0,0,0
</chunk>
   <chunk x="-128" y="32" width="16" height="16">
12,12,12,12,12,12,12,12,12,12,12,12,12,12,12,12,
12,12,12,12,12,12,12,12,12,12,12,12,12,12,12,12,
12,12,12,12,12,12,12,12,12,12,12,12,12,12,12,12,
0,0,0,0,0,0,0,0,0,0,0,0,0,0,0,0,
0,0,0,0,0,0,0,0,0,0,0,0,0,0,0,0,
0,0,0,0,0,0,0,0,0,0,0,0,0,0,0,0,
0,0,0,0,0,0,0,0,0,0,0,0,0,0,0,0,
0,0,0,0,0,0,0,0,0,0,0,0,0,0,0,0,
0,0,0,0,0,0,0,0,0,0,0,0,0,0,0,0,
0,0,0,0,0,0,0,0,0,0,0,0,0,0,0,0,
0,0,0,0,0,0,0,0,0,0,0,0,0,0,0,0,
0,0,0,0,0,0,0,0,0,0,0,0,0,0,0,0,
0,0,0,0,0,0,0,0,0,0,0,0,0,0,0,0,
0,0,0,0,0,0,0,0,0,0,0,0,0,0,0,0,
0,0,0,0,0,0,0,0,0,0,0,0,0,0,0,0,
0,0,0,0,0,0,0,0,0,0,0,0,0,0,0,0
</chunk>
   <chunk x="-112" y="32" width="16" height="16">
12,12,12,12,12,12,12,12,12,12,12,12,12,12,12,12,
12,12,12,12,12,12,12,12,12,12,12,12,12,12,12,34,
12,12,12,12,12,12,12,34,35,0,0,0,0,0,0,0,
0,0,0,0,0,0,0,0,0,0,0,0,0,0,0,0,
0,0,0,0,0,0,0,0,0,0,0,0,0,0,0,0,
0,0,0,0,0,0,0,0,0,0,0,0,0,0,0,0,
0,0,0,0,0,0,0,0,0,0,0,0,0,0,0,0,
0,0,0,0,0,0,0,0,0,0,0,0,0,0,0,0,
0,0,0,0,0,0,0,0,0,0,0,0,0,0,0,0,
0,0,0,0,0,0,0,0,0,0,0,0,0,0,0,0,
0,0,0,0,0,0,0,0,0,0,0,0,0,0,0,0,
0,0,0,0,0,0,0,0,0,0,0,0,0,0,0,0,
0,0,0,0,0,0,0,0,0,0,0,0,0,0,0,0,
0,0,0,0,0,0,0,0,0,0,0,0,0,0,0,0,
0,0,0,0,0,0,0,0,0,0,0,0,0,0,0,0,
0,0,0,0,0,0,0,0,0,0,0,0,0,0,0,0
</chunk>
   <chunk x="-96" y="32" width="16" height="16">
12,12,12,12,16,0,0,0,0,0,0,0,0,0,0,0,
35,0,0,0,0,0,0,0,0,0,0,0,0,0,0,0,
0,0,0,0,0,0,0,0,0,0,0,0,0,0,0,0,
0,0,0,0,0,0,0,0,0,0,0,0,0,0,0,0,
0,0,0,0,0,0,0,0,0,0,0,0,0,0,0,0,
0,0,0,0,0,0,0,0,0,0,0,0,0,0,0,0,
0,0,0,0,0,0,0,0,0,0,0,0,0,0,0,0,
0,0,0,0,0,0,0,0,0,0,0,0,0,0,0,0,
0,0,0,0,0,0,0,0,0,0,0,0,0,0,0,0,
0,0,0,0,0,0,0,0,0,0,0,0,0,0,0,0,
0,0,0,0,0,0,0,0,0,0,0,0,0,0,0,0,
0,0,0,0,0,0,0,0,0,0,0,0,0,0,0,0,
0,0,0,0,0,0,0,0,0,0,0,0,0,0,0,0,
0,0,0,0,0,0,0,0,0,0,0,0,0,0,0,0,
0,0,0,0,0,0,0,0,0,0,0,0,0,0,0,0,
0,0,0,0,0,0,0,0,0,0,0,0,0,0,0,0
</chunk>
  </data>
 </layer>
 <layer id="3" name="ground" width="4" height="4">
  <data encoding="csv">
   <chunk x="-128" y="-112" width="16" height="16">
0,0,0,0,0,0,0,0,0,0,0,0,0,0,0,0,
0,0,0,0,0,0,0,0,0,0,0,0,0,0,0,0,
0,0,0,0,0,0,0,0,0,0,0,0,0,0,0,0,
0,0,0,0,0,0,0,0,0,0,0,0,0,0,0,0,
0,0,0,0,0,0,0,0,0,0,0,0,0,0,0,0,
0,0,0,0,0,0,0,0,0,0,0,0,0,0,0,0,
0,0,0,0,0,0,0,0,0,0,0,0,0,0,0,0,
0,0,0,0,0,0,0,0,0,0,0,0,0,0,0,0,
0,0,0,0,0,0,0,0,0,0,0,0,0,0,0,0,
0,0,0,0,0,0,0,0,0,0,0,0,0,0,0,0,
0,0,0,0,0,0,0,0,0,0,0,0,0,0,0,0,
0,0,0,0,0,0,0,0,0,0,0,0,0,0,0,0,
0,0,0,0,0,0,0,0,0,0,0,0,0,0,0,0,
0,0,0,0,0,0,0,0,0,0,0,0,0,0,0,0,
0,0,0,0,0,0,0,0,0,92,93,94,95,95,95,339,
0,0,0,0,0,0,0,0,0,112,113,114,115,115,115,359
</chunk>
   <chunk x="-112" y="-112" width="16" height="16">
0,0,0,0,0,0,0,0,0,0,0,0,0,0,0,0,
0,0,0,0,0,0,0,0,0,0,0,0,0,0,0,0,
0,0,0,0,0,0,0,0,0,0,0,0,0,0,0,0,
0,0,0,0,0,0,0,0,0,0,0,0,0,0,0,0,
0,0,0,0,0,0,0,0,0,0,0,0,0,0,0,0,
0,0,0,0,0,0,0,0,0,0,0,0,0,0,0,0,
0,0,0,0,0,0,0,0,0,0,0,0,0,0,0,0,
0,0,0,0,0,0,0,0,0,0,0,0,0,0,0,0,
0,0,0,0,0,0,0,0,0,0,0,0,0,0,0,0,
0,0,0,0,0,0,0,0,0,0,0,0,0,0,0,0,
0,0,0,0,0,0,0,0,0,0,0,0,0,0,0,0,
0,0,0,0,0,0,0,0,0,0,0,0,0,0,0,0,
0,0,0,0,0,0,0,0,0,0,0,0,0,0,0,0,
0,0,0,0,0,0,0,0,0,0,0,0,0,0,0,0,
340,0,0,0,0,0,0,0,0,0,0,0,0,0,333,94,
360,95,95,96,97,98,0,92,93,94,95,95,95,95,353,114
</chunk>
   <chunk x="-96" y="-112" width="16" height="16">
0,0,0,0,0,0,0,0,0,0,0,0,0,0,0,0,
0,0,0,0,0,0,0,0,0,0,0,0,0,0,0,0,
0,0,0,0,0,0,0,0,0,0,0,0,0,0,0,0,
0,0,0,0,0,0,0,0,0,0,0,0,0,0,0,0,
0,0,0,0,0,0,0,0,0,0,0,0,0,0,0,0,
0,0,0,0,0,0,0,0,0,0,0,0,0,0,0,0,
0,0,0,0,0,0,0,0,0,0,0,0,0,0,0,0,
0,0,0,0,0,0,0,0,0,0,0,0,0,0,0,0,
0,0,0,0,0,0,0,0,0,0,0,0,0,0,0,0,
0,0,0,0,0,0,0,0,0,0,0,0,0,0,0,0,
0,0,0,0,0,0,0,0,0,0,0,0,0,0,0,0,
0,0,0,0,0,0,0,0,0,0,0,0,0,0,0,0,
0,0,0,0,0,0,0,0,0,0,0,0,0,0,0,0,
0,0,0,0,0,0,0,0,0,0,0,0,0,0,0,0,
95,263,264,0,0,0,0,0,0,0,0,0,0,0,0,0,
115,283,279,95,95,96,97,98,0,0,0,0,0,0,0,0
</chunk>
   <chunk x="-128" y="-96" width="16" height="16">
0,0,0,0,0,0,0,0,0,132,133,134,504,504,504,379,
0,0,0,0,0,0,0,0,0,152,153,630,629,244,628,164,
0,0,0,0,0,0,0,0,0,152,153,164,167,155,221,244,
0,0,0,0,0,0,0,0,0,152,153,627,167,155,155,155,
0,0,0,0,0,0,0,0,0,152,153,630,167,155,155,155,
0,0,0,0,0,0,0,0,0,152,153,627,628,104,107,155,
0,0,0,0,0,0,0,0,0,172,173,174,630,629,628,107,
0,0,0,0,0,0,0,0,0,192,193,194,195,438,630,164,
0,0,0,0,0,0,0,0,0,212,213,214,215,397,398,438,
0,0,0,0,0,0,0,0,0,0,0,0,0,0,418,153,
0,0,0,0,0,0,0,0,0,0,0,0,0,0,152,153,
0,0,0,0,0,0,0,0,0,0,0,0,0,0,152,153,
0,0,0,0,0,0,0,0,0,0,0,0,0,0,152,153,
0,0,0,0,0,0,0,0,0,0,0,0,0,0,152,153,
0,0,0,0,0,0,0,0,0,0,0,0,0,0,152,153,
0,0,0,0,0,0,0,0,0,0,0,0,0,0,152,153
</chunk>
   <chunk x="-112" y="-96" width="16" height="16">
380,115,115,116,117,118,0,112,113,114,115,115,115,115,332,134,
164,504,504,136,137,138,0,132,133,134,504,504,504,504,164,627,
244,244,630,630,157,158,0,152,153,164,164,244,244,244,244,227,
155,155,161,629,157,158,0,152,153,629,167,155,155,155,155,155,
155,155,161,630,157,158,0,152,153,630,167,155,155,155,155,155,
155,155,161,164,157,158,0,152,153,630,167,155,155,155,101,104,
155,155,161,164,157,158,0,152,153,628,167,155,155,101,628,627,
107,155,161,627,157,158,0,152,153,627,167,155,101,629,630,439,
630,104,629,627,157,158,0,152,153,627,630,104,164,439,399,400,
628,630,628,627,157,158,0,152,153,630,629,164,630,157,419,0,
628,629,627,627,157,158,0,152,153,628,630,164,164,157,158,0,
629,627,628,630,157,158,0,172,173,174,630,628,176,177,178,0,
164,629,627,629,157,158,0,192,193,194,195,195,196,197,198,0,
164,164,628,629,157,158,0,212,213,214,215,215,216,217,218,0,
627,629,628,164,157,158,0,0,0,0,0,0,0,0,0,0,
627,164,630,627,157,158,0,0,0,0,0,0,0,0,0,0
</chunk>
   <chunk x="-96" y="-96" width="16" height="16">
561,323,324,115,115,116,117,118,0,0,0,0,0,0,0,0,
244,582,504,504,504,136,137,138,0,0,0,0,0,0,0,0,
155,161,627,164,630,629,157,158,0,0,0,0,0,0,0,0,
155,161,630,629,630,629,157,158,0,0,0,0,0,0,0,0,
101,628,630,627,630,630,157,158,0,0,0,0,0,0,0,0,
628,164,439,438,628,630,157,158,0,0,0,0,0,0,0,0,
439,399,400,397,398,195,197,198,0,0,0,0,0,0,0,0,
197,198,0,0,418,215,217,218,0,0,0,0,0,0,0,0,
217,218,0,0,0,0,0,0,0,0,0,0,0,0,0,0,
0,0,0,0,0,0,0,0,0,0,0,0,0,0,0,0,
0,0,0,0,0,0,0,0,0,0,0,0,0,0,0,0,
0,0,0,0,0,0,0,0,0,0,0,0,0,0,0,0,
0,0,0,0,0,0,0,0,0,0,0,0,0,0,0,0,
0,0,0,0,0,0,0,0,0,0,0,0,0,0,0,0,
0,0,0,0,0,0,0,0,0,0,0,0,0,0,0,0,
0,0,0,0,0,0,0,0,0,0,0,0,0,0,0,0
</chunk>
   <chunk x="-128" y="-80" width="16" height="16">
0,0,0,0,0,0,0,0,0,0,0,0,0,0,152,153,
0,0,0,0,0,0,0,0,0,0,0,0,0,0,152,153,
0,0,0,0,0,0,0,0,0,0,0,0,0,0,152,153,
0,0,0,0,0,0,0,0,0,0,0,0,0,0,152,153,
0,0,0,0,0,0,0,0,0,0,0,0,0,0,152,153,
0,0,0,0,0,0,0,0,0,0,0,0,0,0,152,153,
0,0,0,0,0,0,0,0,0,0,0,0,0,0,152,153,
0,0,0,0,0,0,0,0,0,0,0,0,0,0,392,393,
0,0,0,0,0,0,0,0,0,0,0,0,0,0,0,152,
0,0,0,0,0,0,0,0,0,0,0,0,0,0,0,152,
0,0,0,0,0,0,0,0,0,0,0,0,0,0,0,172,
0,0,0,0,0,0,0,0,0,0,0,0,0,0,0,392,
0,0,0,0,0,0,0,0,0,0,0,0,0,0,0,0,
0,0,0,0,0,0,0,0,0,0,0,0,0,0,0,0,
0,0,0,0,0,0,0,0,0,0,0,0,0,0,0,0,
0,0,0,0,0,0,0,0,0,0,0,0,0,0,0,0
</chunk>
   <chunk x="-112" y="-80" width="16" height="16">
164,630,164,630,157,158,0,0,0,0,0,0,0,0,0,92,
627,627,628,629,182,183,98,0,0,0,0,0,0,0,0,112,
164,628,244,561,202,203,118,0,0,0,0,0,0,0,0,152,
629,167,155,161,582,157,158,0,0,0,0,0,0,0,0,152,
628,167,155,161,629,157,158,0,0,0,0,0,0,0,0,152,
629,167,155,161,628,182,183,334,337,0,0,0,0,0,0,152,
164,167,155,221,561,202,116,354,355,0,0,0,0,0,0,152,
412,630,107,155,221,582,136,137,138,0,0,0,0,0,92,185,
153,627,167,155,155,161,627,182,183,334,337,0,0,0,112,205,
153,628,167,155,155,221,561,202,116,354,355,0,0,0,152,153,
173,174,167,155,155,155,221,582,136,137,138,0,0,0,152,153,
393,194,126,107,155,155,155,161,627,157,158,0,0,0,152,153,
413,214,146,627,104,104,104,627,630,157,158,0,0,0,152,153,
92,185,186,164,630,630,630,630,176,177,178,0,0,0,152,153,
112,205,206,567,627,627,439,195,196,197,198,0,0,0,152,153,
152,153,586,164,439,399,400,215,216,217,218,0,0,0,152,153
</chunk>
   <chunk x="-96" y="-80" width="16" height="16">
93,263,264,0,0,0,0,0,0,0,0,0,0,0,0,0,
113,283,284,0,0,0,0,0,0,0,0,0,0,0,0,0,
153,303,304,96,97,98,0,0,0,0,0,0,0,0,0,0,
153,323,324,116,117,118,0,0,0,0,0,0,0,0,0,0,
153,582,504,136,137,138,0,0,0,0,0,0,0,0,0,0,
153,164,629,164,157,158,0,0,0,0,0,0,0,0,0,0,
153,630,164,630,157,158,0,0,0,0,0,0,0,0,0,0,
186,630,164,629,157,158,0,0,0,0,0,0,0,0,0,0,
206,567,628,628,157,158,0,0,0,0,0,0,0,0,0,0,
586,628,630,629,157,158,0,0,0,0,0,0,0,0,0,0,
627,627,627,629,157,158,0,0,0,0,0,0,0,0,0,0,
164,164,627,628,157,158,0,0,0,0,0,0,0,0,0,0,
627,630,630,627,157,158,0,0,0,0,0,0,0,0,0,0,
628,630,628,164,157,158,0,0,0,0,0,0,0,0,0,0,
627,164,630,630,157,158,0,0,0,0,0,0,0,0,0,0,
629,628,164,628,157,158,0,0,0,0,0,0,0,0,0,0
</chunk>
   <chunk x="-128" y="-64" width="16" height="16">
0,0,0,0,0,0,0,0,0,0,0,0,0,0,0,0,
0,0,0,0,0,0,0,0,0,0,0,0,0,0,0,333,
0,0,0,0,0,0,0,0,0,0,0,0,0,0,338,353,
0,0,0,0,0,0,0,0,0,0,0,0,356,357,358,332,
0,0,0,0,0,0,0,0,0,0,0,0,376,318,378,164,
0,0,0,0,0,0,0,0,0,0,0,0,152,153,628,628,
0,0,0,0,0,0,0,0,0,0,0,0,152,153,629,627,
0,0,0,0,0,0,0,0,0,0,0,0,396,397,398,438,
0,0,0,0,0,0,0,0,0,0,0,0,0,0,418,393,
0,0,0,0,0,0,0,0,0,0,0,0,0,0,0,392,
0,0,0,0,0,0,0,0,0,0,0,0,0,0,0,0,
0,0,0,0,0,0,0,0,0,0,0,0,0,0,0,0,
0,0,0,0,0,0,0,0,0,0,0,0,0,0,0,0,
0,0,0,0,0,0,0,0,0,0,0,0,0,0,0,0,
0,0,0,0,0,0,0,0,0,0,0,0,0,0,0,352,
0,0,0,0,0,0,0,0,0,0,0,0,0,0,0,372
</chunk>
   <chunk x="-112" y="-64" width="16" height="16">
152,153,628,629,157,419,0,0,0,0,0,0,0,0,152,153,
185,186,164,629,157,158,0,0,0,0,0,0,0,0,152,153,
114,206,567,164,157,158,0,0,0,0,0,0,0,0,152,153,
134,586,628,628,157,158,0,0,0,0,0,0,0,0,152,153,
630,244,164,628,157,158,0,0,0,0,0,0,0,0,152,153,
167,155,161,627,157,158,0,0,0,0,0,0,0,0,152,153,
167,155,161,164,157,158,0,0,0,0,0,0,0,0,392,393,
628,104,629,629,182,183,95,95,95,96,97,98,0,0,0,152,
412,164,627,561,202,203,115,115,115,116,117,118,0,0,0,152,
393,412,628,630,582,504,504,504,504,136,137,138,0,0,0,172,
192,193,195,125,126,487,630,244,164,627,157,158,0,0,0,192,
212,213,333,185,146,627,167,155,161,164,157,158,0,0,0,212,
0,333,353,114,206,567,227,155,161,164,157,158,0,0,0,0,
333,353,373,134,586,227,155,155,161,164,157,158,0,0,0,0,
353,373,627,627,227,155,155,155,161,164,157,158,0,0,92,93,
373,628,629,227,155,155,155,155,161,629,157,158,0,0,112,113
</chunk>
   <chunk x="-96" y="-64" width="16" height="16">
164,164,630,627,182,183,98,0,0,0,0,0,0,0,0,0,
628,628,244,561,202,283,284,0,0,0,0,0,0,0,0,0,
630,167,155,161,582,303,263,264,0,0,0,0,0,0,0,0,
164,167,155,221,561,323,283,284,0,0,0,0,0,0,0,0,
628,167,155,155,161,582,303,304,334,337,0,0,0,0,0,0,
164,167,155,155,221,561,323,116,354,355,0,0,0,0,0,0,
412,164,107,155,155,221,582,136,137,138,0,0,0,0,0,0,
153,630,167,155,155,155,161,629,182,183,334,337,0,0,0,0,
153,629,630,104,104,104,629,561,202,116,354,355,0,0,0,0,
173,174,629,627,164,628,628,628,582,136,137,138,0,0,0,0,
193,194,195,195,438,164,627,164,164,629,182,183,98,0,0,0,
213,214,215,215,397,398,438,629,164,561,202,283,284,0,0,0,
0,0,0,0,0,418,393,412,628,628,582,303,304,98,0,0,
0,0,0,0,0,0,152,153,630,627,561,323,283,284,0,0,
94,95,95,95,95,95,185,186,628,627,164,582,303,304,98,0,
114,115,115,115,115,115,205,206,567,244,244,561,323,203,118,0
</chunk>
   <chunk x="32" y="-64" width="16" height="16">
0,0,0,0,0,0,0,0,0,0,0,0,0,0,0,0,
0,0,0,0,0,0,0,0,0,0,0,0,0,0,0,0,
0,0,0,0,0,0,0,0,0,0,0,0,0,0,0,0,
0,0,0,0,0,0,0,0,0,0,0,0,0,0,0,0,
0,0,0,0,0,0,0,0,0,0,0,0,0,0,0,0,
0,0,0,0,0,0,0,0,0,0,0,0,0,0,0,0,
0,0,0,0,0,0,0,0,0,0,0,0,0,0,0,0,
0,0,0,0,0,0,0,0,0,0,0,0,0,0,0,0,
0,0,0,0,0,0,0,0,0,0,0,0,0,0,0,0,
0,0,0,0,0,0,0,0,0,0,0,0,0,0,0,0,
0,0,0,0,0,0,0,0,0,0,0,0,0,0,0,0,
0,0,0,0,0,0,0,0,0,338,95,95,95,95,339,340,
0,0,0,0,0,338,95,95,357,358,115,115,115,115,359,360,
0,0,0,333,357,358,115,115,377,378,504,504,504,504,379,380,
0,0,333,353,377,378,504,504,627,630,628,244,244,164,627,164,
0,333,353,373,627,630,630,244,244,244,227,155,155,221,244,244
</chunk>
   <chunk x="48" y="-64" width="16" height="16">
0,0,0,0,0,0,0,0,0,0,0,0,0,0,0,0,
0,0,0,0,0,0,0,0,0,0,0,0,0,0,0,0,
0,0,0,0,0,0,0,0,0,0,0,0,0,0,0,0,
0,0,0,0,0,0,0,0,0,0,0,0,0,0,0,0,
0,0,0,0,0,0,0,0,0,0,0,0,0,0,0,0,
0,0,0,0,0,0,0,0,0,0,0,0,0,0,0,0,
0,0,0,0,0,0,0,0,0,0,0,0,0,0,0,0,
0,0,0,0,0,0,0,0,0,0,0,0,0,0,0,0,
0,0,0,0,0,0,0,0,0,0,0,0,0,0,0,0,
0,0,0,0,0,0,0,0,0,0,0,0,0,0,0,0,
0,0,0,0,0,0,0,0,0,0,0,0,0,0,0,0,
0,0,0,0,0,0,0,0,0,0,0,0,0,0,0,0,
95,95,95,95,95,95,95,96,97,98,0,0,0,0,0,0,
115,115,115,115,115,115,115,116,117,118,0,0,0,0,0,0,
504,504,504,504,504,504,504,136,137,138,0,0,0,0,0,0,
244,244,244,244,244,244,628,627,157,158,0,0,0,0,0,0
</chunk>
   <chunk x="-128" y="-48" width="16" height="16">
0,0,0,0,0,0,0,0,0,0,0,0,0,0,0,152,
0,0,0,0,0,0,0,0,0,0,0,0,0,0,0,152,
0,0,0,0,0,0,0,0,0,0,0,0,0,0,0,152,
0,0,0,0,0,0,0,0,0,0,0,0,0,0,0,152,
0,0,0,0,0,0,0,0,0,0,0,0,0,0,0,152,
0,0,0,0,0,0,0,0,0,0,0,0,0,0,0,152,
0,0,0,0,0,0,0,0,0,0,0,0,0,0,0,396,
0,0,0,0,0,0,0,0,0,0,0,0,0,0,0,0,
0,0,0,0,0,0,0,0,0,0,0,0,0,0,0,0,
0,0,0,0,0,0,0,0,0,0,0,0,0,0,0,0,
0,0,0,0,0,0,0,0,0,0,0,0,0,0,0,0,
0,0,0,0,0,0,0,0,0,0,0,0,0,0,0,0,
0,0,0,0,0,0,0,0,0,0,0,0,0,0,0,333,
0,0,0,0,0,0,0,0,0,0,0,0,0,0,352,353,
0,0,0,0,0,0,0,0,0,0,0,0,0,0,132,133,
0,0,0,0,0,0,0,0,0,0,0,0,0,92,185,186
</chunk>
   <chunk x="-112" y="-48" width="16" height="16">
153,630,167,155,155,155,155,155,161,630,157,158,0,0,132,133,
153,628,167,155,155,155,155,155,161,629,157,158,0,0,152,153,
153,627,167,155,155,155,155,155,161,628,157,158,0,0,152,153,
153,164,167,155,155,155,155,155,161,627,157,158,0,0,152,153,
153,628,167,155,155,155,155,155,161,164,182,183,98,0,152,153,
153,630,630,107,155,155,155,155,221,561,202,203,118,0,152,153,
397,398,438,628,107,155,155,155,155,161,582,157,158,0,152,153,
0,418,153,629,167,155,155,155,155,161,628,182,183,98,152,153,
0,152,153,630,167,155,155,155,155,221,561,202,203,118,192,125,
92,185,186,164,167,155,155,155,155,155,161,582,157,158,212,145,
112,205,206,567,227,155,155,155,155,155,161,627,157,158,92,93,
152,153,586,167,155,155,155,155,155,155,161,630,157,158,112,113,
185,186,164,167,155,155,155,155,155,155,161,630,157,158,152,153,
114,206,567,227,155,155,155,155,155,155,161,122,123,198,392,393,
134,586,227,155,155,155,155,155,155,101,628,182,96,97,98,392,
630,167,155,155,155,155,155,155,155,221,561,202,116,117,118,0
</chunk>
   <chunk x="-96" y="-48" width="16" height="16">
134,504,504,504,504,504,504,586,227,155,155,161,582,157,158,0,
630,627,244,244,244,244,244,227,155,155,155,161,628,157,158,0,
164,167,155,155,155,155,155,155,155,155,155,161,627,157,158,0,
629,167,155,155,155,155,155,155,155,155,155,161,629,157,158,0,
627,167,155,155,155,155,155,155,155,155,155,161,627,182,183,98,
627,167,155,155,155,155,155,155,155,155,155,221,561,202,203,118,
628,167,155,155,155,155,155,155,155,155,155,155,161,582,157,158,
627,167,155,155,155,155,155,155,155,155,155,155,161,164,182,183,
126,167,155,155,155,155,155,155,155,155,155,155,221,561,202,283,
125,126,107,155,155,155,155,155,155,155,155,155,155,161,582,303,
185,186,630,107,155,155,155,155,155,155,155,155,155,161,561,323,
205,206,567,227,155,155,155,155,155,155,155,155,155,161,629,582,
504,586,167,155,155,101,107,155,155,155,155,155,101,122,123,126,
412,630,627,104,104,164,628,107,155,155,155,101,629,142,143,146,
393,412,630,628,164,629,439,630,107,155,155,161,628,157,192,125,
192,193,195,195,195,399,400,628,630,107,155,161,627,157,212,145
</chunk>
   <chunk x="-80" y="-48" width="16" height="16">
0,0,0,0,0,0,0,0,0,0,0,0,0,0,0,0,
0,0,0,0,0,0,0,0,0,0,0,0,0,0,0,0,
0,0,0,0,0,0,0,0,0,0,0,0,0,0,0,0,
0,0,0,0,0,0,0,0,0,0,0,0,0,0,0,0,
0,0,0,0,0,0,0,0,0,0,0,0,0,0,0,0,
0,0,0,0,0,0,0,0,0,0,0,0,0,0,0,0,
0,0,0,0,0,0,0,0,0,0,0,0,0,0,0,0,
98,0,0,0,0,0,0,0,0,0,0,0,0,0,0,0,
284,0,0,0,0,0,0,0,0,0,0,0,0,0,0,0,
263,264,0,0,0,0,0,0,0,0,0,0,0,0,0,0,
283,284,0,0,0,0,0,0,0,0,0,0,0,0,0,0,
303,304,334,0,0,0,0,0,0,0,0,0,0,0,0,0,
323,324,354,334,0,0,0,0,0,0,0,0,0,0,0,0,
582,136,374,354,339,0,0,0,0,0,0,0,0,0,0,0,
126,164,628,335,359,360,361,0,0,0,0,0,0,0,0,0,
146,627,628,164,379,319,381,0,0,0,0,0,0,0,0,0
</chunk>
   <chunk x="0" y="-48" width="16" height="16">
0,0,0,0,0,0,0,0,0,0,0,0,0,0,0,0,
0,0,0,0,0,0,0,0,0,0,0,0,0,0,0,0,
0,0,0,0,0,0,0,0,0,0,0,0,0,0,0,0,
0,0,0,0,0,0,0,0,0,0,0,0,0,0,0,0,
0,0,0,0,0,0,0,0,0,0,0,0,0,0,0,0,
0,0,0,0,0,0,0,0,0,0,0,0,0,0,0,0,
0,0,0,0,0,0,0,0,0,0,0,0,0,0,0,0,
0,0,0,0,0,0,0,0,0,0,0,0,0,0,0,0,
0,0,0,0,0,0,0,0,0,0,0,0,0,0,0,0,
0,0,0,0,0,0,0,0,0,0,0,0,0,0,0,0,
0,0,0,0,0,0,0,0,0,0,0,0,0,0,0,0,
0,0,0,0,0,0,0,0,0,0,0,0,0,0,0,0,
0,0,0,0,0,0,0,0,0,0,0,0,0,0,0,0,
0,0,0,0,0,0,0,0,0,0,0,0,0,0,0,333,
0,0,0,0,0,0,0,0,0,0,0,0,0,0,333,353,
0,0,0,0,0,0,0,0,0,0,0,0,0,338,353,373
</chunk>
   <chunk x="16" y="-48" width="16" height="16">
0,0,0,0,0,0,0,0,0,0,0,0,0,0,0,0,
0,0,0,0,0,0,0,0,0,0,0,0,0,0,0,0,
0,0,0,0,0,0,0,0,0,0,0,0,0,0,0,261,
0,0,0,0,0,0,0,0,0,0,0,0,0,0,0,281,
0,0,0,0,0,0,0,0,0,0,0,0,0,0,333,301,
0,0,0,0,0,0,0,0,0,0,0,0,0,338,353,321,
0,0,0,0,0,0,0,0,0,0,0,333,357,358,332,134,
0,0,0,0,0,0,0,0,0,0,338,353,377,378,628,627,
0,0,0,0,0,0,0,0,333,357,358,332,627,629,627,164,
0,0,0,0,0,0,0,338,353,377,378,164,629,630,630,627,
0,0,0,0,338,95,357,358,332,627,627,627,630,627,164,628,
0,0,333,357,358,115,377,378,627,164,164,164,164,164,629,439,
0,338,353,377,378,504,628,164,630,164,629,164,630,629,439,394,
357,358,332,630,630,164,628,628,627,628,627,629,439,399,400,414,
377,378,630,627,629,627,630,164,630,630,439,399,400,419,0,0,
164,630,630,629,628,627,164,439,195,399,400,419,0,0,0,0
</chunk>
   <chunk x="32" y="-48" width="16" height="16">
352,353,373,630,629,244,227,155,155,155,155,155,155,155,155,155,
372,373,627,630,227,155,155,155,155,155,155,155,155,155,155,155,
262,186,629,167,155,155,155,155,155,155,155,155,155,155,155,101,
282,206,567,227,155,155,155,155,155,155,155,155,155,101,104,629,
302,586,167,155,155,155,155,155,155,155,155,155,101,164,629,164,
322,567,227,155,155,155,155,155,155,155,101,104,164,629,439,399,
226,227,155,155,155,155,155,155,155,101,627,164,439,399,400,419,
167,155,155,155,155,155,155,155,101,629,628,439,394,419,0,0,
164,104,104,104,104,104,104,104,627,439,399,400,414,0,0,0,
164,630,164,164,629,627,629,629,415,394,419,0,0,0,0,0,
630,439,195,195,195,195,195,195,394,395,0,0,0,0,0,0,
399,400,215,215,215,215,215,215,414,0,0,0,0,0,0,0,
419,0,0,0,0,0,0,0,0,0,0,0,0,0,0,0,
0,0,0,0,0,0,0,0,0,0,0,0,0,0,0,0,
0,0,0,0,0,0,0,333,94,95,95,95,95,95,95,95,
0,0,0,0,0,0,333,353,114,115,115,115,115,115,115,115
</chunk>
   <chunk x="48" y="-48" width="16" height="16">
155,155,155,155,155,155,161,628,157,158,0,0,0,0,0,0,
155,101,104,104,104,104,627,629,157,158,0,0,0,0,0,0,
104,627,629,164,628,629,164,176,177,178,0,0,0,0,0,0,
628,629,439,195,195,195,195,196,197,198,0,0,0,0,0,0,
439,399,400,215,215,215,215,216,217,218,0,0,0,0,0,0,
400,419,0,0,0,0,0,0,0,0,0,0,0,0,0,0,
0,0,0,0,0,0,0,0,0,0,0,0,0,0,0,0,
0,0,0,0,0,0,0,0,0,0,0,0,0,0,0,0,
0,0,0,0,0,0,0,0,0,0,0,0,0,0,0,0,
0,0,0,0,0,0,0,0,0,0,0,0,0,0,0,0,
0,0,0,0,0,0,0,0,0,0,0,0,0,0,0,0,
0,0,0,0,0,0,0,0,0,0,0,0,0,0,0,0,
0,0,0,0,0,0,0,0,0,0,0,0,0,0,0,0,
0,0,0,0,0,0,0,0,0,0,0,0,0,0,0,0,
95,95,95,95,95,95,96,97,98,0,0,0,0,0,0,0,
115,115,115,115,115,115,116,117,118,0,0,0,0,0,0,0
</chunk>
   <chunk x="64" y="-48" width="16" height="16">
0,0,0,0,0,0,0,0,0,0,0,0,0,0,0,0,
0,0,0,0,0,0,0,0,0,0,0,0,0,0,0,0,
0,0,0,0,0,0,0,0,0,0,0,0,0,0,0,0,
0,0,0,0,0,0,0,0,0,0,0,0,0,0,0,0,
0,0,0,0,0,0,0,0,0,0,0,0,0,0,0,0,
0,0,0,0,0,0,0,0,0,0,0,0,0,0,0,0,
0,0,0,0,0,0,0,0,0,0,0,0,0,0,0,0,
0,0,0,0,0,0,0,0,0,0,0,0,0,0,0,0,
0,0,0,0,0,0,0,0,0,0,0,0,0,0,0,0,
0,0,0,0,0,0,0,0,0,0,0,0,0,0,0,0,
0,0,0,0,0,0,0,0,0,0,0,0,0,0,0,0,
0,0,0,0,0,0,0,0,0,0,0,0,0,0,0,0,
0,0,0,0,0,0,0,0,0,0,0,0,0,0,0,0,
0,0,0,0,0,0,0,0,0,0,0,0,0,0,0,0,
0,0,0,0,0,0,0,0,0,0,0,0,0,0,0,333,
0,0,0,0,0,0,0,0,0,0,0,0,0,0,352,353
</chunk>
   <chunk x="80" y="-48" width="16" height="16">
0,0,0,0,0,0,0,0,0,0,0,0,0,0,0,0,
0,0,0,0,0,0,0,0,0,0,0,0,0,0,0,0,
0,0,0,0,0,0,0,0,0,0,0,0,0,0,0,0,
0,0,0,0,0,0,0,0,0,0,0,0,0,0,0,0,
0,0,0,0,0,0,0,0,0,0,0,0,0,0,0,0,
0,0,0,0,0,0,0,0,0,0,0,0,0,0,0,0,
0,0,0,0,0,0,0,0,0,0,0,0,0,0,0,0,
0,0,0,0,0,0,0,0,0,0,0,0,0,0,0,0,
0,0,0,0,0,0,0,0,0,0,0,0,0,0,0,0,
0,0,0,0,0,0,0,0,0,0,0,0,0,0,0,0,
0,0,0,0,0,0,0,0,0,0,0,0,0,0,0,0,
0,0,0,0,0,0,0,0,0,0,0,0,0,0,0,0,
0,0,0,0,0,0,0,0,0,338,95,97,98,0,0,0,
0,0,0,0,0,0,338,95,357,358,115,117,118,0,0,0,
94,95,95,95,95,357,358,115,377,378,504,157,158,0,0,0,
114,115,115,115,115,377,378,504,628,629,628,182,183,98,0,0
</chunk>
   <chunk x="112" y="-48" width="16" height="16">
0,0,0,0,0,0,0,0,0,0,0,0,0,0,0,0,
0,0,0,0,0,0,0,0,0,0,0,0,0,0,0,0,
0,0,0,0,0,0,0,0,0,0,0,0,0,0,0,0,
0,0,0,0,0,0,0,0,0,0,0,0,0,0,0,0,
0,0,0,0,0,0,0,0,0,0,0,0,0,0,0,0,
0,0,0,0,0,0,0,0,0,0,0,0,0,0,0,0,
0,0,0,0,0,0,0,0,0,0,0,0,0,0,0,0,
0,0,0,0,0,0,0,0,0,0,0,0,0,0,0,0,
0,0,0,0,0,0,0,0,0,0,0,0,0,0,0,0,
0,0,0,0,0,0,0,0,0,0,0,0,0,0,0,0,
0,0,0,0,0,0,0,0,0,0,0,0,0,0,0,0,
0,0,0,0,0,0,0,0,0,0,0,0,0,0,0,0,
0,0,0,0,0,0,0,0,0,0,0,0,0,0,0,0,
0,0,0,0,0,0,0,0,0,0,0,0,0,92,93,94,
0,0,0,0,0,0,0,0,0,0,0,0,0,112,113,114,
0,0,0,0,0,0,0,0,0,0,0,0,0,132,133,134
</chunk>
   <chunk x="128" y="-48" width="16" height="16">
0,0,0,0,0,0,0,0,0,0,0,0,0,0,0,0,
0,0,0,0,0,0,0,0,0,0,0,0,0,0,0,0,
0,0,0,0,0,0,0,0,0,0,0,0,0,0,0,0,
0,0,0,0,0,0,0,0,0,0,0,0,0,0,0,0,
0,0,0,0,0,0,0,0,0,0,0,0,0,0,0,0,
0,0,0,0,0,0,0,0,0,0,0,0,0,0,0,0,
0,0,0,0,0,0,0,0,0,0,0,0,0,0,0,0,
0,0,0,0,0,0,0,0,0,0,0,0,0,0,0,0,
0,0,0,0,0,0,0,0,0,0,0,0,0,0,0,0,
0,0,0,0,0,0,0,0,0,0,0,0,0,0,0,0,
0,0,0,0,0,0,0,0,0,0,0,0,0,0,0,0,
0,0,0,0,0,0,0,0,0,0,0,0,0,0,0,0,
0,0,0,0,0,0,0,0,0,0,0,0,0,0,0,0,
95,95,95,96,97,98,0,0,0,0,0,0,0,0,0,0,
115,115,115,116,117,118,0,0,0,0,0,0,0,0,0,0,
504,504,504,136,137,138,0,0,0,0,0,0,0,0,0,0
</chunk>
   <chunk x="-128" y="-32" width="16" height="16">
0,0,0,0,0,0,0,0,0,0,0,0,0,112,205,206,
0,0,0,0,0,0,0,0,0,0,0,0,0,152,153,586,
0,0,0,0,0,0,0,0,0,0,0,0,0,152,153,628,
0,0,0,0,0,0,0,0,0,0,0,0,333,185,186,629,
0,0,0,0,0,0,0,0,0,0,0,352,353,114,206,567,
0,0,0,0,0,0,0,0,0,0,0,132,133,134,586,227,
0,0,0,0,0,0,0,0,0,0,0,152,153,628,167,155,
0,0,0,0,0,0,0,0,0,0,333,185,186,630,167,155,
0,0,0,0,0,0,0,0,0,352,353,205,206,567,227,155,
0,0,0,0,0,0,0,0,0,372,373,126,586,167,155,155,
0,0,0,0,0,0,0,0,0,333,185,186,627,167,155,155,
0,0,0,0,0,0,0,0,338,353,114,206,567,227,155,155,
0,0,0,0,0,0,333,357,358,332,134,586,227,155,155,155,
0,0,0,0,0,338,353,377,378,164,164,227,155,155,155,155,
0,0,0,333,357,358,332,629,627,164,227,155,155,155,155,101,
0,0,333,353,377,378,627,628,244,227,155,155,155,101,104,629
</chunk>
   <chunk x="-112" y="-32" width="16" height="16">
567,227,155,155,155,155,155,155,155,155,161,582,136,137,138,0,
167,155,155,155,155,101,104,107,155,155,161,122,196,197,198,0,
167,155,155,155,101,164,628,630,104,104,630,142,216,217,218,0,
167,155,155,101,629,629,439,412,628,627,630,202,203,117,118,0,
227,155,101,164,439,399,400,393,195,195,195,195,399,400,401,0,
155,101,630,415,394,419,0,413,215,215,215,215,419,0,0,0,
155,161,630,157,158,0,0,0,0,0,0,0,0,0,0,0,
155,161,628,157,158,0,0,0,0,0,0,0,0,0,0,0,
155,161,630,157,158,0,0,0,0,0,0,0,0,0,0,0,
101,164,415,394,395,0,0,0,0,0,0,0,0,0,0,0,
161,628,157,158,0,0,0,0,0,0,0,0,0,0,0,0,
161,630,157,158,0,0,0,0,0,0,0,0,0,0,0,0,
161,628,157,158,0,0,0,0,0,0,0,0,0,0,0,0,
161,628,157,158,0,0,0,0,0,0,0,0,0,0,0,0,
628,628,157,158,0,0,0,0,0,0,0,0,0,0,0,0,
439,399,400,401,0,0,0,0,0,0,0,0,0,0,0,0
</chunk>
   <chunk x="-96" y="-32" width="16" height="16">
212,213,215,215,215,419,152,153,627,167,155,161,628,157,158,396,
0,0,0,0,0,333,185,186,628,167,155,161,630,157,158,0,
0,0,0,0,338,353,114,206,567,227,155,161,164,157,158,0,
0,92,93,357,358,332,134,586,227,155,155,161,628,157,158,0,
0,112,113,377,378,627,630,167,155,155,155,161,630,157,158,0,
0,152,153,627,628,164,627,627,104,104,104,629,629,157,158,0,
0,392,393,438,627,630,164,164,629,629,628,629,415,394,395,0,
0,0,413,397,398,195,195,195,195,195,195,195,394,395,0,0,
0,0,0,0,418,215,215,215,215,215,215,215,414,0,0,0,
0,0,0,0,0,0,0,0,0,0,0,0,0,0,0,0,
0,0,0,0,0,0,0,0,0,0,0,0,0,0,0,0,
0,0,0,0,0,0,0,0,0,0,0,0,0,0,0,0,
0,0,0,0,0,0,0,0,0,0,0,0,0,0,0,0,
0,0,0,0,0,0,0,0,0,0,0,0,0,0,0,0,
0,0,0,0,0,0,0,0,0,0,0,0,0,0,0,0,
0,0,0,0,0,0,0,0,0,0,0,0,0,0,0,0
</chunk>
   <chunk x="-80" y="-32" width="16" height="16">
397,398,438,627,176,177,178,0,0,0,0,0,0,0,0,0,
0,418,393,195,196,197,198,0,0,0,0,0,0,0,0,0,
0,0,413,215,216,217,218,0,0,0,0,0,0,0,0,0,
0,0,0,0,0,0,0,0,0,0,0,0,0,0,0,0,
0,0,0,0,0,0,0,0,0,0,0,0,0,0,0,0,
0,0,0,0,0,0,0,0,0,0,0,0,0,0,0,0,
0,0,0,0,0,0,0,0,0,0,0,0,0,0,0,0,
0,0,0,0,0,0,0,0,0,0,0,0,0,0,0,0,
0,0,0,0,0,0,0,0,0,0,0,0,0,0,0,0,
0,0,0,0,0,0,0,0,0,0,0,0,0,0,0,0,
0,0,0,0,0,0,0,0,0,0,0,0,0,0,0,0,
0,0,0,0,0,0,0,0,0,0,0,0,0,0,0,0,
0,0,0,0,0,0,0,0,0,0,0,0,0,0,0,0,
0,0,0,0,0,0,0,0,0,0,0,0,0,0,0,0,
0,0,0,0,0,0,0,0,0,0,0,0,0,0,0,0,
0,0,0,0,0,0,0,0,0,0,0,0,0,0,0,0
</chunk>
   <chunk x="0" y="-32" width="16" height="16">
0,0,0,0,0,0,0,0,0,0,0,333,357,358,332,629,
0,0,0,0,0,0,0,0,0,0,352,353,377,378,630,630,
0,0,0,0,0,0,0,0,0,0,372,373,195,195,195,399,
0,0,0,0,0,0,0,0,0,0,212,213,215,215,215,419,
0,0,0,0,0,0,0,0,0,0,0,0,0,0,0,0,
0,0,0,0,0,0,0,0,0,0,0,0,0,0,0,0,
0,0,0,0,0,0,0,0,0,0,0,0,0,0,0,0,
0,0,0,0,0,0,0,0,0,0,0,0,0,0,0,0,
0,0,0,0,0,0,0,0,0,0,0,0,0,0,0,0,
0,0,0,0,0,0,0,0,0,0,0,0,0,0,0,0,
0,0,0,0,0,0,0,0,0,0,0,0,0,0,0,0,
0,0,0,0,0,0,0,0,0,0,0,0,0,0,0,0,
0,0,0,0,0,0,0,0,0,0,0,0,0,0,0,0,
0,0,0,0,0,0,0,0,0,0,0,0,0,0,0,0,
0,0,0,0,0,0,0,0,0,0,0,0,0,0,0,0,
0,0,0,0,0,0,0,0,0,0,0,0,0,0,0,0
</chunk>
   <chunk x="16" y="-32" width="16" height="16">
627,164,629,164,439,195,399,400,215,419,0,0,0,0,0,0,
439,195,195,399,400,215,419,0,0,0,0,0,0,0,0,0,
400,215,215,419,0,0,0,0,0,0,0,0,0,0,0,0,
0,0,0,0,0,0,0,0,0,0,0,0,0,0,0,0,
0,0,0,0,0,0,0,0,0,0,0,0,0,0,0,0,
0,0,0,0,0,0,0,0,0,0,0,0,0,0,0,0,
0,0,0,0,0,0,0,0,0,0,0,0,0,0,0,333,
0,0,0,0,0,0,0,0,0,0,0,0,0,0,333,353,
0,0,0,0,0,0,0,0,0,0,0,0,0,333,353,373,
0,0,0,0,0,0,0,0,0,0,0,0,333,353,373,164,
0,0,0,0,0,0,0,0,0,0,0,333,353,373,628,628,
0,0,0,0,0,0,0,0,0,0,333,353,373,629,627,630,
0,0,0,0,0,0,0,0,0,333,353,373,627,628,629,630,
0,0,0,0,0,0,0,0,333,353,373,629,627,164,628,415,
0,0,0,0,0,0,0,333,353,373,164,630,627,630,415,394,
0,0,0,0,0,0,333,353,373,627,164,627,629,122,123,198
</chunk>
   <chunk x="32" y="-32" width="16" height="16">
0,0,0,0,0,333,353,373,134,504,504,504,504,504,504,504,
0,0,0,0,333,353,373,628,627,244,244,244,244,630,164,164,
0,0,0,333,353,373,629,630,227,155,155,155,155,161,627,627,
0,0,333,353,373,627,628,167,155,155,155,101,104,630,629,630,
0,333,353,373,627,630,630,630,104,104,104,630,627,630,439,438,
333,353,373,164,630,630,628,629,628,628,628,630,439,399,400,397,
353,373,164,630,629,164,629,439,195,195,195,399,400,419,0,0,
373,629,627,628,629,439,399,400,215,215,215,419,0,0,0,0,
628,627,628,628,439,394,419,0,0,0,0,0,0,0,0,0,
627,627,439,399,400,414,0,0,0,0,0,0,0,0,0,0,
628,415,394,419,0,0,0,0,0,0,0,0,0,0,0,0,
415,394,395,0,0,0,0,0,0,0,0,0,0,0,0,0,
157,158,0,0,0,0,0,0,0,0,0,0,0,0,0,0,
394,395,0,0,0,0,0,0,0,0,0,0,0,0,0,0,
395,0,454,455,456,0,0,0,0,0,0,0,0,0,0,0,
0,0,474,475,476,0,0,0,0,0,0,0,0,0,0,0
</chunk>
   <chunk x="48" y="-32" width="16" height="16">
504,504,504,504,504,504,136,137,138,0,0,0,0,0,0,0,
164,244,244,244,244,630,629,157,158,0,0,0,0,0,0,0,
167,155,155,155,155,161,628,157,158,0,0,0,0,0,0,0,
628,107,155,155,155,161,627,157,158,0,0,0,0,0,0,0,
627,627,107,155,155,161,628,157,158,0,0,0,0,0,0,0,
398,438,629,107,155,161,627,157,158,0,0,0,0,0,0,0,
418,153,627,167,155,161,627,157,158,0,0,0,0,0,0,0,
152,153,630,167,155,161,164,157,158,0,0,0,0,0,0,0,
152,153,630,167,155,161,630,157,158,0,0,0,0,0,0,0,
152,153,630,167,155,161,164,157,158,0,0,0,0,0,0,0,
152,153,629,167,155,161,630,157,158,0,0,0,0,0,0,0,
152,153,164,167,155,161,628,157,158,0,0,0,0,0,0,0,
152,153,627,167,155,161,628,157,158,0,0,0,0,0,0,0,
152,153,164,167,155,161,627,157,158,0,0,0,0,0,0,0,
152,153,629,167,155,161,627,157,158,0,0,0,0,0,0,0,
152,153,630,167,155,161,627,157,158,0,0,0,0,0,0,0
</chunk>
   <chunk x="64" y="-32" width="16" height="16">
0,0,0,0,0,0,0,0,0,0,0,0,0,0,132,133,
0,0,0,0,0,0,0,0,0,0,0,0,0,0,152,153,
0,0,0,0,0,0,0,0,0,0,0,0,0,0,152,153,
0,0,0,0,0,0,0,0,0,0,0,0,0,0,392,393,
0,0,0,0,0,0,0,0,0,0,0,0,0,0,0,152,
0,0,0,0,0,0,0,0,0,0,0,0,0,0,0,152,
0,0,0,0,0,0,0,0,0,0,0,0,0,0,0,152,
0,0,0,0,0,0,0,0,0,0,0,0,0,0,0,152,
0,0,0,0,0,0,0,0,0,0,0,0,0,0,0,392,
0,0,0,0,0,0,0,0,0,0,0,0,0,0,0,0,
0,0,0,0,0,0,0,0,0,0,0,0,0,0,0,0,
0,0,0,0,0,0,0,0,0,0,0,0,0,0,0,0,
0,0,0,0,0,0,0,0,0,0,0,0,0,0,0,0,
0,0,0,0,0,0,0,0,0,0,0,0,0,0,0,0,
0,0,0,0,0,0,0,0,0,0,0,0,0,0,0,0,
0,0,0,0,0,0,0,0,0,0,0,0,0,0,0,0
</chunk>
   <chunk x="80" y="-32" width="16" height="16">
134,504,504,504,504,627,164,164,244,244,561,202,203,118,0,0,
628,628,244,244,244,244,244,227,155,155,161,582,157,158,0,0,
629,167,155,155,155,155,155,155,155,155,161,164,157,158,0,0,
412,630,107,155,155,155,155,155,155,155,161,629,157,158,0,0,
153,628,167,155,155,155,155,155,155,155,161,629,182,183,98,0,
153,164,167,155,155,155,155,155,155,155,221,561,202,203,118,0,
153,629,167,155,155,155,155,155,155,155,155,161,582,157,158,0,
153,627,167,155,155,155,155,155,155,155,155,161,629,157,158,0,
393,412,627,107,155,155,155,155,155,155,155,161,630,157,158,0,
152,153,629,167,155,155,155,155,155,155,155,161,630,157,158,0,
152,153,629,167,155,155,155,155,155,155,155,161,630,157,158,0,
152,153,630,167,155,155,155,155,155,155,155,161,628,157,158,0,
392,393,412,627,107,155,155,155,155,155,155,161,628,157,158,0,
0,152,153,630,167,155,155,155,155,155,155,161,630,157,158,0,
0,152,153,164,167,155,155,155,155,155,155,161,630,157,158,0,
0,152,153,630,167,155,155,155,155,155,155,161,628,157,158,0
</chunk>
   <chunk x="96" y="-32" width="16" height="16">
0,0,0,0,0,0,0,0,0,0,0,0,0,0,0,0,
0,0,0,0,0,0,0,0,0,0,0,0,0,0,0,0,
0,0,0,0,0,0,0,0,0,0,0,0,0,0,0,0,
0,0,0,0,0,0,0,0,0,0,0,0,0,0,0,0,
0,0,0,0,0,0,0,0,0,0,0,0,0,0,0,0,
0,0,0,0,0,0,0,0,0,0,0,0,0,0,0,0,
0,0,0,0,0,0,0,0,0,0,0,0,0,0,0,0,
0,0,0,0,0,0,0,0,0,0,0,0,0,0,0,92,
0,0,0,0,0,0,0,0,0,0,0,0,0,0,0,112,
0,0,0,0,0,0,0,0,0,0,0,0,0,0,0,392,
0,0,0,0,0,0,0,0,0,0,0,0,0,0,0,0,
0,0,0,0,0,0,0,0,0,0,0,0,0,0,0,0,
0,0,0,0,0,0,0,0,0,0,0,0,0,0,0,0,
0,0,0,0,0,0,0,0,0,0,0,0,0,0,0,0,
0,0,0,0,0,0,0,0,0,0,0,0,0,0,0,0,
0,0,0,0,0,0,0,0,0,0,0,0,0,0,0,0
</chunk>
   <chunk x="112" y="-32" width="16" height="16">
0,0,0,0,0,0,0,0,0,0,0,0,0,152,153,164,
0,0,0,0,0,0,0,0,0,0,0,0,92,185,186,164,
0,0,0,0,333,95,97,98,0,0,0,0,112,205,206,567,
0,0,0,333,353,115,117,118,0,0,0,0,152,153,586,167,
0,0,352,353,373,504,157,158,0,0,0,0,152,153,629,167,
0,0,372,373,195,195,394,395,0,0,0,0,152,153,627,167,
0,0,212,213,215,215,414,0,0,0,0,0,152,153,629,167,
93,97,98,0,0,0,0,0,0,0,0,0,152,153,630,167,
113,117,118,0,0,0,92,93,97,98,0,0,152,153,629,167,
393,197,198,0,0,0,112,113,117,118,0,0,152,153,627,167,
413,217,218,0,0,0,392,393,197,198,0,0,152,153,164,167,
0,0,0,0,0,0,0,413,217,218,0,92,185,186,629,167,
0,0,0,0,0,0,0,0,0,0,0,112,205,206,567,227,
0,0,0,0,0,0,0,0,0,0,0,152,153,586,167,155,
0,0,0,0,0,0,0,0,0,0,0,152,153,630,167,155,
0,0,0,0,0,0,0,0,0,0,261,262,186,629,167,155
</chunk>
   <chunk x="128" y="-32" width="16" height="16">
628,244,164,628,157,158,0,0,0,0,0,0,0,0,0,0,
167,155,161,164,157,158,0,0,0,0,0,0,0,0,0,0,
227,155,161,627,157,158,0,0,0,0,0,0,0,0,0,0,
155,155,161,628,157,158,0,0,0,0,0,0,0,0,0,0,
155,155,161,627,157,158,0,0,0,0,0,0,0,0,0,0,
155,155,161,627,157,158,0,0,0,0,0,0,0,0,0,0,
155,155,161,627,157,158,0,0,0,0,0,0,0,0,0,0,
155,155,161,630,157,158,0,0,0,0,0,0,0,0,0,0,
155,155,161,628,157,158,0,0,0,0,0,0,0,0,0,0,
155,155,161,627,157,158,0,0,0,0,0,0,0,0,0,0,
155,155,161,628,157,158,0,0,0,0,0,0,0,0,0,0,
155,155,161,630,157,158,0,0,0,0,0,0,0,0,0,0,
155,101,628,415,394,395,0,0,0,0,0,0,0,0,0,0,
155,161,629,157,158,0,0,0,0,0,0,0,0,0,0,0,
155,161,627,157,158,0,0,0,0,0,0,0,0,0,0,0,
155,161,628,157,158,0,0,0,0,0,0,0,0,0,0,0
</chunk>
   <chunk x="-160" y="-16" width="16" height="16">
0,0,0,0,0,0,0,0,0,0,0,0,0,0,0,0,
0,0,0,0,0,0,0,0,0,0,0,0,0,0,0,0,
0,0,0,0,0,0,0,0,0,0,0,0,0,0,0,0,
0,0,0,0,0,0,0,0,0,0,0,0,0,0,0,0,
0,0,0,0,0,0,0,0,0,0,0,0,0,0,0,0,
0,0,0,0,0,0,0,0,0,0,0,0,0,0,0,0,
0,0,0,0,0,0,0,0,0,0,0,0,0,0,0,0,
0,0,0,0,0,0,0,0,0,0,0,0,0,0,0,0,
0,0,0,0,0,0,0,0,0,0,0,0,0,0,0,0,
0,0,0,0,0,0,0,0,0,0,0,0,0,0,0,0,
0,0,0,0,0,0,0,0,0,0,0,0,0,0,0,0,
0,0,0,0,0,0,0,0,0,0,0,0,0,0,0,0,
0,0,0,0,0,0,0,0,0,0,0,0,0,0,0,352,
0,0,0,0,0,0,0,0,0,0,0,0,0,0,0,372,
0,0,0,0,0,0,0,0,0,0,0,0,0,0,333,185,
0,0,0,0,0,0,0,0,0,0,0,0,0,333,353,114
</chunk>
   <chunk x="-144" y="-16" width="16" height="16">
0,0,0,0,0,0,0,0,0,0,0,0,0,0,0,0,
0,0,0,0,0,0,0,0,0,0,0,0,338,95,95,95,
0,0,0,0,0,0,0,0,0,0,338,357,358,115,115,115,
0,0,0,0,0,0,0,0,333,357,358,377,378,504,504,504,
0,0,0,0,0,0,0,333,353,377,378,627,628,629,244,244,
0,0,0,0,0,0,333,353,373,164,627,630,244,227,155,155,
0,0,0,0,0,333,353,373,164,629,244,227,155,155,155,155,
0,0,0,0,333,353,373,627,629,227,155,155,155,155,155,155,
0,0,0,333,353,373,627,629,227,155,155,155,155,155,155,155,
0,0,333,353,373,629,630,227,155,155,155,155,155,155,155,155,
0,333,353,373,629,164,227,155,155,155,155,155,155,155,155,155,
333,353,373,627,629,227,155,155,155,155,155,155,155,155,155,155,
353,373,630,629,227,155,155,155,155,155,155,155,155,155,155,101,
373,630,627,227,155,155,155,155,155,155,155,155,155,155,155,161,
186,164,167,155,155,155,155,155,155,155,155,155,155,155,101,629,
206,567,227,155,155,155,155,155,155,155,155,155,155,101,627,415
</chunk>
   <chunk x="-128" y="-16" width="16" height="16">
0,338,353,373,164,628,164,227,155,155,155,155,101,628,629,415,
357,358,332,164,627,244,227,155,155,155,101,104,627,627,439,394,
377,378,164,629,227,155,155,155,155,101,628,627,439,399,400,414,
164,627,628,227,155,155,155,155,101,629,627,439,394,419,0,0,
244,244,227,155,155,155,101,104,627,439,399,400,414,0,0,0,
155,155,155,155,155,101,628,630,415,394,419,0,0,0,0,0,
155,155,155,155,101,629,627,439,394,395,0,0,0,0,0,0,
155,155,155,101,630,439,399,400,414,0,0,0,0,0,0,0,
155,155,155,161,630,157,419,0,0,0,0,0,0,0,0,0,
155,155,101,630,415,394,395,0,0,0,0,0,0,0,0,0,
155,101,164,415,394,395,0,0,0,0,0,0,0,0,0,0,
101,164,415,394,395,0,0,0,0,0,0,0,0,0,0,0,
164,415,394,395,0,0,0,0,0,0,0,0,0,0,0,0,
628,157,158,0,0,0,0,0,0,0,0,0,0,0,0,0,
415,394,395,0,0,0,0,0,0,0,0,0,0,0,0,0,
394,395,0,0,0,0,0,0,0,0,0,0,0,0,0,0
</chunk>
   <chunk x="-112" y="-16" width="16" height="16">
394,419,0,0,0,0,0,0,0,0,0,0,0,0,0,0,
395,0,0,0,0,0,0,0,0,0,0,0,0,0,0,0,
0,0,0,0,0,0,0,0,0,0,0,0,0,0,0,0,
0,0,0,0,0,0,0,0,0,0,0,0,0,0,0,0,
0,0,0,0,0,0,0,0,0,0,0,0,0,0,0,0,
0,0,0,0,0,0,0,0,0,0,0,0,0,0,0,0,
0,0,0,0,0,0,0,0,0,0,0,0,0,0,0,0,
0,0,0,0,0,0,0,0,0,0,0,0,0,0,0,0,
0,0,0,0,0,0,0,0,0,0,0,0,0,0,0,0,
0,0,0,0,0,0,0,0,0,0,0,0,0,0,0,0,
0,0,0,0,0,0,0,0,0,0,0,0,0,0,0,0,
0,0,0,0,0,0,0,0,0,0,0,0,0,0,0,0,
0,0,0,0,0,0,0,0,0,0,0,0,0,0,0,0,
0,0,0,0,0,0,0,0,0,0,0,0,0,0,0,0,
0,0,0,0,0,0,0,0,0,0,0,0,0,0,0,0,
0,0,0,0,0,0,0,0,0,0,0,0,0,0,0,0
</chunk>
   <chunk x="-64" y="-16" width="16" height="16">
0,0,0,0,0,0,0,0,0,0,0,0,0,0,0,0,
0,0,0,0,0,0,0,0,0,0,0,0,0,0,0,0,
0,0,0,0,0,0,0,0,0,0,0,0,0,0,0,0,
0,0,0,0,0,0,0,0,0,0,0,0,0,0,0,0,
0,0,0,0,0,0,0,0,0,0,0,0,0,0,0,0,
0,0,0,0,0,0,0,0,0,0,0,0,0,0,0,0,
0,0,0,0,0,0,0,0,0,0,0,0,0,0,0,0,
0,0,0,0,0,0,0,0,0,0,0,0,0,0,0,0,
0,0,0,0,0,0,0,0,0,0,0,0,0,0,0,0,
0,0,0,0,0,0,0,0,0,0,0,0,0,0,0,0,
0,0,0,0,0,0,0,0,0,0,0,0,0,0,0,92,
0,0,0,0,0,0,0,0,0,0,0,0,0,0,0,112,
0,0,0,0,0,0,0,0,0,0,0,0,0,0,0,132,
0,0,0,0,0,0,0,0,0,0,0,0,0,0,0,152,
0,0,0,0,0,0,0,0,0,0,0,0,0,0,0,152,
0,0,0,0,0,0,0,0,0,0,0,0,0,0,0,152
</chunk>
   <chunk x="-48" y="-16" width="16" height="16">
0,0,0,0,0,0,0,0,0,0,0,0,0,0,0,0,
0,0,0,0,0,0,0,0,0,0,0,0,0,0,0,0,
0,0,0,0,0,0,0,0,0,0,0,0,0,0,0,0,
0,0,0,0,0,0,0,0,0,0,0,0,0,0,0,0,
0,0,0,0,0,0,0,0,0,0,0,0,0,0,0,0,
0,0,0,0,0,0,0,0,0,0,0,0,0,0,0,0,
0,0,0,0,0,0,0,0,0,0,0,0,0,0,0,0,
0,0,0,0,0,0,0,0,0,0,0,0,0,0,0,0,
0,0,0,0,0,0,0,0,0,0,0,0,0,0,0,0,
0,0,0,0,0,0,0,0,0,0,0,0,0,0,0,0,
93,94,95,96,334,337,0,0,0,92,93,95,97,98,0,0,
113,114,115,116,354,355,0,0,0,112,113,115,117,118,0,0,
133,134,504,136,137,138,0,0,0,392,393,195,197,198,0,0,
153,627,630,122,123,198,0,0,0,0,413,215,217,218,0,0,
153,630,164,142,143,218,0,0,0,0,0,0,0,0,0,0,
153,630,629,182,183,98,0,0,0,0,0,0,0,0,0,0
</chunk>
   <chunk x="-32" y="-16" width="16" height="16">
0,0,0,0,0,0,0,0,0,0,0,0,0,0,0,0,
0,0,0,0,0,0,0,0,0,0,0,0,0,0,0,0,
0,0,0,0,0,0,0,0,0,0,0,0,0,0,0,0,
0,0,0,0,0,0,0,0,0,0,0,0,0,0,0,0,
0,0,0,0,0,0,0,0,0,0,0,0,0,0,0,0,
0,0,0,0,0,0,0,0,0,0,0,0,0,0,0,352,
0,0,0,0,0,0,0,0,0,0,0,0,0,0,0,132,
0,0,0,0,0,0,0,0,0,0,0,0,0,0,0,152,
92,93,94,95,95,95,339,340,0,0,0,0,0,0,0,152,
112,113,114,115,115,115,359,360,95,95,95,95,95,95,95,185,
132,133,134,504,504,504,379,380,115,115,115,115,115,115,115,205,
152,153,628,628,628,164,627,629,504,504,504,504,504,504,504,504,
192,193,438,630,628,630,630,627,629,627,628,164,629,244,244,244,
212,213,397,398,438,630,629,629,630,627,629,164,167,155,155,155,
0,0,0,418,397,398,195,195,438,627,629,630,164,104,107,155,
0,0,0,0,0,418,215,215,397,398,195,438,629,164,630,107
</chunk>
   <chunk x="-16" y="-16" width="16" height="16">
0,0,0,0,0,0,0,0,0,0,0,0,0,0,0,0,
0,0,0,0,0,0,0,0,0,0,0,0,0,0,0,0,
0,0,0,0,0,0,0,0,0,0,0,0,0,0,0,0,
0,0,0,0,0,0,0,0,0,0,0,0,0,0,0,0,
333,94,95,95,95,95,96,334,337,0,0,0,0,0,0,0,
353,114,115,115,115,115,116,354,355,0,0,0,0,0,0,0,
133,134,504,504,504,504,136,137,138,0,0,0,0,0,0,0,
153,629,629,244,244,629,629,157,158,0,0,0,0,0,333,94,
153,628,167,155,155,161,630,182,183,97,98,0,0,338,353,114,
186,627,167,155,155,161,629,202,203,117,118,333,357,358,332,134,
206,567,227,155,155,161,122,123,399,400,401,353,377,378,628,629,
586,227,155,155,101,629,142,143,98,0,372,373,164,628,627,628,
227,155,155,155,221,630,202,203,118,0,152,153,164,629,629,415,
155,155,155,155,155,161,122,123,198,0,396,397,398,195,195,394,
155,155,155,155,101,627,142,143,98,0,0,0,418,215,215,414,
155,155,155,155,221,630,202,203,118,0,0,0,0,0,0,0
</chunk>
   <chunk x="0" y="-16" width="16" height="16">
0,0,0,0,0,0,0,0,0,0,0,0,0,0,0,0,
0,0,0,0,0,0,0,0,0,0,0,0,0,0,0,0,
0,0,0,0,0,0,0,0,0,0,0,0,0,0,0,0,
0,0,0,0,0,0,0,0,0,0,0,0,0,0,0,0,
0,0,0,0,0,0,0,0,0,0,0,0,0,0,0,0,
0,0,0,0,0,0,0,0,0,0,0,0,0,0,0,0,
0,0,0,0,0,0,0,0,0,0,0,0,0,0,0,333,
95,95,97,98,0,0,0,0,0,0,0,0,0,0,333,353,
115,115,117,118,0,0,0,0,0,0,0,0,0,333,353,373,
504,504,157,158,0,0,0,0,0,0,0,0,333,353,373,627,
630,415,394,395,0,0,0,0,0,0,0,333,353,373,630,629,
415,394,395,0,0,0,0,0,0,0,333,353,373,629,629,227,
394,395,0,0,0,0,0,0,0,333,353,373,630,628,227,155,
395,0,0,0,0,0,0,0,333,353,373,629,164,227,155,155,
0,0,0,0,0,0,0,338,353,373,164,627,227,155,155,155,
0,0,0,0,0,356,357,358,332,630,628,227,155,155,155,155
</chunk>
   <chunk x="16" y="-16" width="16" height="16">
0,0,0,0,0,333,353,373,628,629,244,630,627,182,96,97,
0,0,0,0,333,353,373,629,164,227,155,221,561,202,116,117,
0,0,0,333,353,373,627,628,227,155,155,155,221,582,136,137,
0,0,333,353,373,164,630,227,155,155,155,155,155,161,164,157,
0,333,353,373,164,630,227,155,155,155,155,155,155,161,164,157,
333,353,373,628,164,227,155,155,155,155,155,155,101,627,415,394,
353,373,630,630,227,155,155,155,155,155,155,101,630,415,394,395,
373,630,629,227,155,155,155,155,155,155,101,628,415,394,395,0,
164,627,227,155,155,155,155,155,155,101,629,415,394,395,0,0,
630,227,155,155,155,155,155,155,155,161,630,157,158,0,0,0,
227,155,155,155,155,155,155,155,101,628,415,394,395,0,0,0,
155,155,155,155,155,155,155,155,161,629,157,158,0,0,0,0,
155,155,155,155,155,155,155,101,628,415,394,395,0,0,0,0,
155,155,155,155,155,155,101,628,415,394,395,0,0,0,0,0,
155,155,155,155,155,101,628,415,394,395,0,0,0,0,0,0,
155,155,155,155,101,628,415,394,395,0,0,0,0,0,0,0
</chunk>
   <chunk x="32" y="-16" width="16" height="16">
98,0,494,495,496,0,0,0,0,0,0,0,0,0,0,0,
118,0,574,575,576,0,0,0,0,0,0,0,0,0,0,0,
138,0,574,575,576,0,0,0,0,0,0,0,0,0,0,0,
158,0,574,575,576,0,0,0,0,0,0,0,0,0,0,0,
158,0,594,595,596,0,0,0,0,0,0,0,0,0,0,0,
395,0,614,615,616,0,0,0,0,0,0,0,0,0,0,0,
0,0,0,0,0,0,0,0,0,0,0,0,0,0,0,0,
0,0,0,0,0,0,0,0,0,0,0,0,0,0,0,0,
0,0,0,0,0,0,0,0,0,0,0,0,0,0,0,0,
0,0,0,0,0,0,0,0,0,0,0,0,0,0,0,0,
0,0,0,0,0,0,0,0,0,0,0,0,0,0,0,0,
0,0,0,0,0,0,0,0,0,0,0,0,0,0,0,0,
0,0,0,0,0,0,0,0,0,0,0,0,0,0,0,0,
0,0,0,0,0,0,0,0,0,0,0,0,0,0,0,0,
0,0,0,0,0,0,0,0,0,0,0,0,0,0,0,0,
0,0,0,0,0,0,0,0,0,0,0,0,0,0,0,0
</chunk>
   <chunk x="48" y="-16" width="16" height="16">
152,153,627,167,155,161,164,157,158,0,0,0,0,0,0,0,
152,153,630,167,155,161,164,182,183,98,0,0,0,0,0,0,
152,153,164,167,155,221,561,202,203,118,0,0,0,0,0,0,
152,153,627,167,155,155,161,582,157,158,0,0,0,0,0,0,
152,153,630,167,155,155,161,164,182,183,98,0,0,0,0,0,
152,153,164,167,155,155,221,561,202,203,118,0,0,0,0,0,
152,153,164,167,155,155,155,161,582,157,158,0,0,0,0,0,
152,153,628,167,155,155,155,161,629,157,158,0,0,0,0,0,
152,153,629,167,155,155,155,161,630,182,183,98,0,0,0,0,
152,153,630,167,155,155,155,221,561,202,203,118,0,0,0,0,
152,153,628,167,155,155,155,155,161,582,157,158,0,0,0,0,
152,153,627,167,155,155,155,155,161,630,182,183,334,337,0,0,
392,393,412,630,107,155,155,155,221,561,202,116,354,355,0,0,
0,152,153,164,167,155,155,155,155,221,582,136,137,138,0,0,
0,392,393,412,630,107,155,155,155,155,161,164,182,263,264,0,
0,0,392,393,412,627,107,155,155,155,221,561,202,283,284,0
</chunk>
   <chunk x="80" y="-16" width="16" height="16">
0,392,393,412,629,107,155,155,155,155,101,628,415,394,395,0,
0,0,152,153,628,167,155,155,155,155,161,630,157,158,0,0,
0,0,152,153,164,167,155,155,155,155,161,164,157,158,0,0,
0,0,152,153,164,167,155,155,155,155,161,164,157,158,0,0,
0,0,392,393,412,629,107,155,155,155,161,164,157,158,0,0,
0,0,0,152,153,628,167,155,155,155,161,629,157,158,0,0,
0,0,0,152,153,629,167,155,155,155,161,629,157,158,0,0,
0,0,0,392,393,412,629,107,155,155,161,627,157,158,0,0,
0,0,0,0,152,153,628,167,155,155,161,627,157,158,0,0,
0,0,0,0,152,153,629,167,155,155,161,630,157,158,0,0,
0,0,0,0,152,153,629,167,155,155,161,627,157,158,0,0,
0,0,0,0,392,393,412,630,107,155,161,628,157,158,0,0,
0,0,0,0,0,152,153,627,167,155,161,164,157,158,0,0,
0,0,0,0,0,152,153,629,167,155,161,630,157,158,0,0,
0,0,0,0,0,152,153,628,627,104,627,415,394,395,0,0,
0,0,0,0,0,152,153,628,164,627,627,157,158,0,0,0
</chunk>
   <chunk x="96" y="-16" width="16" height="16">
0,0,0,0,0,0,0,0,0,0,0,0,0,0,0,0,
0,0,0,0,0,0,0,0,0,0,0,0,0,0,0,0,
0,0,0,0,0,0,0,0,0,0,0,0,0,0,0,0,
0,0,0,0,0,0,0,0,0,0,0,0,0,0,0,0,
0,0,0,0,0,0,0,0,0,0,0,0,0,0,0,0,
0,0,0,0,0,0,0,0,0,0,0,0,0,0,0,0,
0,0,0,0,0,0,0,0,0,0,0,0,0,0,0,0,
0,0,0,0,0,0,0,0,0,0,0,0,0,0,0,0,
0,0,0,0,0,0,0,0,0,0,0,0,0,0,0,0,
0,0,0,0,0,0,0,0,0,0,0,0,0,0,0,0,
0,0,0,0,0,0,0,0,0,0,0,0,0,0,0,0,
0,0,0,0,0,0,0,0,0,0,0,0,0,0,0,0,
0,0,0,0,0,0,0,0,0,0,0,0,0,0,0,0,
0,0,0,0,0,0,0,0,0,0,0,0,0,0,0,0,
0,0,0,0,0,0,0,0,0,0,0,0,0,0,0,352,
0,0,0,0,0,0,0,0,0,0,0,0,0,0,0,132
</chunk>
   <chunk x="112" y="-16" width="16" height="16">
0,0,0,0,0,0,0,0,0,0,281,282,206,567,227,155,
0,0,0,0,0,0,0,0,0,333,301,302,586,167,155,155,
0,0,0,0,0,0,0,0,352,353,114,322,567,227,155,155,
0,0,0,0,0,0,0,0,132,133,134,226,227,155,155,155,
0,0,0,0,0,0,0,333,185,186,627,167,155,155,155,155,
0,0,0,0,0,0,333,353,114,206,567,227,155,155,155,155,
0,0,0,0,0,352,353,373,134,586,227,155,155,155,155,155,
0,0,0,0,0,372,373,627,164,227,155,155,155,155,155,155,
0,0,0,261,262,185,186,629,167,155,155,155,155,155,155,155,
0,0,0,281,282,205,206,567,227,155,155,155,155,155,155,155,
0,0,333,301,302,504,586,227,155,155,155,155,155,155,155,101,
0,352,353,114,322,567,227,155,155,155,155,155,155,155,155,161,
0,132,133,134,226,227,155,155,155,155,155,155,155,155,155,161,
333,185,186,630,167,155,155,155,155,155,155,155,155,155,101,629,
353,114,206,567,227,155,155,155,155,155,155,155,155,155,161,627,
133,134,586,227,155,155,155,155,155,155,155,155,155,101,164,415
</chunk>
   <chunk x="128" y="-16" width="16" height="16">
155,161,629,157,158,0,0,0,0,0,0,0,0,0,0,0,
155,161,629,157,158,0,0,0,0,0,0,0,0,0,0,0,
155,161,164,157,158,0,0,0,0,0,0,0,0,0,0,0,
155,161,630,157,158,0,0,0,0,0,0,0,0,0,0,0,
155,161,629,157,158,0,0,0,0,0,0,0,0,0,0,0,
155,161,630,157,158,0,0,0,0,0,0,0,0,0,0,0,
101,627,415,394,395,0,0,0,0,0,0,0,0,0,0,0,
161,627,157,158,0,0,0,0,0,0,0,0,0,0,0,0,
161,628,157,158,0,0,0,0,0,0,0,0,0,0,0,0,
161,630,157,158,0,0,0,0,0,0,0,0,0,0,0,0,
627,415,394,395,0,0,0,0,0,0,0,0,0,0,0,0,
627,157,158,0,0,0,0,0,0,0,0,0,0,0,0,0,
164,157,158,0,0,0,0,0,0,0,0,0,0,0,0,0,
415,394,395,0,0,0,0,0,0,0,0,0,0,0,0,0,
157,158,0,0,0,0,0,0,0,0,0,0,0,0,0,0,
394,395,0,0,0,0,0,0,0,0,0,0,0,0,0,0
</chunk>
   <chunk x="-160" y="0" width="16" height="16">
0,0,0,0,0,0,0,0,0,0,0,0,333,353,373,134,
0,0,0,0,0,0,0,0,0,0,0,338,353,373,627,164,
0,0,0,0,0,0,0,0,0,333,357,358,332,628,629,227,
0,0,0,0,0,0,0,0,352,353,377,378,164,629,227,155,
0,0,0,0,0,0,0,0,372,373,164,630,628,227,155,155,
0,0,0,0,0,0,0,0,152,153,630,164,227,155,155,155,
0,0,0,0,0,0,0,0,152,153,629,167,155,155,155,155,
0,0,0,0,0,0,0,0,152,153,630,167,155,155,155,155,
0,0,0,0,0,0,0,0,152,153,629,167,155,155,155,155,
0,0,0,0,0,0,0,0,152,153,627,167,155,155,155,155,
0,0,0,0,0,0,0,0,152,153,628,167,155,155,155,155,
0,0,0,0,0,0,0,0,152,153,630,167,155,155,155,155,
0,0,0,0,0,0,0,0,152,153,164,167,155,155,155,155,
0,0,0,0,0,0,0,0,152,153,628,167,155,155,155,155,
0,0,0,0,0,0,0,0,152,153,629,167,155,155,155,155,
0,0,0,0,0,0,0,0,152,153,628,167,155,155,155,155
</chunk>
   <chunk x="-144" y="0" width="16" height="16">
586,227,155,155,155,155,155,155,155,155,155,155,155,161,627,157,
227,155,155,155,155,155,155,155,155,155,155,155,101,630,415,394,
155,155,155,155,155,155,155,155,155,155,155,155,161,164,157,158,
155,155,155,155,155,155,155,155,155,155,155,155,161,629,157,158,
155,155,155,155,155,155,155,155,155,155,155,101,630,415,394,395,
155,155,155,155,155,155,155,155,155,155,155,161,629,157,158,0,
155,155,155,155,155,155,155,155,155,155,155,161,630,157,158,0,
155,155,155,155,155,155,155,155,155,155,155,161,164,157,158,0,
155,155,155,155,155,155,155,155,155,155,155,161,164,157,158,0,
155,155,155,155,155,155,155,155,155,155,155,161,630,157,158,0,
155,155,155,155,155,155,155,155,155,155,155,161,629,157,158,0,
155,155,155,155,155,155,155,155,155,155,155,161,628,157,158,0,
155,155,155,155,155,155,155,155,155,155,155,161,164,157,158,0,
155,155,155,155,155,155,155,155,155,155,155,161,630,157,158,0,
155,155,155,155,155,155,155,155,155,155,155,161,628,157,158,0,
155,155,155,155,155,155,155,155,155,155,155,161,627,182,183,95
</chunk>
   <chunk x="-128" y="0" width="16" height="16">
158,0,0,0,0,0,0,0,0,0,0,0,0,0,0,0,
395,0,0,0,0,0,0,0,0,0,0,0,0,0,0,0,
0,0,0,0,0,0,0,0,0,0,0,0,0,0,0,0,
0,0,0,0,0,0,0,0,0,0,0,0,0,0,0,0,
0,0,0,0,0,0,0,0,0,0,0,0,0,0,0,0,
0,0,0,0,0,0,0,0,0,0,0,0,0,0,0,0,
0,0,0,0,0,0,0,0,0,0,0,0,0,0,0,0,
0,0,0,0,0,0,0,0,0,0,0,0,0,0,0,0,
0,0,0,0,0,0,0,0,0,0,0,0,0,0,0,0,
0,0,0,0,0,0,0,0,0,0,0,0,0,0,0,0,
0,0,0,0,0,0,0,0,0,0,0,0,0,0,0,0,
0,0,0,0,0,0,0,0,0,0,0,0,0,0,0,0,
0,0,0,0,0,0,0,0,0,0,0,0,0,0,0,0,
0,0,0,0,0,0,0,0,0,0,0,0,0,0,0,0,
0,0,0,0,0,0,0,0,0,0,0,0,0,0,0,0,
339,340,0,0,0,0,0,0,0,0,0,0,0,0,0,0
</chunk>
   <chunk x="-64" y="0" width="16" height="16">
0,0,0,0,0,0,0,0,0,0,0,0,0,0,0,152,
0,0,0,0,0,0,0,0,0,0,0,0,0,0,0,152,
0,0,0,0,0,0,0,0,0,0,0,0,0,0,0,152,
0,0,0,0,0,0,0,0,0,0,0,0,0,0,0,152,
0,0,0,0,0,0,0,0,0,0,0,0,0,0,0,152,
0,0,0,0,0,0,0,0,0,0,0,0,0,0,0,152,
0,0,0,0,0,0,0,0,0,0,0,0,0,0,0,392,
0,0,0,0,0,0,0,0,0,0,0,0,0,0,0,0,
0,0,0,0,0,0,0,0,0,0,0,0,0,0,0,0,
0,0,0,0,0,0,0,0,0,0,0,0,0,0,0,0,
0,0,0,0,0,0,0,0,0,0,0,0,0,0,0,0,
0,0,0,0,0,0,0,0,0,0,0,0,0,0,0,0,
0,0,0,0,0,0,0,0,0,0,0,0,0,0,0,0,
0,0,0,0,0,0,0,0,0,0,0,0,0,0,0,0,
0,0,0,0,0,0,0,0,0,0,0,0,0,0,0,0,
0,0,0,0,0,0,0,0,0,0,0,0,0,0,0,0
</chunk>
   <chunk x="-48" y="0" width="16" height="16">
153,629,629,202,203,118,0,0,0,0,0,0,0,0,0,0,
153,629,628,122,123,198,0,0,0,0,0,0,0,0,0,0,
153,629,628,142,143,218,0,0,0,0,0,0,0,0,0,0,
153,630,630,182,183,98,0,0,0,0,0,0,0,0,0,0,
153,628,561,202,203,118,0,0,0,0,0,0,0,0,0,0,
153,164,164,582,157,158,0,0,0,0,92,93,97,98,0,0,
393,412,629,164,157,158,0,0,0,0,112,113,117,118,0,0,
152,153,164,176,177,178,0,0,0,0,192,193,394,395,0,0,
192,193,195,196,197,198,0,0,0,0,212,213,414,0,0,0,
212,213,215,216,217,218,0,0,0,0,0,0,0,0,0,0,
0,0,0,0,0,0,92,93,95,95,95,95,95,95,95,339,
0,0,0,0,0,0,112,113,115,115,115,115,115,115,115,359,
0,0,0,0,0,0,172,173,174,504,504,504,504,504,504,379,
0,0,0,0,0,0,392,393,194,195,438,628,627,164,628,629,
0,0,0,0,0,0,0,413,214,215,397,398,195,195,195,195,
0,0,0,333,94,95,95,96,334,0,0,418,215,215,215,215
</chunk>
   <chunk x="-32" y="0" width="16" height="16">
0,0,0,0,0,0,0,0,0,418,215,397,398,438,164,630,
0,0,0,0,0,0,0,0,0,0,0,0,418,397,398,438,
0,0,0,0,0,0,0,0,0,0,0,0,0,0,418,393,
0,0,0,0,0,0,0,0,0,0,0,0,0,0,0,152,
0,0,0,0,0,0,0,0,0,0,0,0,0,261,262,185,
0,0,0,0,0,0,0,0,0,0,0,0,0,281,282,205,
0,0,0,0,0,0,0,0,0,0,0,0,333,301,302,504,
0,0,0,0,0,0,0,0,0,0,0,333,353,321,322,567,
0,0,0,0,0,0,0,0,0,0,338,353,373,134,226,167,
0,0,0,0,0,338,95,95,95,357,358,332,627,164,629,630,
340,0,0,356,357,358,115,115,115,377,378,629,629,164,122,123,
360,95,263,376,318,378,504,504,504,629,164,164,164,628,142,143,
380,115,283,279,186,628,627,628,628,630,164,627,627,415,394,212,
164,504,323,324,206,567,122,123,126,630,630,628,630,157,158,0,
195,438,164,504,586,630,142,143,146,629,629,628,415,394,395,0,
215,397,398,195,195,399,400,401,397,398,195,195,394,395,0,0
</chunk>
   <chunk x="-16" y="0" width="16" height="16">
107,155,155,155,155,161,122,123,198,0,0,0,0,0,0,0,
630,107,155,155,101,164,182,263,264,0,0,0,0,0,0,0,
412,629,107,155,221,561,202,283,284,0,0,0,0,0,0,0,
153,629,167,155,155,161,582,303,304,95,95,95,95,95,95,95,
186,164,167,155,155,221,561,323,324,115,115,115,115,115,115,115,
206,567,227,155,155,155,221,582,504,504,504,504,504,504,504,504,
586,227,155,155,155,155,155,221,244,244,244,244,244,244,244,244,
227,155,155,155,155,155,155,155,155,155,155,155,155,155,155,155,
155,155,155,155,155,155,155,155,155,155,155,155,155,155,155,155,
104,104,104,104,104,104,104,104,104,104,104,104,104,104,107,155,
126,630,630,628,628,629,164,627,629,164,630,630,628,629,627,104,
146,195,195,195,195,195,195,195,195,195,195,195,195,438,164,629,
213,215,215,215,215,215,215,215,215,215,215,215,215,397,398,195,
0,0,0,0,0,0,0,0,0,0,0,0,0,0,418,215,
0,0,0,0,0,0,0,0,0,0,0,0,0,0,0,0,
0,0,0,0,0,0,0,0,0,0,0,0,0,0,0,0
</chunk>
   <chunk x="0" y="0" width="16" height="16">
0,0,0,0,0,376,318,378,628,629,227,155,155,155,155,155,
0,0,0,0,333,185,186,627,630,227,155,155,155,155,155,155,
0,0,0,338,353,114,206,567,227,155,155,155,155,155,155,101,
95,95,357,358,332,134,586,227,155,155,155,155,155,155,101,630,
115,115,377,378,164,628,227,155,155,155,155,155,155,101,628,628,
504,504,628,627,164,227,155,155,155,155,155,155,101,627,439,399,
244,244,244,244,227,155,155,155,155,155,155,101,164,415,394,419,
155,155,155,155,155,155,155,155,155,155,155,161,164,157,158,0,
155,155,155,155,155,155,101,104,104,104,104,629,164,157,158,0,
101,104,104,104,104,104,630,164,627,629,627,628,176,177,178,0,
627,630,627,164,629,630,164,439,195,195,195,195,196,394,395,0,
628,439,195,195,195,195,399,400,215,215,215,215,216,414,0,0,
399,400,215,215,215,215,419,0,0,0,0,0,0,0,0,0,
419,0,0,0,0,0,0,0,0,0,0,0,0,0,0,0,
0,0,0,0,0,0,0,0,0,0,0,0,0,0,0,0,
0,0,0,0,0,0,0,0,0,0,0,0,0,0,0,0
</chunk>
   <chunk x="16" y="0" width="16" height="16">
155,155,101,104,630,415,394,395,0,0,0,0,0,0,0,0,
155,101,630,628,415,394,395,0,0,0,0,0,0,0,0,0,
104,164,627,439,394,395,0,0,0,0,0,0,0,0,0,0,
628,439,399,400,414,0,0,0,0,0,0,0,0,0,0,0,
439,394,419,0,0,0,0,0,0,0,0,0,0,0,0,0,
400,414,0,0,0,0,0,0,0,0,0,0,0,0,0,0,
0,0,0,0,0,0,0,0,0,0,0,0,0,0,0,0,
0,0,0,0,0,0,0,0,0,0,0,0,0,0,0,0,
0,0,0,0,0,0,0,0,0,0,0,0,0,0,0,0,
0,0,0,0,0,0,0,0,0,0,0,0,0,0,0,0,
0,0,0,0,0,0,0,0,0,0,0,0,0,0,0,0,
0,0,0,0,0,0,0,0,0,0,0,0,0,0,0,0,
0,0,0,0,0,0,0,0,0,0,0,0,0,0,0,0,
0,0,0,0,0,0,0,0,0,0,0,0,0,0,0,0,
0,0,0,0,0,0,0,0,0,0,0,0,0,0,0,0,
0,0,0,0,0,0,0,0,0,0,0,0,0,0,0,0
</chunk>
   <chunk x="48" y="0" width="16" height="16">
0,0,0,152,153,627,167,155,155,155,155,161,582,303,304,339,
0,0,0,392,393,412,164,107,155,155,155,221,561,323,324,359,
0,0,0,0,392,393,412,628,107,155,155,155,221,582,504,379,
0,0,0,0,0,152,153,627,167,155,155,155,155,221,164,627,
0,0,0,0,0,392,393,412,630,107,155,155,155,155,221,244,
0,0,0,0,0,0,152,153,630,167,155,155,155,155,155,155,
0,0,0,0,0,0,392,393,412,629,107,155,155,155,155,155,
0,0,0,0,0,0,0,392,393,412,630,107,155,155,155,155,
0,0,0,0,0,0,0,0,152,153,630,167,155,155,155,155,
0,0,0,0,0,0,0,0,392,393,412,629,107,155,155,155,
0,0,0,0,0,0,0,0,0,392,393,412,630,104,104,104,
0,0,0,0,0,0,0,0,0,0,152,153,164,630,628,164,
0,0,0,0,0,0,0,0,0,0,192,193,195,195,195,195,
0,0,0,0,0,0,0,0,0,0,212,213,215,215,215,215,
0,0,0,0,0,0,0,0,0,0,0,0,0,0,0,0,
0,0,0,0,0,0,0,0,0,0,0,0,0,0,0,0
</chunk>
   <chunk x="64" y="0" width="16" height="16">
340,0,0,0,0,0,0,0,0,0,0,0,0,0,0,0,
360,95,334,0,0,0,0,0,0,0,0,0,0,0,0,0,
380,115,354,334,0,0,0,0,0,0,0,0,0,0,0,0,
629,504,374,354,334,0,0,0,0,0,0,0,0,0,0,0,
244,164,630,374,354,355,0,0,0,0,0,0,0,0,0,0,
155,221,627,628,374,375,0,0,0,0,0,0,0,0,0,0,
155,155,161,628,182,183,98,0,0,0,0,0,0,0,0,0,
155,155,221,561,202,283,284,0,0,0,0,0,0,0,0,0,
155,155,155,161,582,303,304,98,0,0,0,0,0,0,0,0,
155,155,155,161,561,323,283,284,0,0,0,0,0,0,0,0,
104,104,104,627,628,582,303,304,98,0,0,0,0,0,0,0,
627,630,164,629,628,561,323,203,118,0,0,0,0,0,0,0,
195,195,438,630,164,630,582,157,158,0,0,0,0,0,0,0,
215,215,397,398,438,630,164,182,183,334,0,0,0,0,0,0,
0,0,0,418,393,195,438,202,203,354,334,0,0,0,0,0,
0,0,0,0,413,215,397,398,438,374,354,355,0,0,0,0
</chunk>
   <chunk x="80" y="0" width="16" height="16">
0,0,0,0,0,152,153,628,164,630,630,157,158,0,0,0,
0,0,0,0,0,392,393,412,629,627,629,157,158,0,0,0,
0,0,0,0,0,0,152,153,629,630,415,394,395,0,0,0,
0,0,0,0,0,0,152,153,628,629,157,158,0,0,0,0,
0,0,0,0,0,0,152,153,627,628,157,158,0,0,0,0,
0,0,0,0,0,0,152,153,627,628,157,158,0,0,0,0,
0,0,0,0,0,0,152,153,627,627,157,158,0,0,0,0,
0,0,0,0,0,0,392,393,412,415,394,395,0,0,0,0,
0,0,0,0,0,0,0,152,153,162,163,0,0,0,0,0,
0,0,0,0,0,0,0,192,193,394,395,0,0,0,0,0,
0,0,0,0,0,0,0,212,213,414,0,0,0,0,0,0,
0,0,0,0,0,0,0,0,0,0,0,0,0,0,0,0,
0,0,0,0,0,0,0,0,0,0,0,0,0,0,0,0,
0,0,0,0,0,0,0,0,0,0,0,0,0,0,0,0,
0,0,0,0,0,0,0,0,0,0,0,0,0,0,0,0,
0,0,0,0,0,0,0,0,0,0,0,0,0,0,0,0
</chunk>
   <chunk x="96" y="0" width="16" height="16">
0,0,0,0,0,0,0,0,0,0,0,0,0,0,92,185,
0,0,0,0,0,0,0,0,0,0,0,0,0,0,112,205,
0,0,0,0,0,0,0,0,0,0,0,0,0,0,152,153,
0,0,0,0,0,0,0,0,0,0,0,0,0,92,185,186,
0,0,0,0,0,0,0,0,0,0,0,0,0,112,205,206,
0,0,0,0,0,0,0,0,0,0,0,0,0,152,153,586,
0,0,0,0,0,0,0,0,0,0,0,0,333,185,186,630,
0,0,0,0,0,0,0,0,0,0,0,333,353,114,206,567,
0,0,0,0,0,0,0,0,0,0,338,353,373,134,586,227,
0,0,0,0,0,0,0,333,95,357,358,332,629,627,167,155,
0,0,0,0,0,0,333,353,115,377,378,628,628,628,164,104,
0,0,0,0,0,333,353,373,504,629,164,630,630,164,628,164,
0,0,0,0,333,353,373,629,630,630,629,629,164,439,195,195,
0,0,0,333,353,373,627,628,628,628,629,439,399,400,215,215,
0,0,352,353,373,629,630,164,439,195,195,394,419,0,0,0,
0,0,372,373,195,195,195,399,400,215,215,414,0,0,0,0
</chunk>
   <chunk x="112" y="0" width="16" height="16">
186,164,167,155,155,155,155,155,155,155,155,155,101,628,415,394,
206,567,227,155,155,155,155,155,155,155,155,101,164,415,394,395,
586,167,155,155,155,155,155,155,155,155,155,161,629,157,158,0,
630,167,155,155,155,155,155,155,155,155,101,628,415,394,395,0,
567,227,155,155,155,155,155,155,155,101,629,415,394,395,0,0,
167,155,155,155,155,155,155,155,155,161,164,157,158,0,0,0,
167,155,155,155,155,155,155,101,104,628,415,394,395,0,0,0,
227,155,155,155,155,155,101,164,630,628,157,158,0,0,0,0,
155,155,155,101,104,104,627,630,439,195,197,198,0,0,0,0,
101,104,104,627,630,627,439,399,400,215,217,218,0,0,0,0,
627,630,628,630,439,195,394,419,0,0,0,0,0,0,0,0,
164,439,195,399,400,215,414,0,0,0,0,0,0,0,0,0,
399,400,215,419,0,0,0,0,0,0,0,0,0,0,0,0,
419,0,0,0,0,0,0,0,0,0,0,0,0,0,0,0,
0,0,0,0,0,0,0,0,0,0,0,0,0,0,0,0,
0,0,0,0,0,0,0,0,0,0,0,0,0,0,0,0
</chunk>
   <chunk x="128" y="0" width="16" height="16">
395,0,0,0,0,0,0,0,0,0,0,0,0,0,0,0,
0,0,0,0,0,0,0,0,0,0,0,0,0,0,0,0,
0,0,0,0,0,0,0,0,0,0,0,0,0,0,0,0,
0,0,0,0,0,0,0,0,0,0,0,0,0,0,0,0,
0,0,0,0,0,0,0,0,0,0,0,0,0,0,0,0,
0,0,0,0,0,0,0,0,0,0,0,0,0,0,0,0,
0,0,0,0,0,0,0,0,0,0,0,0,0,0,0,0,
0,0,0,0,0,0,0,0,0,0,0,0,0,0,0,0,
0,0,0,0,0,0,0,0,0,0,0,0,0,0,0,0,
0,0,0,0,0,0,0,0,0,0,0,0,0,0,0,0,
0,0,0,0,0,0,0,0,0,0,0,0,0,0,0,0,
0,0,0,0,0,0,0,0,0,0,0,0,0,0,0,0,
0,0,0,0,0,0,0,0,0,0,0,0,0,0,0,0,
0,0,0,0,0,0,0,0,0,0,0,0,0,0,0,0,
0,0,0,0,0,0,0,0,0,0,0,0,0,0,0,0,
0,0,0,0,0,0,0,0,0,0,0,0,0,0,0,0
</chunk>
   <chunk x="-160" y="16" width="16" height="16">
0,0,0,0,0,0,0,0,152,153,164,167,155,155,155,155,
0,0,0,0,0,0,0,0,152,153,629,167,155,155,155,155,
0,0,0,0,0,0,0,0,152,153,630,167,155,155,155,155,
0,0,0,0,0,0,0,0,392,393,412,627,107,155,155,155,
0,0,0,0,0,0,0,0,0,152,153,627,628,107,155,155,
0,0,0,0,0,0,0,0,0,192,193,438,627,627,107,155,
0,0,0,0,0,0,0,0,0,212,213,397,398,438,629,107,
0,0,0,0,0,0,0,0,0,0,0,0,418,393,412,628,
0,0,0,0,0,0,0,0,0,0,0,0,0,152,153,630,
0,0,0,0,0,0,0,0,0,0,0,0,0,392,393,412,
0,0,0,0,0,0,0,0,0,0,0,0,0,0,392,393,
0,0,0,0,0,0,0,0,0,0,0,0,0,0,0,152,
0,0,0,0,0,0,0,0,0,0,0,0,0,0,0,392,
0,0,0,0,0,0,0,0,0,0,0,0,0,0,0,0,
0,0,0,0,0,0,0,0,0,0,0,0,0,0,0,0,
0,0,0,0,0,0,0,0,0,0,0,0,0,0,0,0
</chunk>
   <chunk x="-144" y="16" width="16" height="16">
155,155,155,155,155,155,155,155,155,155,155,221,561,202,203,115,
155,155,155,155,155,155,155,155,155,155,155,155,221,582,504,504,
155,155,155,155,155,155,155,155,155,155,155,155,155,221,244,627,
155,155,155,155,155,155,155,155,155,155,155,155,155,155,155,221,
155,155,155,155,155,155,155,155,155,155,155,155,155,155,155,155,
155,155,155,155,155,155,155,155,155,155,155,155,155,155,155,155,
155,155,155,155,155,155,155,155,155,155,155,155,155,155,155,155,
107,155,155,155,155,155,155,155,155,155,155,155,155,155,155,155,
167,155,155,155,155,155,155,155,155,155,155,155,155,155,155,155,
628,107,155,155,155,155,155,155,155,155,155,155,155,155,155,155,
412,628,107,155,155,155,155,155,155,155,155,155,155,155,155,155,
153,628,167,155,155,155,155,155,155,155,155,155,155,155,155,155,
393,412,628,107,155,155,155,155,155,155,155,155,155,155,155,155,
392,393,412,629,107,155,155,155,155,155,155,155,155,155,155,155,
0,392,393,412,164,104,107,155,155,155,155,155,155,155,155,155,
0,0,392,393,412,628,630,104,104,104,104,104,107,155,155,155
</chunk>
   <chunk x="-128" y="16" width="16" height="16">
359,360,95,95,95,339,340,0,0,0,0,0,0,0,0,0,
379,380,115,115,115,359,360,95,95,95,95,95,95,339,340,0,
164,164,504,504,504,379,380,115,115,115,115,115,115,359,360,339,
244,244,244,244,628,627,628,504,504,504,504,504,504,379,380,359,
155,155,155,155,221,244,244,244,244,244,244,244,627,630,627,379,
155,155,155,155,155,155,155,155,155,155,155,155,221,244,627,630,
155,155,155,155,155,155,155,155,155,155,155,155,155,155,221,244,
155,155,155,155,155,155,155,155,155,155,155,155,155,155,155,155,
155,155,155,155,155,155,155,155,155,155,155,155,155,155,155,155,
155,155,155,155,155,155,155,155,155,155,155,155,155,155,155,155,
155,155,155,155,155,155,155,155,155,155,155,155,155,155,155,155,
155,155,155,155,155,155,155,155,155,155,155,155,155,155,155,155,
155,155,155,155,155,155,155,155,155,155,155,155,155,155,155,155,
155,155,155,155,155,155,155,155,155,155,155,155,155,155,155,155,
155,155,155,155,155,155,155,155,155,155,155,155,155,155,155,155,
155,155,155,155,155,155,155,155,155,155,155,155,155,155,155,155
</chunk>
   <chunk x="-112" y="16" width="16" height="16">
0,0,0,0,0,0,0,0,0,0,0,0,0,0,0,0,
0,0,0,0,0,0,0,0,0,0,0,0,0,0,0,0,
340,0,0,0,0,0,0,0,0,0,0,0,0,0,0,0,
360,339,340,0,0,0,0,0,0,0,0,0,0,0,0,0,
380,359,360,339,340,0,0,0,0,0,0,0,0,0,0,0,
628,379,380,359,360,95,334,0,0,0,0,0,0,0,0,0,
628,627,629,379,380,115,354,339,340,0,0,0,0,0,0,0,
221,244,630,164,164,504,335,359,360,95,95,95,95,95,95,95,
155,155,221,244,244,630,164,379,380,115,115,115,115,115,115,115,
155,155,155,155,155,221,630,164,630,504,504,504,504,504,504,504,
155,155,155,155,155,155,221,244,244,244,244,244,244,244,244,244,
155,155,155,155,155,155,155,155,155,155,155,155,155,155,155,155,
155,155,155,155,155,155,155,155,155,155,155,155,155,155,155,155,
155,155,155,155,155,155,155,155,155,155,155,155,155,155,155,155,
155,155,155,155,155,155,155,155,155,155,155,155,155,155,155,101,
155,155,155,155,155,155,155,101,104,104,104,104,104,104,104,627
</chunk>
   <chunk x="-96" y="16" width="16" height="16">
0,0,0,0,0,0,0,0,0,0,0,0,0,0,0,0,
0,0,0,0,0,0,0,0,0,0,0,0,0,0,0,0,
0,0,0,0,0,0,0,0,0,0,0,0,0,0,0,0,
0,0,0,0,0,0,0,0,0,0,0,0,0,0,0,0,
0,0,0,0,0,0,0,0,0,0,0,0,0,0,0,0,
0,0,0,0,0,0,0,0,0,0,0,0,0,0,0,0,
0,0,0,0,0,0,0,0,0,0,0,0,0,0,0,0,
95,95,95,95,95,96,97,98,0,0,0,0,92,93,94,95,
115,115,115,115,115,116,117,118,0,0,0,0,112,113,114,115,
504,504,504,504,504,136,137,138,0,0,0,0,132,133,134,504,
244,244,244,244,628,630,157,158,0,0,0,0,152,153,627,627,
155,155,155,155,161,164,157,158,0,0,0,0,152,153,630,630,
155,155,155,155,161,164,157,158,0,0,0,0,172,173,174,630,
155,155,155,101,628,415,394,395,0,0,0,0,192,193,194,195,
104,104,104,627,627,157,158,0,0,0,0,0,212,213,214,215,
164,627,629,628,415,394,395,0,0,0,0,0,0,0,0,0
</chunk>
   <chunk x="-80" y="16" width="16" height="16">
0,0,0,0,0,0,0,0,0,0,0,0,0,0,0,0,
0,0,0,0,0,0,0,0,0,0,0,0,0,0,0,0,
0,0,0,0,0,0,0,0,0,0,0,0,0,0,0,0,
0,0,0,0,0,0,0,0,0,0,0,0,0,0,0,0,
0,0,0,0,0,0,0,0,0,0,0,0,0,0,0,0,
0,0,0,0,0,0,0,0,0,0,0,0,0,0,0,0,
0,0,0,0,0,0,0,0,0,0,0,0,0,0,0,0,
96,97,98,0,0,0,0,92,93,94,95,95,95,95,95,95,
116,117,118,0,0,0,0,112,113,114,115,115,115,115,115,115,
136,137,138,0,0,0,0,132,133,134,504,504,504,504,504,504,
629,157,158,0,0,0,0,152,153,628,630,244,244,244,244,164,
629,157,158,0,0,0,0,152,153,628,167,155,155,155,155,161,
628,157,158,0,0,0,0,152,153,629,164,104,107,155,155,161,
399,400,401,0,0,0,0,392,393,438,627,630,164,104,104,627,
419,0,0,0,0,0,0,0,413,397,398,438,164,630,630,439,
0,0,0,0,0,0,0,0,0,0,418,397,398,195,195,394
</chunk>
   <chunk x="-64" y="16" width="16" height="16">
0,0,0,0,0,0,0,0,0,0,0,0,0,0,0,0,
0,0,0,0,0,0,0,0,0,0,0,0,0,0,0,0,
0,0,0,0,0,0,0,0,0,0,0,0,0,0,0,0,
0,0,0,0,0,0,0,0,0,0,0,0,0,0,0,0,
0,0,0,0,0,0,0,0,0,0,0,0,0,0,0,0,
0,0,0,0,0,0,0,0,0,0,0,0,0,0,0,0,
0,0,0,0,0,0,0,0,0,0,0,0,0,0,0,0,
96,97,98,0,0,0,0,0,0,92,93,94,95,95,95,97,
116,117,118,0,0,0,0,0,0,112,113,114,115,115,115,283,
136,137,138,0,0,0,0,0,0,132,133,134,504,504,504,303,
630,157,158,0,0,0,0,0,0,152,153,628,630,164,561,323,
629,157,158,0,0,0,0,0,0,396,397,398,438,627,628,582,
627,157,158,0,0,0,0,0,0,0,0,418,393,412,629,164,
628,157,158,0,0,0,0,0,0,0,0,0,392,393,412,627,
399,400,401,0,0,0,0,0,0,0,0,0,0,192,193,195,
419,0,0,0,0,0,0,0,0,0,0,0,0,212,213,215
</chunk>
   <chunk x="-48" y="16" width="16" height="16">
0,0,352,353,114,115,115,116,354,334,0,0,0,0,0,0,
0,0,132,133,134,504,504,136,374,354,355,0,0,0,0,0,
0,0,152,153,630,627,244,629,628,374,375,0,0,0,0,0,
0,92,185,186,628,167,155,161,629,182,183,334,0,0,0,0,
0,112,205,206,567,167,155,221,561,202,116,354,339,0,0,0,
0,152,153,586,627,167,155,155,221,582,136,335,359,360,361,0,
0,392,393,438,630,164,107,155,155,161,630,628,379,319,381,0,
98,0,413,397,398,438,164,107,155,161,164,627,628,157,158,0,
284,0,0,0,418,393,412,630,104,630,164,439,399,400,401,0,
304,98,0,0,0,392,393,412,627,627,439,394,419,0,0,0,
203,118,0,0,0,0,192,193,195,399,400,414,0,0,0,0,
157,158,0,0,0,0,212,213,215,419,0,0,0,0,0,0,
182,183,98,0,0,0,0,0,0,0,0,0,0,0,0,0,
202,203,118,0,0,0,0,0,0,0,0,0,0,0,0,0,
195,197,198,0,0,0,0,0,0,0,0,0,0,0,0,0,
215,217,218,0,0,0,0,0,0,0,0,0,0,0,0,0
</chunk>
   <chunk x="-32" y="16" width="16" height="16">
0,0,418,215,215,419,0,0,0,418,215,215,414,0,0,0,
0,0,0,0,0,0,0,0,0,0,0,0,0,0,0,0,
0,0,0,0,0,0,0,0,0,0,0,0,0,0,0,0,
0,0,0,0,0,0,0,0,0,0,0,0,0,0,0,0,
0,0,0,0,0,0,0,0,0,0,0,0,0,0,0,0,
0,0,0,0,0,0,0,0,0,0,0,0,0,0,0,0,
0,0,0,0,0,0,0,0,0,0,0,0,0,0,0,0,
0,0,0,0,0,0,0,0,0,0,0,0,0,0,0,0,
0,0,0,0,0,0,0,0,0,0,0,0,0,0,0,0,
0,0,0,0,0,0,0,0,0,0,0,0,0,0,0,0,
0,0,0,0,0,0,0,0,0,0,0,0,0,0,0,0,
0,0,0,0,0,0,0,0,0,0,0,0,0,0,0,0,
0,0,0,0,0,0,0,0,0,0,0,0,0,0,0,0,
0,0,0,0,0,0,0,0,0,0,0,0,0,0,0,0,
0,0,0,0,0,0,0,0,0,0,0,0,0,0,0,0,
0,0,0,0,0,0,0,0,0,0,0,0,0,0,0,0
</chunk>
   <chunk x="64" y="16" width="16" height="16">
0,0,0,0,0,0,0,418,393,412,374,375,0,0,0,0,
0,0,0,0,0,0,0,0,392,393,197,198,0,0,0,0,
0,0,0,0,0,0,0,0,0,413,217,218,0,0,0,0,
0,0,0,0,0,0,0,0,0,0,0,0,0,0,0,0,
0,0,0,0,0,0,0,0,0,0,0,0,0,0,0,0,
0,0,0,0,0,0,0,0,0,0,0,0,0,0,0,0,
0,0,0,0,0,0,0,0,0,0,0,0,0,0,0,0,
0,0,0,0,0,0,0,0,0,0,0,0,0,0,0,0,
0,0,0,0,0,0,0,0,0,0,0,0,0,0,0,0,
0,0,0,0,0,0,0,0,0,0,0,0,0,0,0,0,
0,0,0,0,0,0,0,0,0,0,0,0,0,0,0,0,
0,0,0,0,0,0,0,0,0,0,0,0,0,0,0,0,
0,0,0,0,0,0,0,0,0,0,0,0,0,0,0,0,
0,0,0,0,0,0,0,0,0,0,0,0,0,0,0,0,
0,0,0,0,0,0,0,0,0,0,0,0,0,0,0,0,
0,0,0,0,0,0,0,0,0,0,0,0,0,0,0,0
</chunk>
   <chunk x="96" y="16" width="16" height="16">
0,0,212,213,215,215,215,419,0,0,0,0,0,0,0,0,
0,0,0,0,0,0,0,0,0,0,0,0,0,0,0,0,
0,0,0,0,0,0,0,0,0,0,0,0,0,0,0,0,
0,0,0,0,0,0,0,0,0,0,0,0,0,0,0,0,
0,0,0,0,0,0,0,0,0,0,0,0,0,0,0,0,
0,0,0,0,0,0,0,0,0,0,0,0,0,0,0,0,
0,0,0,0,0,0,0,0,0,0,0,0,0,0,0,0,
0,0,0,0,0,0,0,0,0,0,0,0,0,0,0,0,
0,0,0,0,0,0,0,0,0,0,0,0,0,0,0,0,
0,0,0,0,0,0,0,0,0,0,0,0,0,0,0,0,
0,0,0,0,0,0,0,0,0,0,0,0,0,0,0,0,
0,0,0,0,0,0,0,0,0,0,0,0,0,0,0,0,
0,0,0,0,0,0,0,0,0,0,0,0,0,0,0,0,
0,0,0,0,0,0,0,0,0,0,0,0,0,0,0,0,
0,0,0,0,0,0,0,0,0,0,0,0,0,0,0,0,
0,0,0,0,0,0,0,0,0,0,0,0,0,0,0,0
</chunk>
   <chunk x="-144" y="32" width="16" height="16">
0,0,0,392,393,438,630,627,164,164,629,164,164,104,104,104,
0,0,0,0,413,397,398,195,195,195,195,438,627,630,164,627,
0,0,0,0,0,0,418,215,215,215,215,397,398,195,195,195,
0,0,0,0,0,0,0,0,0,0,0,0,418,215,215,215,
0,0,0,0,0,0,0,0,0,0,0,0,0,0,0,0,
0,0,0,0,0,0,0,0,0,0,0,0,0,0,0,0,
0,0,0,0,0,0,0,0,0,0,0,0,0,0,0,0,
0,0,0,0,0,0,0,0,0,0,0,0,0,0,0,0,
0,0,0,0,0,0,0,0,0,0,0,0,0,0,0,0,
0,0,0,0,0,0,0,0,0,0,0,0,0,0,0,0,
0,0,0,0,0,0,0,0,0,0,0,0,0,0,0,0,
0,0,0,0,0,0,0,0,0,0,0,0,0,0,0,0,
0,0,0,0,0,0,0,0,0,0,0,0,0,0,0,0,
0,0,0,0,0,0,0,0,0,0,0,0,0,0,0,0,
0,0,0,0,0,0,0,0,0,0,0,0,0,0,0,0,
0,0,0,0,0,0,0,0,0,0,0,0,0,0,0,0
</chunk>
   <chunk x="-128" y="32" width="16" height="16">
104,104,104,104,104,104,104,104,104,104,104,104,104,104,104,104,
630,629,629,164,630,628,628,164,629,627,627,628,164,627,627,628,
195,195,195,195,195,195,195,195,195,195,195,195,195,195,195,195,
215,215,215,215,215,215,215,215,215,215,215,215,215,215,215,215,
0,0,0,0,0,0,0,0,0,0,0,0,0,0,0,0,
0,0,0,0,0,0,0,0,0,0,0,0,0,0,0,0,
0,0,0,0,0,0,0,0,0,0,0,0,0,0,0,0,
0,0,0,0,0,0,0,0,0,0,0,0,0,0,0,0,
0,0,0,0,0,0,0,0,0,0,0,0,0,0,0,0,
0,0,0,0,0,0,0,0,0,0,0,0,0,0,0,0,
0,0,0,0,0,0,0,0,0,0,0,0,0,0,0,0,
0,0,0,0,0,0,0,0,0,0,0,0,0,0,0,0,
0,0,0,0,0,0,0,0,0,0,0,0,0,0,0,0,
0,0,0,0,0,0,0,0,0,0,0,0,0,0,0,0,
0,0,0,0,0,0,0,0,0,0,0,0,0,0,0,0,
0,0,0,0,0,0,0,0,0,0,0,0,0,0,0,0
</chunk>
   <chunk x="-112" y="32" width="16" height="16">
104,104,104,104,104,104,104,628,630,630,630,628,627,630,630,630,
164,630,629,630,628,627,164,627,439,195,195,195,195,195,195,399,
195,195,195,195,195,195,195,399,400,215,215,215,215,215,215,419,
215,215,215,215,215,215,215,419,0,0,0,0,0,0,0,0,
0,0,0,0,0,0,0,0,0,0,0,0,0,0,0,0,
0,0,0,0,0,0,0,0,0,0,0,0,0,0,0,0,
0,0,0,0,0,0,0,0,0,0,0,0,0,0,0,0,
0,0,0,0,0,0,0,0,0,0,0,0,0,0,0,0,
0,0,0,0,0,0,0,0,0,0,0,0,0,0,0,0,
0,0,0,0,0,0,0,0,0,0,0,0,0,0,0,0,
0,0,0,0,0,0,0,0,0,0,0,0,0,0,0,0,
0,0,0,0,0,0,0,0,0,0,0,0,0,0,0,0,
0,0,0,0,0,0,0,0,0,0,0,0,0,0,0,0,
0,0,0,0,0,0,0,0,0,0,0,0,0,0,0,0,
0,0,0,0,0,0,0,0,0,0,0,0,0,0,0,0,
0,0,0,0,0,0,0,0,0,0,0,0,0,0,0,0
</chunk>
   <chunk x="-96" y="32" width="16" height="16">
439,195,195,195,394,395,0,0,0,0,0,0,0,0,0,0,
400,215,215,215,414,0,0,0,0,0,0,0,0,0,0,0,
0,0,0,0,0,0,0,0,0,0,0,0,0,0,0,0,
0,0,0,0,0,0,0,0,0,0,0,0,0,0,0,0,
0,0,0,0,0,0,0,0,0,0,0,0,0,0,0,0,
0,0,0,0,0,0,0,0,0,0,0,0,0,0,0,0,
0,0,0,0,0,0,0,0,0,0,0,0,0,0,0,0,
0,0,0,0,0,0,0,0,0,0,0,0,0,0,0,0,
0,0,0,0,0,0,0,0,0,0,0,0,0,0,0,0,
0,0,0,0,0,0,0,0,0,0,0,0,0,0,0,0,
0,0,0,0,0,0,0,0,0,0,0,0,0,0,0,0,
0,0,0,0,0,0,0,0,0,0,0,0,0,0,0,0,
0,0,0,0,0,0,0,0,0,0,0,0,0,0,0,0,
0,0,0,0,0,0,0,0,0,0,0,0,0,0,0,0,
0,0,0,0,0,0,0,0,0,0,0,0,0,0,0,0,
0,0,0,0,0,0,0,0,0,0,0,0,0,0,0,0
</chunk>
   <chunk x="-80" y="32" width="16" height="16">
0,0,0,0,0,0,0,0,0,0,0,0,418,215,215,414,
0,0,0,0,0,0,0,0,0,0,0,0,0,0,0,0,
0,0,0,0,0,0,0,0,0,0,0,0,0,0,0,0,
0,0,0,0,0,0,0,0,0,0,0,0,0,0,0,0,
0,0,0,0,0,0,0,0,0,0,0,0,0,0,0,0,
0,0,0,0,0,0,0,0,0,0,0,0,0,0,0,0,
0,0,0,0,0,0,0,0,0,0,0,0,0,0,0,0,
0,0,0,0,0,0,0,0,0,0,0,0,0,0,0,0,
0,0,0,0,0,0,0,0,0,0,0,0,0,0,0,0,
0,0,0,0,0,0,0,0,0,0,0,0,0,0,0,0,
0,0,0,0,0,0,0,0,0,0,0,0,0,0,0,0,
0,0,0,0,0,0,0,0,0,0,0,0,0,0,0,0,
0,0,0,0,0,0,0,0,0,0,0,0,0,0,0,0,
0,0,0,0,0,0,0,0,0,0,0,0,0,0,0,0,
0,0,0,0,0,0,0,0,0,0,0,0,0,0,0,0,
0,0,0,0,0,0,0,0,0,0,0,0,0,0,0,0
</chunk>
  </data>
 </layer>
</map>
