<?xml version="1.0" encoding="UTF-8"?>
<map version="1.10" tiledversion="1.12.0" orientation="orthogonal" renderorder="right-down" width="4" height="4" tilewidth="16" tileheight="16" infinite="1" nextlayerid="5" nextobjectid="1">
 <tileset firstgid="1" source=":/automap-tiles.tsx"/>
 <tileset firstgid="6" source="../tileset template.tsx"/>
 <tileset firstgid="56" source="../tangled incomplete tileset.tsx"/>
 <layer id="1" name="template" width="4" height="4">
  <data encoding="csv">
   <chunk x="-32" y="-64" width="16" height="16">
0,0,0,0,17,17,17,17,17,17,17,17,17,17,17,17,
0,0,0,0,17,17,17,17,17,17,17,17,17,17,17,17,
0,0,0,0,17,17,17,17,17,17,17,17,17,17,17,17,
0,0,0,0,0,0,0,0,0,0,0,0,0,0,0,0,
0,0,0,0,0,0,0,0,0,0,0,0,0,0,0,0,
0,0,0,0,0,0,0,0,0,0,0,0,0,0,0,0,
0,0,0,0,0,0,0,0,0,0,0,0,0,0,0,0,
0,0,0,0,0,0,0,0,0,0,0,0,0,0,0,0,
0,0,0,0,0,0,0,0,0,0,0,0,0,0,0,0,
0,0,0,0,0,0,0,0,0,0,0,0,0,0,0,0,
0,0,0,0,0,0,0,0,0,0,0,0,0,0,0,0,
0,0,0,0,0,0,0,0,0,0,0,0,0,0,0,0,
0,0,0,0,0,0,0,0,0,0,0,0,0,0,0,0,
0,0,0,0,0,0,0,0,0,0,0,0,0,0,0,0,
0,0,0,0,0,0,0,0,0,0,0,0,0,0,0,0,
0,0,0,0,0,0,0,0,0,0,0,0,0,0,0,0
</chunk>
   <chunk x="-16" y="-64" width="16" height="16">
17,17,17,17,17,17,17,17,17,17,17,17,17,17,0,0,
17,17,17,17,17,17,17,17,17,17,17,17,17,17,0,0,
17,17,17,17,17,17,17,17,17,17,17,17,17,17,0,0,
0,0,0,0,0,0,0,0,0,0,0,0,0,0,0,0,
0,0,0,0,0,0,0,0,0,0,0,0,0,0,0,0,
0,0,0,0,0,0,0,0,0,0,0,0,0,0,0,0,
0,0,0,0,0,0,0,0,0,0,0,0,0,0,0,0,
0,0,0,0,0,0,0,0,0,0,0,0,0,0,0,0,
0,0,0,0,0,0,0,0,0,0,0,0,0,0,0,0,
0,0,0,0,0,0,0,0,0,0,0,0,0,0,0,0,
0,0,0,0,0,0,0,0,0,0,0,0,0,0,0,0,
0,0,0,0,0,0,0,0,0,0,0,0,0,0,0,0,
0,0,0,0,0,0,0,0,0,0,0,0,0,0,0,0,
0,0,0,0,0,0,0,0,0,0,0,0,0,0,0,0,
0,0,0,0,0,0,0,0,0,0,0,0,0,0,0,0,
0,0,0,0,0,0,0,0,0,0,0,0,0,0,0,0
</chunk>
   <chunk x="-32" y="-48" width="16" height="16">
0,0,0,0,0,0,0,0,0,0,0,0,0,0,0,0,
0,0,0,0,0,0,0,0,0,0,0,0,0,0,0,0,
0,0,0,0,0,0,0,0,0,0,0,0,0,0,0,0,
0,0,0,0,0,0,0,0,0,0,0,0,0,0,0,0,
0,0,0,0,0,0,0,0,0,0,17,17,17,17,17,17,
0,0,0,0,0,0,0,0,0,0,17,17,17,17,17,17,
0,0,0,0,0,0,0,0,0,0,17,17,17,17,17,17,
0,0,0,0,0,0,0,0,0,0,17,17,17,17,17,17,
0,0,0,0,0,0,0,0,0,17,17,17,17,17,17,17,
0,0,0,0,0,0,0,0,0,17,17,17,17,17,17,17,
0,0,0,0,0,0,0,0,0,17,17,17,17,17,17,17,
0,0,0,0,0,0,0,0,0,17,17,17,17,17,17,17,
0,0,0,0,0,0,0,0,0,17,17,17,17,17,17,17,
0,0,0,0,0,0,0,0,0,17,17,17,17,17,17,17,
0,0,0,0,0,0,0,0,0,17,17,17,17,17,17,17,
0,0,0,0,0,0,0,0,0,17,17,17,17,17,17,17
</chunk>
   <chunk x="-16" y="-48" width="16" height="16">
0,0,0,0,0,0,0,0,0,0,0,0,0,0,0,0,
0,0,0,0,0,0,0,0,0,0,0,0,0,0,0,0,
0,0,0,0,0,0,0,0,0,0,0,0,0,0,0,0,
0,0,0,0,0,0,0,0,0,0,0,0,0,0,0,0,
17,17,17,17,17,17,17,17,17,17,0,0,0,0,0,0,
17,17,17,17,17,17,17,17,17,17,0,0,0,0,0,0,
17,17,17,17,17,17,17,17,17,17,0,0,0,0,0,0,
17,17,17,17,17,17,17,17,17,17,0,0,0,0,0,0,
17,17,17,17,17,17,17,17,17,17,0,0,0,0,0,0,
17,17,17,17,17,17,17,17,17,17,0,0,0,0,0,0,
17,17,17,17,17,17,17,17,17,17,0,0,0,0,0,0,
17,17,17,17,17,17,17,17,17,0,0,0,0,0,0,0,
17,17,17,17,17,17,17,17,17,0,0,0,0,0,0,0,
17,17,17,17,17,17,17,17,17,0,0,0,0,0,0,0,
17,17,17,17,17,17,17,17,17,0,0,0,0,0,0,0,
17,17,17,17,17,17,17,17,17,0,0,0,0,0,0,0
</chunk>
   <chunk x="96" y="-48" width="16" height="16">
0,0,0,0,0,0,0,0,0,0,0,0,0,0,0,0,
0,0,0,0,0,0,0,0,0,0,0,0,0,0,0,0,
0,0,0,0,0,0,0,0,0,0,0,0,0,0,0,0,
0,0,0,0,0,0,0,0,0,0,0,0,0,0,0,0,
0,0,0,0,0,0,0,0,0,0,0,0,0,0,0,0,
0,0,0,0,0,0,0,0,0,0,0,0,0,0,0,0,
0,0,0,0,0,0,0,0,0,0,0,0,0,0,0,0,
0,0,0,0,0,0,0,0,0,0,0,0,0,0,0,0,
0,0,0,0,0,0,0,0,0,0,0,0,0,0,0,0,
0,0,0,0,0,0,0,0,0,0,0,0,0,0,0,0,
0,0,0,0,0,0,0,0,0,0,0,0,0,0,0,0,
0,0,0,0,0,0,0,0,0,0,0,0,0,0,0,0,
0,0,0,0,0,0,0,0,0,0,0,0,0,0,0,0,
0,0,17,17,17,17,17,17,17,17,17,0,0,0,0,0,
0,17,17,17,17,17,17,17,17,17,17,17,0,0,0,0,
17,17,17,17,17,17,17,17,17,17,17,0,0,0,0,0
</chunk>
   <chunk x="-32" y="-32" width="16" height="16">
0,0,0,0,0,0,0,0,0,17,17,17,17,17,17,17,
0,0,0,0,0,0,0,0,0,17,17,17,17,17,17,17,
0,0,0,0,0,0,0,0,0,0,17,17,17,17,17,17,
0,0,0,0,0,0,0,0,0,0,17,17,17,17,17,17,
0,0,0,0,0,0,0,0,0,0,17,17,17,17,17,17,
0,0,0,0,0,0,0,0,0,0,17,17,17,17,17,17,
0,0,0,0,0,0,0,0,0,0,17,17,17,17,17,17,
0,0,0,0,0,0,0,0,0,0,0,17,17,17,17,17,
0,0,0,0,0,0,0,0,0,0,0,17,17,17,17,17,
0,0,0,0,0,0,0,0,0,0,0,17,17,17,17,17,
0,0,0,0,0,0,0,0,0,0,0,17,17,17,17,17,
0,0,0,0,0,0,0,0,0,0,0,17,17,17,17,17,
0,0,0,0,0,0,0,0,0,0,0,0,17,17,17,17,
0,0,0,0,0,0,0,0,0,0,0,0,17,17,17,17,
0,0,0,0,0,0,0,0,0,0,0,0,17,17,17,17,
0,0,0,0,0,0,0,0,0,0,0,0,17,17,17,17
</chunk>
   <chunk x="-16" y="-32" width="16" height="16">
17,17,17,17,17,17,17,17,17,0,0,0,0,0,0,0,
17,17,17,17,17,17,17,17,17,0,0,0,0,0,0,0,
17,17,17,17,17,17,17,17,17,0,0,0,0,0,0,0,
17,17,17,17,17,17,17,17,17,0,0,0,0,0,0,0,
17,17,17,17,17,17,17,17,17,0,0,0,0,0,0,0,
17,17,17,17,17,17,17,17,17,0,0,0,0,0,0,0,
17,17,17,17,17,17,17,17,17,0,0,0,0,0,0,0,
17,17,17,17,17,17,17,17,17,0,0,0,0,0,0,0,
17,17,17,17,17,17,17,17,17,0,0,0,0,0,0,0,
17,17,17,17,17,17,17,17,17,0,0,0,0,0,0,0,
17,17,17,17,17,17,17,17,0,0,0,0,0,0,0,0,
17,17,17,17,17,17,17,17,0,0,0,0,0,0,0,0,
17,17,17,17,17,17,17,0,0,0,0,0,0,0,0,0,
17,17,17,17,17,17,17,0,0,0,0,0,0,0,0,0,
17,17,17,17,17,17,17,0,0,0,0,0,0,0,0,0,
17,17,17,17,17,17,17,0,0,0,0,0,0,0,0,0
</chunk>
   <chunk x="64" y="-32" width="16" height="16">
0,0,0,0,0,0,0,0,0,0,0,0,0,0,0,0,
0,0,0,0,0,0,0,0,0,0,0,0,0,0,0,0,
0,0,0,0,0,0,0,0,0,0,0,0,0,0,0,0,
0,0,0,0,0,0,0,0,0,17,0,0,0,0,0,0,
0,0,0,0,0,0,0,17,17,17,0,0,0,0,0,0,
0,0,0,0,0,0,17,17,17,17,0,0,0,0,0,0,
0,0,0,0,0,17,17,17,17,17,17,17,17,17,17,17,
0,0,0,0,0,17,17,17,17,17,17,17,17,17,17,17,
0,0,0,0,0,17,17,17,17,17,17,17,17,17,17,17,
0,0,0,0,0,17,17,17,17,17,17,17,17,17,17,0,
0,0,0,0,0,17,17,17,17,17,17,17,17,17,17,0,
0,0,0,0,0,17,17,17,17,17,17,17,17,17,17,17,
0,0,0,0,0,17,17,17,17,17,17,17,17,17,17,17,
0,0,0,0,0,17,17,17,17,17,17,17,17,17,17,17,
0,0,0,0,0,17,17,17,17,17,17,17,17,17,17,17,
0,0,0,0,0,17,17,17,17,17,17,17,17,17,17,17
</chunk>
   <chunk x="80" y="-32" width="16" height="16">
0,0,0,0,0,0,0,0,0,0,0,0,0,0,0,17,
0,0,0,0,0,0,0,0,0,0,0,0,0,0,17,17,
0,0,0,0,0,0,0,0,0,0,0,0,0,17,17,17,
0,0,0,0,0,0,0,0,0,0,17,17,17,17,17,17,
0,0,0,0,0,0,0,0,0,0,17,17,17,17,17,17,
0,0,0,0,0,0,0,0,0,17,17,17,17,17,17,17,
17,17,17,17,17,17,17,17,17,17,17,17,0,0,0,0,
17,17,17,17,17,17,17,17,17,17,0,0,0,0,0,0,
17,17,17,17,17,17,17,0,0,0,0,0,0,0,0,0,
0,0,0,17,17,0,0,0,0,0,0,0,0,0,0,0,
0,0,0,0,0,0,0,0,0,0,0,0,0,0,0,0,
0,0,0,0,0,0,0,0,0,17,17,17,17,17,17,17,
17,0,0,0,0,0,0,17,17,17,17,17,17,17,17,17,
17,17,0,0,0,0,17,17,17,17,17,17,17,17,17,17,
17,17,17,0,0,0,17,17,17,17,17,17,17,17,17,17,
17,17,17,0,0,0,17,17,17,17,17,17,17,17,17,17
</chunk>
   <chunk x="96" y="-32" width="16" height="16">
17,17,17,17,17,17,17,17,17,17,17,0,0,0,0,0,
17,17,17,17,17,17,17,17,17,17,17,0,0,0,0,0,
17,17,17,17,17,17,17,17,17,17,0,0,0,0,0,0,
17,17,17,17,17,17,17,17,17,0,0,0,0,0,0,0,
17,17,17,17,17,17,17,17,17,0,0,0,0,0,0,0,
17,17,17,17,17,17,17,17,0,0,0,0,0,0,0,0,
0,0,0,0,0,0,0,0,0,0,0,0,0,0,0,0,
0,0,0,0,0,0,0,0,0,0,0,0,0,0,0,0,
0,0,0,0,0,0,0,0,0,0,0,0,0,0,0,0,
0,0,0,0,0,0,0,0,0,0,0,0,0,0,0,0,
0,0,0,0,0,0,0,0,0,0,0,0,0,0,0,0,
17,17,17,17,17,17,17,17,17,17,17,17,17,17,17,17,
17,17,17,17,17,17,17,17,17,17,17,17,17,17,17,17,
17,17,17,17,17,17,17,17,17,17,17,17,17,17,17,17,
17,17,17,17,17,17,17,17,17,17,17,17,17,17,17,17,
17,17,17,17,17,17,17,17,17,17,17,17,17,17,17,17
</chunk>
   <chunk x="112" y="-32" width="16" height="16">
0,0,0,0,0,0,0,0,0,0,0,0,0,0,0,0,
0,0,0,0,0,0,0,0,0,0,0,0,0,0,0,0,
0,0,0,0,0,0,0,0,0,0,0,0,0,0,0,0,
0,0,0,0,0,0,0,0,0,0,0,0,0,0,0,0,
0,0,0,0,0,0,0,0,0,0,0,0,0,0,0,0,
0,0,0,0,0,0,0,0,0,0,0,0,0,0,0,0,
0,0,0,0,0,0,0,0,0,0,0,0,0,0,0,0,
0,0,0,0,0,0,0,0,0,0,0,0,0,0,0,0,
0,0,0,0,0,0,0,0,0,0,0,0,0,0,0,0,
0,0,0,0,0,0,0,0,0,0,0,0,0,0,0,0,
0,0,0,0,0,0,0,0,0,0,0,0,0,0,0,0,
17,17,0,0,0,0,0,0,0,0,0,0,0,0,0,0,
17,17,0,0,0,0,0,0,0,0,0,0,0,0,0,0,
17,17,0,0,0,0,0,0,0,0,0,0,0,0,0,0,
17,17,0,0,0,0,0,0,0,0,0,0,0,0,0,0,
17,17,0,0,0,0,0,0,0,0,0,0,0,0,0,0
</chunk>
   <chunk x="-32" y="-16" width="16" height="16">
0,0,0,0,0,0,0,0,0,0,0,0,17,17,17,17,
0,0,0,0,0,0,0,0,0,0,0,0,0,17,17,17,
0,0,0,0,0,0,0,0,0,0,0,0,0,17,17,17,
0,0,0,0,0,0,0,0,0,0,0,0,0,17,17,17,
0,0,0,0,0,0,0,0,0,0,0,0,0,0,17,17,
0,0,0,0,0,0,0,0,0,0,0,0,0,0,0,17,
0,0,0,0,0,0,0,0,0,0,0,0,0,0,0,0,
0,0,0,0,0,0,0,0,0,0,0,0,0,0,0,0,
0,0,0,0,0,0,0,0,0,0,0,0,0,0,0,0,
0,0,0,0,0,0,0,0,0,0,0,0,0,0,0,0,
0,0,0,0,0,0,0,0,0,0,0,0,0,0,0,0,
0,0,0,0,0,0,0,0,0,0,0,0,0,0,0,0,
0,0,0,0,0,0,0,0,0,0,0,0,0,0,0,0,
0,0,0,0,0,0,0,0,0,0,0,0,0,0,0,0,
0,0,0,0,0,0,0,0,0,0,0,0,0,0,0,0,
0,0,0,0,0,0,0,0,0,0,0,0,0,0,0,0
</chunk>
   <chunk x="-16" y="-16" width="16" height="16">
17,17,17,17,17,17,17,0,0,0,0,0,0,0,0,0,
17,17,17,17,17,17,17,0,0,0,0,0,0,0,0,0,
17,17,17,17,17,17,17,17,17,17,17,17,17,17,17,17,
17,17,17,17,17,17,17,17,17,17,17,17,17,17,17,17,
17,17,17,17,17,17,17,17,17,17,17,17,17,17,17,17,
17,17,17,17,17,17,17,17,17,17,17,17,17,17,17,17,
17,17,17,17,17,17,17,17,17,17,17,17,17,17,17,17,
0,0,0,0,17,17,17,17,17,17,17,17,17,17,17,17,
0,0,0,0,17,17,17,17,17,17,17,17,17,17,17,17,
0,0,0,0,17,17,17,17,17,17,17,17,17,17,17,17,
0,0,0,0,17,17,17,17,17,17,17,17,17,17,17,17,
0,0,0,0,17,17,17,17,17,17,17,17,17,17,17,17,
0,0,0,0,0,17,17,17,17,17,17,17,17,17,17,17,
0,0,0,0,0,17,17,17,17,17,17,17,17,17,17,17,
0,0,0,0,0,17,17,17,17,17,17,17,17,17,17,17,
0,0,0,0,0,0,17,17,17,17,17,17,17,17,17,17
</chunk>
   <chunk x="0" y="-16" width="16" height="16">
0,0,0,0,0,0,0,0,0,0,0,0,0,0,0,0,
0,0,0,0,0,0,0,0,0,0,0,0,0,0,0,0,
17,17,17,17,17,17,17,17,17,17,17,17,17,17,17,17,
17,17,17,17,17,17,17,17,17,17,17,17,17,17,17,17,
17,17,17,17,17,17,17,17,17,17,17,17,17,17,17,17,
17,17,17,17,17,17,17,17,17,17,17,17,17,17,17,17,
17,17,17,17,17,17,17,17,17,17,17,17,17,17,17,17,
17,17,17,17,17,17,17,17,17,17,17,17,17,17,17,17,
17,17,17,17,17,17,17,17,17,17,17,17,17,17,17,17,
17,17,17,17,17,17,17,17,17,17,17,17,17,17,17,17,
17,17,17,17,17,17,17,17,17,17,17,17,17,17,17,17,
17,17,17,17,17,17,17,17,17,17,17,17,17,17,17,17,
17,17,17,17,17,17,17,17,17,17,17,17,17,17,17,17,
17,17,17,17,17,17,17,17,17,17,17,17,17,17,17,17,
17,17,17,17,17,17,17,17,17,17,17,17,17,17,17,17,
17,17,17,17,17,17,17,17,17,17,17,17,17,17,17,17
</chunk>
   <chunk x="16" y="-16" width="16" height="16">
0,0,0,0,0,0,0,0,0,0,0,0,0,0,0,0,
0,0,0,0,0,0,0,17,17,17,17,17,17,0,0,0,
17,17,17,17,17,17,17,17,17,17,17,17,17,17,17,17,
17,17,17,17,17,17,17,17,17,17,17,17,17,17,17,17,
17,17,17,17,17,17,17,17,17,17,17,17,17,17,17,17,
17,17,17,17,17,17,17,17,17,17,17,17,17,17,17,17,
17,17,17,17,17,17,17,17,17,17,17,17,17,17,17,17,
17,17,17,17,17,17,17,17,17,17,17,17,17,17,17,17,
17,17,17,17,17,17,17,17,17,17,17,17,17,17,17,17,
17,17,17,17,17,17,17,17,17,17,17,17,17,17,17,17,
17,17,17,17,17,17,17,17,17,17,17,17,17,17,17,17,
17,17,17,17,17,17,17,17,17,17,17,17,17,17,17,17,
17,17,17,17,17,17,17,17,17,17,17,17,17,17,17,17,
17,17,17,17,17,17,17,17,17,17,17,17,17,17,17,17,
17,17,17,17,17,17,17,17,17,17,17,17,17,17,17,17,
17,17,17,17,17,17,17,17,17,17,17,17,17,17,17,17
</chunk>
   <chunk x="32" y="-16" width="16" height="16">
0,0,0,0,0,0,0,0,0,0,0,0,0,0,0,0,
0,0,0,0,0,0,0,0,0,0,0,0,0,0,0,0,
17,17,17,0,0,0,0,0,0,0,0,0,0,0,0,0,
17,17,17,17,17,0,0,0,0,0,0,0,0,0,0,0,
17,17,17,17,17,0,0,0,0,0,0,0,0,0,0,0,
17,17,17,17,17,17,17,0,0,0,0,0,0,0,0,0,
17,17,17,17,17,17,17,17,17,0,0,0,0,0,0,0,
17,17,17,17,17,17,17,17,17,17,17,0,0,0,0,0,
17,17,17,17,17,17,17,17,17,17,17,0,0,0,0,0,
17,17,17,17,17,17,17,17,17,17,0,0,0,0,0,0,
17,17,17,17,17,17,17,17,17,17,0,0,0,0,0,0,
17,17,17,17,17,17,17,17,17,17,17,0,0,0,0,0,
17,17,17,17,17,17,17,17,17,17,17,0,0,0,0,0,
17,17,17,17,17,17,17,0,0,0,0,0,0,0,0,0,
17,17,17,17,17,17,17,0,0,0,0,0,0,0,0,0,
17,17,17,17,17,17,17,0,0,0,0,0,0,0,0,0
</chunk>
   <chunk x="64" y="-16" width="16" height="16">
0,0,0,0,0,0,17,17,17,17,17,17,17,17,17,17,
0,0,0,0,0,0,0,17,17,17,17,17,17,17,17,17,
0,0,0,0,0,0,0,0,17,17,17,17,17,17,17,17,
0,0,0,0,0,0,0,0,17,17,17,17,17,17,17,17,
0,0,0,0,0,0,0,0,0,0,0,0,0,0,0,0,
0,0,0,0,0,0,0,0,0,0,0,0,0,0,0,0,
0,0,0,0,0,0,0,0,0,0,0,0,0,0,0,0,
0,0,0,0,0,0,0,0,0,0,0,0,0,0,0,0,
0,0,0,0,0,0,0,0,0,0,0,0,0,0,0,0,
0,0,0,0,0,0,0,0,0,0,0,0,0,0,0,0,
0,0,0,0,0,0,0,0,0,0,0,0,0,0,0,17,
0,0,0,0,0,0,0,0,0,0,0,0,0,0,17,17,
0,0,0,0,0,0,0,0,0,0,0,0,17,17,17,17,
0,0,0,0,0,0,0,0,0,0,0,17,17,17,17,17,
0,0,0,0,0,0,0,0,0,17,17,17,17,17,17,17,
0,0,0,0,0,0,0,0,17,17,17,17,17,17,17,17
</chunk>
   <chunk x="80" y="-16" width="16" height="16">
17,17,17,0,0,0,17,17,17,17,17,17,17,17,17,17,
17,0,0,0,0,0,17,17,17,17,17,17,17,17,17,17,
17,0,0,0,0,0,17,17,17,17,17,17,17,17,17,17,
0,0,0,0,0,0,17,17,17,17,17,17,17,17,17,17,
0,0,0,0,0,0,17,17,17,17,17,17,17,17,17,17,
0,0,0,0,0,0,17,17,17,17,17,17,17,17,17,0,
0,0,0,0,0,17,17,17,17,17,17,17,17,17,17,0,
0,0,0,0,17,17,17,17,17,17,17,17,17,17,17,0,
0,0,17,17,17,17,17,17,17,17,17,17,17,17,0,0,
17,17,17,17,17,17,17,17,17,17,17,17,17,17,0,0,
17,17,17,17,17,17,17,17,17,17,17,17,17,17,0,0,
17,17,17,17,17,17,17,17,17,17,17,17,17,17,0,0,
17,17,17,17,17,17,17,17,17,17,17,17,17,17,0,0,
17,17,17,17,17,17,17,17,17,17,17,17,17,17,0,0,
17,17,17,17,17,17,17,17,17,17,17,17,17,17,0,0,
17,17,17,17,17,17,17,17,17,17,17,17,17,0,0,0
</chunk>
   <chunk x="96" y="-16" width="16" height="16">
17,17,17,17,17,0,0,0,0,0,0,0,0,0,0,0,
17,17,17,17,0,0,0,0,0,0,0,0,0,0,0,0,
17,17,0,0,0,0,0,0,0,0,0,0,0,0,0,0,
0,0,0,0,0,0,0,0,0,0,0,0,0,0,0,0,
0,0,0,0,0,0,0,0,0,0,0,0,0,0,0,0,
0,0,0,0,0,0,0,0,0,0,0,0,0,0,0,0,
0,0,0,0,0,0,0,0,0,0,0,0,0,0,0,0,
0,0,0,0,0,0,0,0,0,0,0,0,0,0,0,0,
0,0,0,0,0,0,0,0,0,0,0,0,0,0,0,0,
0,0,0,0,0,0,0,0,0,0,0,0,0,0,0,0,
0,0,0,0,0,0,0,0,0,0,0,0,0,0,0,0,
0,0,0,0,0,0,0,0,0,0,0,0,0,0,0,0,
0,0,0,0,0,0,0,0,0,0,0,0,0,0,0,0,
0,0,0,0,0,0,0,0,0,0,0,0,0,0,0,0,
0,0,0,0,0,0,0,0,0,0,0,0,0,0,0,0,
0,0,0,0,0,0,0,0,0,0,0,0,0,0,0,0
</chunk>
   <chunk x="-16" y="0" width="16" height="16">
0,0,0,0,0,0,17,17,17,17,17,17,17,17,17,17,
0,0,0,0,0,0,0,17,17,17,17,17,17,17,17,17,
0,0,0,0,0,0,0,0,0,17,17,17,17,17,17,17,
0,0,0,0,0,0,0,0,0,0,17,17,17,17,17,17,
0,0,0,0,0,0,0,0,0,0,0,17,17,17,17,17,
0,0,0,0,0,0,0,0,0,0,0,17,17,17,17,17,
0,0,0,0,0,0,0,0,0,0,0,17,17,17,17,17,
0,0,0,0,0,0,0,0,0,0,0,0,17,17,17,17,
0,0,0,0,0,0,0,0,0,0,0,0,17,17,17,17,
0,0,0,0,0,0,0,0,0,0,0,0,0,17,17,17,
0,0,0,0,0,0,0,0,0,0,0,0,0,0,17,17,
0,0,0,0,0,0,0,0,0,0,0,0,0,0,0,17,
0,0,0,0,0,0,0,0,0,0,0,0,0,0,0,0,
0,0,0,0,0,0,0,0,0,0,0,0,0,0,0,0,
0,0,0,0,0,0,0,0,0,0,0,0,0,0,0,0,
0,0,0,0,0,0,0,0,0,0,0,0,0,0,0,0
</chunk>
   <chunk x="0" y="0" width="16" height="16">
17,17,17,17,17,17,17,17,17,17,17,17,17,17,17,17,
17,17,17,17,17,17,17,17,17,17,17,17,17,17,17,17,
17,17,17,17,17,17,17,17,17,17,17,17,17,17,17,17,
17,17,17,17,17,17,17,17,17,17,17,17,17,17,17,17,
17,17,17,17,17,17,17,17,17,17,17,17,17,17,17,17,
17,17,17,17,17,17,17,17,17,17,17,17,17,17,17,17,
17,17,17,17,17,17,17,17,17,17,17,17,17,17,17,17,
17,17,17,17,17,17,17,17,17,17,17,17,17,17,17,17,
17,17,17,17,17,17,17,17,17,17,17,17,17,17,17,17,
17,17,17,17,17,17,17,17,17,17,17,17,17,17,17,17,
17,17,17,17,17,17,17,17,17,17,17,17,17,17,17,17,
17,17,17,17,17,17,17,17,17,17,17,17,17,17,17,17,
17,17,17,17,17,17,17,17,17,17,17,17,17,17,17,17,
0,0,17,17,17,17,0,0,0,0,0,0,0,0,0,0,
0,0,0,0,0,0,0,0,0,0,0,0,0,0,0,0,
0,0,0,0,0,0,0,0,0,0,0,0,0,0,0,0
</chunk>
   <chunk x="16" y="0" width="16" height="16">
17,17,17,17,17,17,17,17,17,17,17,17,17,17,17,17,
17,17,17,17,17,17,17,17,17,17,17,17,17,17,17,17,
17,17,17,17,17,17,17,17,17,17,17,17,17,17,17,17,
17,17,17,17,17,17,17,17,17,17,17,17,17,17,17,17,
17,17,17,17,17,17,17,17,17,17,17,17,17,17,17,17,
17,17,17,17,17,17,17,17,17,17,17,17,17,17,17,17,
17,17,17,17,17,17,17,17,17,17,17,17,17,17,17,17,
17,17,17,17,17,17,17,17,17,17,17,17,17,17,17,17,
17,17,17,17,17,17,17,17,17,17,17,17,17,17,17,17,
17,17,17,17,17,17,17,17,17,17,17,17,17,17,17,17,
17,17,17,17,17,17,17,17,17,17,17,17,17,17,17,17,
17,17,17,17,17,17,17,17,17,17,17,17,17,17,17,17,
17,17,17,17,17,17,17,17,17,17,17,17,17,17,17,17,
0,0,0,0,0,0,0,0,17,17,17,17,17,17,17,17,
0,0,0,0,0,0,0,0,0,0,0,0,0,0,0,0,
0,0,0,0,0,0,0,0,0,0,0,0,0,0,0,0
</chunk>
   <chunk x="32" y="0" width="16" height="16">
17,17,17,17,17,17,17,0,0,0,0,0,0,0,0,0,
17,17,17,17,17,17,17,0,0,0,0,0,0,0,0,0,
17,17,17,17,17,17,17,0,0,0,0,0,0,0,0,0,
17,17,17,17,17,17,17,17,0,0,0,0,0,0,0,0,
17,17,17,17,17,17,17,17,0,0,0,0,0,0,0,0,
17,17,17,17,17,17,17,17,17,17,17,17,17,17,17,17,
17,17,17,17,17,17,17,17,17,17,17,17,17,17,17,17,
17,17,17,17,17,17,17,17,17,17,17,17,17,17,17,17,
17,17,17,17,17,17,17,17,17,17,17,17,17,17,17,17,
17,17,17,17,17,17,17,17,17,17,17,17,17,17,17,17,
17,17,17,17,17,17,17,17,17,17,17,17,17,17,17,17,
17,17,17,17,17,17,17,17,17,17,17,17,17,17,17,17,
17,17,17,17,17,17,17,17,17,17,17,17,17,17,17,17,
17,17,0,0,0,0,0,0,0,0,17,17,17,17,17,17,
0,0,0,0,0,0,0,0,0,0,0,0,0,0,17,17,
0,0,0,0,0,0,0,0,0,0,0,0,0,0,0,17
</chunk>
   <chunk x="48" y="0" width="16" height="16">
0,0,0,0,0,0,0,0,0,0,0,0,0,0,0,0,
0,0,0,0,0,0,0,0,0,0,0,0,0,0,0,0,
0,0,0,0,0,0,0,0,0,0,0,0,0,0,0,0,
0,0,0,0,0,0,0,0,0,0,0,0,0,0,17,17,
0,0,0,0,0,0,0,0,0,0,0,0,17,17,17,17,
17,17,0,0,0,0,0,17,17,17,17,17,17,17,17,17,
17,17,0,0,0,0,0,17,17,17,17,17,17,17,17,17,
17,17,0,0,0,0,0,17,17,17,17,17,17,17,17,17,
17,17,0,0,0,0,0,17,17,17,17,17,17,17,17,17,
17,17,0,0,0,0,0,17,17,17,17,17,17,17,17,17,
17,17,0,0,0,0,0,17,17,17,17,17,17,17,17,17,
17,17,0,0,0,0,0,17,17,17,17,17,17,17,17,17,
17,17,0,0,0,0,0,17,17,17,17,17,17,17,17,17,
17,17,0,0,0,0,0,0,0,0,0,0,0,0,0,0,
17,17,0,0,0,0,0,0,0,0,0,0,0,0,0,0,
17,17,0,0,0,0,0,0,0,0,0,0,0,0,0,0
</chunk>
   <chunk x="64" y="0" width="16" height="16">
0,0,0,0,0,0,17,17,17,17,17,17,17,17,17,17,
0,0,0,0,0,17,17,17,17,17,17,17,17,17,17,17,
0,17,17,17,17,17,17,17,17,17,17,17,17,17,17,17,
17,17,17,17,17,17,17,17,17,17,17,17,17,17,17,17,
17,17,17,17,17,17,17,17,17,17,17,17,17,17,17,17,
17,17,17,17,17,17,17,17,17,17,17,17,17,17,17,17,
17,17,17,17,17,17,17,17,17,17,17,17,17,17,17,17,
17,17,17,17,17,17,17,17,17,17,17,17,17,17,17,17,
17,17,17,17,17,17,17,17,17,17,17,17,17,17,17,17,
17,17,17,17,17,17,17,17,17,17,17,17,17,17,17,17,
17,17,17,17,17,17,17,17,17,17,17,17,17,17,17,17,
17,17,17,17,17,17,17,17,17,17,17,17,17,17,17,17,
17,17,17,17,17,17,17,17,17,17,17,17,17,17,17,17,
0,0,0,0,0,0,0,0,0,0,0,17,17,17,17,0,
0,0,0,0,0,0,0,0,0,0,0,0,0,0,0,0,
0,0,0,0,0,0,0,0,0,0,0,0,0,0,0,0
</chunk>
   <chunk x="80" y="0" width="16" height="16">
17,17,17,17,17,17,17,17,17,17,17,17,17,0,0,0,
17,17,17,17,17,17,17,17,17,17,17,17,17,0,0,0,
17,17,17,17,17,17,17,17,17,17,17,17,17,0,0,0,
17,17,17,17,17,17,17,17,17,17,17,17,0,0,0,0,
17,17,17,17,17,17,17,17,17,17,17,17,0,0,0,0,
17,17,17,17,17,17,17,17,17,17,17,0,0,0,0,0,
17,17,17,17,17,17,17,17,17,17,0,0,0,0,0,0,
17,17,17,17,17,17,17,17,17,0,0,0,0,0,0,0,
17,17,17,17,17,17,17,17,0,0,0,0,0,0,0,0,
17,17,17,17,17,17,17,0,0,0,0,0,0,0,0,0,
17,17,17,17,17,17,17,0,0,0,0,0,0,0,0,0,
17,17,17,17,17,0,0,0,0,0,0,0,0,0,0,0,
17,17,17,0,0,0,0,0,0,0,0,0,0,0,0,0,
0,0,0,0,0,0,0,0,0,0,0,0,0,0,0,0,
0,0,0,0,0,0,0,0,0,0,0,0,0,0,0,0,
0,0,0,0,0,0,0,0,0,0,0,0,0,0,0,0
</chunk>
   <chunk x="32" y="16" width="16" height="16">
0,0,0,0,0,0,0,0,0,0,0,0,0,0,0,17,
0,0,0,0,0,0,0,0,0,0,0,0,0,0,0,17,
0,0,0,0,0,0,0,0,0,0,0,0,0,0,0,17,
0,0,0,0,0,0,0,0,0,0,0,0,0,0,0,0,
0,0,0,0,0,0,0,0,0,0,0,0,0,0,0,0,
0,0,0,0,0,0,0,0,0,0,0,0,0,0,0,0,
0,0,0,0,0,0,0,0,0,0,0,0,0,0,0,0,
0,0,0,0,0,0,0,0,0,0,0,0,0,0,0,0,
0,0,0,0,0,0,0,0,0,0,0,0,0,0,0,0,
0,0,0,0,0,0,0,0,0,0,0,0,0,0,0,0,
0,0,0,0,0,0,0,0,0,0,0,0,0,0,0,0,
0,0,0,0,0,0,0,0,0,0,0,0,0,0,0,0,
0,0,0,0,0,0,0,0,0,0,0,0,0,0,0,0,
0,0,0,0,0,0,0,0,0,0,0,0,0,0,0,0,
0,0,0,0,0,0,0,0,0,0,0,0,0,0,0,0,
0,0,0,0,0,0,0,0,0,0,0,0,0,0,0,0
</chunk>
   <chunk x="48" y="16" width="16" height="16">
17,17,0,0,0,0,0,0,0,0,0,0,0,0,0,0,
17,0,0,0,0,0,0,0,0,0,0,0,0,0,0,0,
0,0,0,0,0,0,0,0,0,0,0,0,0,0,0,0,
0,0,0,0,0,0,0,0,0,0,0,0,0,0,0,0,
0,0,0,0,0,0,0,0,0,0,0,0,0,0,0,0,
0,0,0,0,0,0,0,0,0,0,0,0,0,0,0,0,
0,0,0,0,0,0,0,0,0,0,0,0,0,0,0,0,
0,0,0,0,0,0,0,0,0,0,0,0,0,0,0,0,
0,0,0,0,0,0,0,0,0,0,0,0,0,0,17,17,
0,0,0,0,0,0,0,0,0,0,0,0,17,17,17,17,
0,0,0,0,0,0,0,0,0,0,0,17,17,17,17,17,
0,0,0,0,0,0,0,0,0,0,0,17,17,17,17,17,
0,0,0,0,0,0,0,0,0,0,0,17,17,17,17,17,
0,0,0,0,0,0,0,0,0,0,0,17,17,17,17,17,
0,0,0,0,0,0,0,0,0,0,0,17,17,17,17,17,
0,0,0,0,0,0,0,0,0,0,0,17,17,17,17,17
</chunk>
   <chunk x="64" y="16" width="16" height="16">
0,0,0,0,0,0,0,0,0,0,0,0,0,0,0,0,
0,0,0,0,0,0,0,0,0,0,0,0,0,0,0,0,
0,0,0,0,0,0,0,0,0,0,0,0,0,0,0,0,
0,0,0,0,0,0,0,0,0,0,0,0,0,0,0,0,
0,0,0,0,0,0,0,0,0,0,0,0,0,0,0,0,
0,0,0,0,0,0,0,0,0,0,0,0,0,0,0,0,
0,0,0,0,0,0,0,0,0,0,0,0,0,0,0,0,
0,0,0,0,0,0,0,0,0,0,0,0,0,0,0,0,
17,17,17,17,17,0,0,0,0,0,0,0,0,0,0,0,
17,17,17,17,17,17,17,0,0,0,0,0,0,0,0,0,
17,17,17,17,17,17,17,0,0,0,0,0,0,0,0,0,
17,17,17,17,17,17,17,0,0,0,0,0,0,0,0,0,
17,17,17,17,17,17,17,0,0,0,0,0,0,0,0,0,
17,17,17,17,17,0,0,0,0,0,0,0,0,0,0,0,
17,17,17,17,17,17,0,0,0,0,0,0,0,0,0,0,
17,17,17,17,17,17,0,0,0,0,0,0,0,0,0,0
</chunk>
   <chunk x="32" y="32" width="16" height="16">
0,0,0,0,0,0,0,0,0,0,0,0,0,0,0,0,
0,0,0,0,0,0,0,0,0,0,0,0,0,0,0,0,
0,0,0,0,0,0,0,0,0,0,0,0,0,0,0,0,
0,0,0,0,0,0,0,0,0,0,0,0,0,0,0,0,
0,0,0,0,0,0,0,0,0,0,0,0,0,0,0,0,
0,0,0,0,0,0,0,0,0,17,17,17,17,0,0,0,
0,0,0,0,0,0,0,0,0,17,17,17,17,0,0,0,
0,0,0,0,0,0,0,0,0,17,17,17,17,0,0,0,
0,0,0,0,0,0,0,0,0,17,17,17,17,0,0,0,
0,0,0,0,0,0,0,0,0,17,17,17,17,0,0,0,
0,0,0,0,0,0,0,0,0,17,17,17,17,0,0,0,
0,0,0,0,0,0,0,0,0,17,17,17,17,17,17,0,
0,0,0,0,0,0,0,0,0,17,17,17,17,17,17,17,
0,0,0,0,0,0,0,0,0,17,17,17,0,0,0,0,
0,0,0,0,0,0,0,0,0,0,0,17,17,0,0,0,
0,0,0,0,0,0,0,0,0,0,0,0,17,0,0,0
</chunk>
   <chunk x="48" y="32" width="16" height="16">
0,0,0,0,0,0,0,0,0,0,0,17,17,17,17,17,
0,0,0,0,0,0,0,0,0,0,0,17,17,17,17,17,
0,0,0,0,0,0,0,0,0,0,0,17,17,17,17,17,
0,0,0,0,0,0,0,0,0,0,0,17,17,17,17,17,
0,0,0,0,0,0,0,0,0,0,0,17,17,17,17,17,
0,0,0,0,0,0,0,0,0,0,0,17,17,17,17,17,
0,0,0,0,0,0,0,0,0,0,17,17,17,17,17,17,
0,0,0,0,0,0,0,0,0,0,17,17,17,17,17,17,
0,0,0,0,0,0,0,0,0,0,17,17,17,17,17,17,
0,0,0,0,0,0,0,0,0,0,17,17,17,17,17,17,
0,0,0,0,0,0,0,0,0,0,17,17,17,17,17,17,
0,0,0,0,0,0,0,0,0,0,17,17,17,17,17,17,
17,0,0,0,0,0,0,0,0,0,17,17,17,17,17,17,
0,0,0,0,0,0,0,0,0,0,0,0,0,0,0,0,
0,0,0,0,0,0,0,0,0,0,0,0,0,0,0,0,
0,0,0,0,0,0,0,0,0,0,0,0,0,0,0,0
</chunk>
   <chunk x="64" y="32" width="16" height="16">
17,17,17,17,17,17,17,0,0,0,0,0,0,0,0,0,
17,17,17,17,17,17,17,0,0,0,0,0,0,0,0,0,
17,17,17,17,17,17,17,0,0,0,0,0,0,0,0,0,
17,17,17,17,17,17,17,0,0,0,0,0,0,0,0,0,
17,17,17,17,17,17,17,0,0,0,0,0,0,0,0,0,
17,17,17,17,17,17,17,0,0,0,0,0,0,0,0,0,
17,17,17,17,17,17,17,0,0,0,0,0,0,0,0,0,
17,17,17,17,17,17,17,0,0,0,0,0,0,0,0,0,
17,17,17,17,17,17,17,0,0,0,0,0,0,0,0,0,
17,17,17,17,17,17,17,0,0,0,0,0,0,0,0,0,
17,17,17,17,17,17,17,0,0,0,0,0,0,0,0,0,
17,17,17,17,17,17,17,17,17,17,17,17,17,17,17,17,
17,17,17,17,17,17,17,17,17,17,17,17,17,17,17,17,
0,0,0,0,0,0,0,0,0,0,0,0,0,0,0,0,
0,0,0,0,0,0,0,0,0,0,0,0,0,0,0,0,
0,0,0,0,0,0,0,0,0,0,0,0,0,0,0,0
</chunk>
   <chunk x="32" y="48" width="16" height="16">
0,0,0,0,0,0,0,0,0,0,0,0,17,0,0,0,
0,0,0,0,0,0,0,0,0,0,0,0,0,0,0,0,
0,0,0,0,0,0,0,0,0,0,0,0,0,0,0,0,
0,0,0,0,0,0,0,0,0,0,0,0,0,0,0,0,
0,0,0,0,0,0,0,0,0,0,0,0,0,0,0,0,
0,0,0,0,0,0,0,0,0,0,0,0,0,0,0,0,
0,0,0,0,0,0,0,0,0,0,0,0,0,0,0,0,
0,0,0,0,0,0,0,0,0,0,0,0,0,0,0,0,
0,0,0,0,0,0,0,0,0,0,0,0,0,0,0,0,
0,0,0,0,0,0,0,0,0,0,0,0,0,0,0,0,
0,0,0,0,0,0,0,0,0,0,0,0,0,0,0,0,
0,0,0,0,0,0,0,0,0,0,0,0,0,0,0,0,
0,0,0,0,0,0,0,0,0,0,0,0,0,0,0,0,
0,0,0,0,0,0,0,0,0,0,0,0,0,0,0,0,
0,0,0,0,0,0,0,0,0,0,0,0,0,0,0,0,
0,0,0,0,0,0,0,0,0,0,0,0,0,0,0,0
</chunk>
  </data>
 </layer>
 <layer id="2" name="temp" width="4" height="4">
  <data encoding="csv">
   <chunk x="-32" y="-64" width="16" height="16">
0,0,0,0,17,17,17,17,17,17,17,17,17,17,17,17,
0,0,0,0,17,17,17,17,17,17,17,17,17,17,17,17,
0,0,0,0,17,17,17,17,17,17,17,17,17,17,17,17,
0,0,0,0,0,0,0,0,0,0,0,0,0,0,0,0,
0,0,0,0,0,0,0,0,0,0,0,0,0,0,0,0,
0,0,0,0,0,0,0,0,0,0,0,0,0,0,0,0,
0,0,0,0,0,0,0,0,0,0,0,0,0,0,0,0,
0,0,0,0,0,0,0,0,0,0,0,0,0,0,0,0,
0,0,0,0,0,0,0,0,0,0,0,0,0,0,0,0,
0,0,0,0,0,0,0,0,0,0,0,0,0,0,0,0,
0,0,0,0,0,0,0,0,0,0,0,0,0,0,0,0,
0,0,0,0,0,0,0,0,0,0,0,0,0,0,0,0,
0,0,0,0,0,0,0,0,0,0,0,0,0,0,0,0,
0,0,0,0,0,0,0,0,0,0,0,0,0,0,0,0,
0,0,0,0,0,0,0,0,0,0,0,0,0,0,0,0,
0,0,0,0,0,0,0,0,0,0,0,0,0,0,0,0
</chunk>
   <chunk x="-16" y="-64" width="16" height="16">
17,17,17,17,17,17,17,17,17,17,17,17,17,17,0,0,
17,17,17,17,17,17,17,17,17,17,17,17,17,17,0,0,
17,17,17,17,17,17,17,17,17,17,17,17,17,17,0,0,
0,0,0,0,0,0,0,0,0,0,0,0,0,0,0,0,
0,0,0,0,0,0,0,0,0,0,0,0,0,0,0,0,
0,0,0,0,0,0,0,0,0,0,0,0,0,0,0,0,
0,0,0,0,0,0,0,0,0,0,0,0,0,0,0,0,
0,0,0,0,0,0,0,0,0,0,0,0,0,0,0,0,
0,0,0,0,0,0,0,0,0,0,0,0,0,0,0,0,
0,0,0,0,0,0,0,0,0,0,0,0,0,0,0,0,
0,0,0,0,0,0,0,0,0,0,0,0,0,0,0,0,
0,0,0,0,0,0,0,0,0,0,0,0,0,0,0,0,
0,0,0,0,0,0,0,0,0,0,0,0,0,0,0,0,
0,0,0,0,0,0,0,0,0,0,0,0,0,0,0,0,
0,0,0,0,0,0,0,0,0,0,0,0,0,0,0,0,
0,0,0,0,0,0,0,0,0,0,0,0,0,0,0,0
</chunk>
   <chunk x="-32" y="-48" width="16" height="16">
0,0,0,0,0,0,0,0,0,0,0,0,0,0,0,0,
0,0,0,0,0,0,0,0,0,0,0,0,0,0,0,0,
0,0,0,0,0,0,0,0,0,0,0,0,0,0,0,0,
0,0,0,0,0,0,0,0,0,0,0,0,0,0,0,0,
0,0,0,0,0,0,0,0,0,0,17,17,17,17,17,17,
0,0,0,0,0,0,0,0,0,0,17,17,17,17,17,17,
0,0,0,0,0,0,0,0,0,0,17,17,17,17,17,17,
0,0,0,0,0,0,0,0,0,0,17,17,17,17,17,17,
0,0,0,0,0,0,0,0,0,17,17,17,17,17,17,17,
0,0,0,0,0,0,0,0,0,17,17,17,17,17,17,17,
0,0,0,0,0,0,0,0,0,17,17,17,17,17,17,17,
0,0,0,0,0,0,0,0,0,17,17,17,17,17,17,17,
0,0,0,0,0,0,0,0,0,17,17,17,17,17,17,17,
0,0,0,0,0,0,0,0,0,17,17,17,17,17,17,17,
0,0,0,0,0,0,0,0,0,17,17,17,17,17,17,17,
0,0,0,0,0,0,0,0,0,17,17,17,17,17,17,17
</chunk>
   <chunk x="-16" y="-48" width="16" height="16">
0,0,0,0,0,0,0,0,0,0,0,0,0,0,0,0,
0,0,0,0,0,0,0,0,0,0,0,0,0,0,0,0,
0,0,0,0,0,0,0,0,0,0,0,0,0,0,0,0,
0,0,0,0,0,0,0,0,0,0,0,0,0,0,0,0,
17,17,17,17,17,17,17,17,17,17,0,0,0,0,0,0,
17,17,17,17,17,17,17,17,17,17,0,0,0,0,0,0,
17,17,17,17,17,17,17,17,17,17,0,0,0,0,0,0,
17,17,17,17,17,17,17,17,17,17,0,0,0,0,0,0,
17,17,17,17,17,17,17,17,17,17,0,0,0,0,0,0,
17,17,17,17,17,17,17,17,17,17,0,0,0,0,0,0,
17,17,17,17,17,17,17,17,17,17,0,0,0,0,0,0,
17,17,17,17,17,17,17,17,17,21,0,0,0,0,0,0,
17,17,17,17,17,17,17,17,17,0,0,0,0,0,0,0,
17,17,17,17,17,17,17,17,17,0,0,0,0,0,0,0,
17,17,17,17,17,17,17,17,17,0,0,0,0,0,0,0,
17,17,17,17,17,17,17,17,17,0,0,0,0,0,0,0
</chunk>
   <chunk x="80" y="-48" width="16" height="16">
0,0,0,0,0,0,0,0,0,0,0,0,0,0,0,0,
0,0,0,0,0,0,0,0,0,0,0,0,0,0,0,0,
0,0,0,0,0,0,0,0,0,0,0,0,0,0,0,0,
0,0,0,0,0,0,0,0,0,0,0,0,0,0,0,0,
0,0,0,0,0,0,0,0,0,0,0,0,0,0,0,0,
0,0,0,0,0,0,0,0,0,0,0,0,0,0,0,0,
0,0,0,0,0,0,0,0,0,0,0,0,0,0,0,0,
0,0,0,0,0,0,0,0,0,0,0,0,0,0,0,0,
0,0,0,0,0,0,0,0,0,0,0,0,0,0,0,0,
0,0,0,0,0,0,0,0,0,0,0,0,0,0,0,0,
0,0,0,0,0,0,0,0,0,0,0,0,0,0,0,0,
0,0,0,0,0,0,0,0,0,0,0,0,0,0,0,0,
0,0,0,0,0,0,0,0,0,0,0,0,0,0,0,0,
0,0,0,0,0,0,0,0,0,0,0,0,0,0,0,0,
0,0,0,0,0,0,0,0,0,0,0,0,0,0,0,0,
0,0,0,0,0,0,0,0,0,0,0,0,0,0,0,10
</chunk>
   <chunk x="96" y="-48" width="16" height="16">
0,0,0,0,0,0,0,0,0,0,0,0,0,0,0,0,
0,0,0,0,0,0,0,0,0,0,0,0,0,0,0,0,
0,0,0,0,0,0,0,0,0,0,0,0,0,0,0,0,
0,0,0,0,0,0,0,0,0,0,0,0,0,0,0,0,
0,0,0,0,0,0,0,0,0,0,0,0,0,0,0,0,
0,0,0,0,0,0,0,0,0,0,0,0,0,0,0,0,
0,0,0,0,0,0,0,0,0,0,0,0,0,0,0,0,
0,0,0,0,0,0,0,0,0,0,0,0,0,0,0,0,
0,0,0,0,0,0,0,0,0,0,0,0,0,0,0,0,
0,0,0,0,0,0,0,0,0,0,0,0,0,0,0,0,
0,0,0,0,0,0,0,0,0,0,0,0,0,0,0,0,
0,0,0,0,0,0,0,0,0,0,0,0,0,0,0,0,
0,0,0,0,0,0,0,0,0,0,0,0,0,0,0,0,
0,10,17,17,17,17,17,17,17,17,17,11,0,0,0,0,
10,17,17,17,17,17,17,17,17,17,17,17,0,0,0,0,
17,17,17,17,17,17,17,17,17,17,17,21,0,0,0,0
</chunk>
   <chunk x="-32" y="-32" width="16" height="16">
0,0,0,0,0,0,0,0,0,17,17,17,17,17,17,17,
0,0,0,0,0,0,0,0,0,17,17,17,17,17,17,17,
0,0,0,0,0,0,0,0,0,20,17,17,17,17,17,17,
0,0,0,0,0,0,0,0,0,0,17,17,17,17,17,17,
0,0,0,0,0,0,0,0,0,0,17,17,17,17,17,17,
0,0,0,0,0,0,0,0,0,0,17,17,17,17,17,17,
0,0,0,0,0,0,0,0,0,0,17,17,17,17,17,17,
0,0,0,0,0,0,0,0,0,0,20,17,17,17,17,17,
0,0,0,0,0,0,0,0,0,0,0,17,17,17,17,17,
0,0,0,0,0,0,0,0,0,0,0,17,17,17,17,17,
0,0,0,0,0,0,0,0,0,0,0,17,17,17,17,17,
0,0,0,0,0,0,0,0,0,0,0,17,17,17,17,17,
0,0,0,0,0,0,0,0,0,0,0,20,17,17,17,17,
0,0,0,0,0,0,0,0,0,0,0,0,17,17,17,17,
0,0,0,0,0,0,0,0,0,0,0,0,17,17,17,17,
0,0,0,0,0,0,0,0,0,0,0,0,17,17,17,17
</chunk>
   <chunk x="-16" y="-32" width="16" height="16">
17,17,17,17,17,17,17,17,17,0,0,0,0,0,0,0,
17,17,17,17,17,17,17,17,17,0,0,0,0,0,0,0,
17,17,17,17,17,17,17,17,17,0,0,0,0,0,0,0,
17,17,17,17,17,17,17,17,17,0,0,0,0,0,0,0,
17,17,17,17,17,17,17,17,17,0,0,0,0,0,0,0,
17,17,17,17,17,17,17,17,17,0,0,0,0,0,0,0,
17,17,17,17,17,17,17,17,17,0,0,0,0,0,0,0,
17,17,17,17,17,17,17,17,17,0,0,0,0,0,0,0,
17,17,17,17,17,17,17,17,17,0,0,0,0,0,0,0,
17,17,17,17,17,17,17,17,17,0,0,0,0,0,0,0,
17,17,17,17,17,17,17,17,21,0,0,0,0,0,0,0,
17,17,17,17,17,17,17,17,0,0,0,0,0,0,0,0,
17,17,17,17,17,17,17,21,0,0,0,0,0,0,0,0,
17,17,17,17,17,17,17,0,0,0,0,0,0,0,0,0,
17,17,17,17,17,17,17,0,0,0,0,0,0,0,0,0,
17,17,17,17,17,17,17,0,0,0,0,0,0,0,0,0
</chunk>
   <chunk x="64" y="-32" width="16" height="16">
0,0,0,0,0,0,0,0,0,0,0,0,0,0,0,0,
0,0,0,0,0,0,0,0,0,0,0,0,0,0,0,0,
0,0,0,0,0,0,0,0,0,0,0,0,0,0,0,0,
0,0,0,0,0,0,0,27,28,17,0,0,0,0,0,0,
0,0,0,0,0,0,10,17,17,17,0,0,0,0,0,0,
0,0,0,0,0,10,17,17,17,17,0,0,0,0,0,0,
0,0,0,0,0,17,17,17,17,17,17,17,17,17,17,17,
0,0,0,0,0,17,17,17,17,17,17,17,17,17,17,17,
0,0,0,0,0,17,17,17,17,17,17,17,17,17,17,17,
0,0,0,0,0,17,17,17,17,17,17,17,17,17,17,39,
0,0,0,0,0,17,17,17,17,17,17,17,17,17,17,0,
0,0,0,0,0,17,17,17,17,17,17,17,17,17,17,17,
0,0,0,0,0,17,17,17,17,17,17,17,17,17,17,17,
0,0,0,0,0,17,17,17,17,17,17,17,17,17,17,17,
0,0,0,0,0,17,17,17,17,17,17,17,17,17,17,17,
0,0,0,0,0,17,17,17,17,17,17,17,17,17,17,17
</chunk>
   <chunk x="80" y="-32" width="16" height="16">
0,0,0,0,0,0,0,0,0,0,0,0,0,0,10,17,
0,0,0,0,0,0,0,0,0,0,0,0,0,10,17,17,
0,0,0,0,0,0,0,0,0,0,0,27,28,17,17,17,
0,0,0,0,0,0,0,0,0,0,17,17,17,17,17,17,
0,0,0,0,0,0,0,0,0,0,17,17,17,17,17,17,
0,0,0,0,0,0,0,27,28,17,17,17,17,17,17,17,
17,17,17,17,17,17,17,17,17,17,17,17,39,40,0,0,
17,17,17,17,17,17,17,17,17,17,39,40,0,0,0,0,
17,17,17,17,17,17,17,39,40,0,0,0,0,0,0,0,
40,37,38,17,17,39,40,0,0,0,0,0,0,0,0,0,
0,0,0,0,0,0,0,0,0,0,0,0,0,0,0,0,
11,0,0,0,0,0,0,27,28,17,17,17,17,17,17,17,
17,11,0,0,0,0,10,17,17,17,17,17,17,17,17,17,
17,17,11,0,0,0,17,17,17,17,17,17,17,17,17,17,
17,17,17,0,0,0,17,17,17,17,17,17,17,17,17,17,
17,17,17,0,0,0,17,17,17,17,17,17,17,17,17,17
</chunk>
   <chunk x="96" y="-32" width="16" height="16">
17,17,17,17,17,17,17,17,17,17,17,0,0,0,0,0,
17,17,17,17,17,17,17,17,17,17,17,0,0,0,0,0,
17,17,17,17,17,17,17,17,17,17,21,0,0,0,0,0,
17,17,17,17,17,17,17,17,17,21,0,0,0,0,0,0,
17,17,17,17,17,17,17,17,17,0,0,0,0,0,0,0,
17,17,17,17,17,17,17,17,21,0,0,0,0,0,0,0,
0,0,0,0,0,0,0,0,0,0,0,0,0,0,0,0,
0,0,0,0,0,0,0,0,0,0,0,0,0,0,0,0,
0,0,0,0,0,0,0,0,0,0,0,0,0,0,0,0,
0,0,0,0,0,0,0,0,0,0,0,0,0,0,0,0,
0,0,0,0,0,0,0,0,0,0,0,0,0,0,0,0,
17,17,17,17,17,17,17,17,17,17,17,17,17,17,17,17,
17,17,17,17,17,17,17,17,17,17,17,17,17,17,17,17,
17,17,17,17,17,17,17,17,17,17,17,17,17,17,17,17,
17,17,17,17,17,17,17,17,17,17,17,17,17,17,17,17,
17,17,17,17,17,17,17,17,17,17,17,17,17,17,17,17
</chunk>
   <chunk x="112" y="-32" width="16" height="16">
0,0,0,0,0,0,0,0,0,0,0,0,0,0,0,0,
0,0,0,0,0,0,0,0,0,0,0,0,0,0,0,0,
0,0,0,0,0,0,0,0,0,0,0,0,0,0,0,0,
0,0,0,0,0,0,0,0,0,0,0,0,0,0,0,0,
0,0,0,0,0,0,0,0,0,0,0,0,0,0,0,0,
0,0,0,0,0,0,0,0,0,0,0,0,0,0,0,0,
0,0,0,0,0,0,0,0,0,0,0,0,0,0,0,0,
0,0,0,0,0,0,0,0,0,0,0,0,0,0,0,0,
0,0,0,0,0,0,0,0,0,0,0,0,0,0,0,0,
0,0,0,0,0,0,0,0,0,0,0,0,0,0,0,0,
0,0,0,0,0,0,0,0,0,0,0,0,0,0,0,0,
17,17,0,0,0,0,0,0,0,0,0,0,0,0,0,0,
17,17,0,0,0,0,0,0,0,0,0,0,0,0,0,0,
17,17,0,0,0,0,0,0,0,0,0,0,0,0,0,0,
17,17,0,0,0,0,0,0,0,0,0,0,0,0,0,0,
17,17,0,0,0,0,0,0,0,0,0,0,0,0,0,0
</chunk>
   <chunk x="-32" y="-16" width="16" height="16">
0,0,0,0,0,0,0,0,0,0,0,0,17,17,17,17,
0,0,0,0,0,0,0,0,0,0,0,0,20,17,17,17,
0,0,0,0,0,0,0,0,0,0,0,0,0,17,17,17,
0,0,0,0,0,0,0,0,0,0,0,0,0,17,17,17,
0,0,0,0,0,0,0,0,0,0,0,0,0,20,17,17,
0,0,0,0,0,0,0,0,0,0,0,0,0,0,20,17,
0,0,0,0,0,0,0,0,0,0,0,0,0,0,0,20,
0,0,0,0,0,0,0,0,0,0,0,0,0,0,0,0,
0,0,0,0,0,0,0,0,0,0,0,0,0,0,0,0,
0,0,0,0,0,0,0,0,0,0,0,0,0,0,0,0,
0,0,0,0,0,0,0,0,0,0,0,0,0,0,0,0,
0,0,0,0,0,0,0,0,0,0,0,0,0,0,0,0,
0,0,0,0,0,0,0,0,0,0,0,0,0,0,0,0,
0,0,0,0,0,0,0,0,0,0,0,0,0,0,0,0,
0,0,0,0,0,0,0,0,0,0,0,0,0,0,0,0,
0,0,0,0,0,0,0,0,0,0,0,0,0,0,0,0
</chunk>
   <chunk x="-16" y="-16" width="16" height="16">
17,17,17,17,17,17,17,0,0,0,0,0,0,0,0,0,
17,17,17,17,17,17,17,0,0,0,0,0,0,0,0,0,
17,17,17,17,17,17,17,17,17,17,17,17,17,17,17,17,
17,17,17,17,17,17,17,17,17,17,17,17,17,17,17,17,
17,17,17,17,17,17,17,17,17,17,17,17,17,17,17,17,
17,17,17,17,17,17,17,17,17,17,17,17,17,17,17,17,
17,17,17,17,17,17,17,17,17,17,17,17,17,17,17,17,
0,0,37,38,17,17,17,17,17,17,17,17,17,17,17,17,
0,0,0,0,17,17,17,17,17,17,17,17,17,17,17,17,
0,0,0,0,17,17,17,17,17,17,17,17,17,17,17,17,
0,0,0,0,17,17,17,17,17,17,17,17,17,17,17,17,
0,0,0,0,17,17,17,17,17,17,17,17,17,17,17,17,
0,0,0,0,20,17,17,17,17,17,17,17,17,17,17,17,
0,0,0,0,0,17,17,17,17,17,17,17,17,17,17,17,
0,0,0,0,0,17,17,17,17,17,17,17,17,17,17,17,
0,0,0,0,0,20,17,17,17,17,17,17,17,17,17,17
</chunk>
   <chunk x="0" y="-16" width="16" height="16">
0,0,0,0,0,0,0,0,0,0,0,0,0,0,0,0,
0,0,0,0,0,0,0,0,0,0,0,0,0,0,0,0,
17,17,17,17,17,17,17,17,17,17,17,17,17,17,17,17,
17,17,17,17,17,17,17,17,17,17,17,17,17,17,17,17,
17,17,17,17,17,17,17,17,17,17,17,17,17,17,17,17,
17,17,17,17,17,17,17,17,17,17,17,17,17,17,17,17,
17,17,17,17,17,17,17,17,17,17,17,17,17,17,17,17,
17,17,17,17,17,17,17,17,17,17,17,17,17,17,17,17,
17,17,17,17,17,17,17,17,17,17,17,17,17,17,17,17,
17,17,17,17,17,17,17,17,17,17,17,17,17,17,17,17,
17,17,17,17,17,17,17,17,17,17,17,17,17,17,17,17,
17,17,17,17,17,17,17,17,17,17,17,17,17,17,17,17,
17,17,17,17,17,17,17,17,17,17,17,17,17,17,17,17,
17,17,17,17,17,17,17,17,17,17,17,17,17,17,17,17,
17,17,17,17,17,17,17,17,17,17,17,17,17,17,17,17,
17,17,17,17,17,17,17,17,17,17,17,17,17,17,17,17
</chunk>
   <chunk x="16" y="-16" width="16" height="16">
0,0,0,0,0,0,0,0,0,0,0,0,0,0,0,0,
0,0,0,0,0,27,28,17,17,17,17,17,17,29,30,0,
17,17,17,17,17,17,17,17,17,17,17,17,17,17,17,17,
17,17,17,17,17,17,17,17,17,17,17,17,17,17,17,17,
17,17,17,17,17,17,17,17,17,17,17,17,17,17,17,17,
17,17,17,17,17,17,17,17,17,17,17,17,17,17,17,17,
17,17,17,17,17,17,17,17,17,17,17,17,17,17,17,17,
17,17,17,17,17,17,17,17,17,17,17,17,17,17,17,17,
17,17,17,17,17,17,17,17,17,17,17,17,17,17,17,17,
17,17,17,17,17,17,17,17,17,17,17,17,17,17,17,17,
17,17,17,17,17,17,17,17,17,17,17,17,17,17,17,17,
17,17,17,17,17,17,17,17,17,17,17,17,17,17,17,17,
17,17,17,17,17,17,17,17,17,17,17,17,17,17,17,17,
17,17,17,17,17,17,17,17,17,17,17,17,17,17,17,17,
17,17,17,17,17,17,17,17,17,17,17,17,17,17,17,17,
17,17,17,17,17,17,17,17,17,17,17,17,17,17,17,17
</chunk>
   <chunk x="32" y="-16" width="16" height="16">
0,0,0,0,0,0,0,0,0,0,0,0,0,0,0,0,
0,0,0,0,0,0,0,0,0,0,0,0,0,0,0,0,
17,17,17,29,30,0,0,0,0,0,0,0,0,0,0,0,
17,17,17,17,17,0,0,0,0,0,0,0,0,0,0,0,
17,17,17,17,17,0,0,0,0,0,0,0,0,0,0,0,
17,17,17,17,17,17,17,29,30,0,0,0,0,0,0,0,
17,17,17,17,17,17,17,17,17,29,30,0,0,0,0,0,
17,17,17,17,17,17,17,17,17,17,17,0,0,0,0,0,
17,17,17,17,17,17,17,17,17,17,17,0,0,0,0,0,
17,17,17,17,17,17,17,17,17,17,0,0,0,0,0,0,
17,17,17,17,17,17,17,17,17,17,0,0,0,0,0,0,
17,17,17,17,17,17,17,17,17,17,17,0,0,0,0,0,
17,17,17,17,17,17,17,17,17,17,17,0,0,0,0,0,
17,17,17,17,17,17,17,39,40,0,0,0,0,0,0,0,
17,17,17,17,17,17,17,0,0,0,0,0,0,0,0,0,
17,17,17,17,17,17,17,0,0,0,0,0,0,0,0,0
</chunk>
   <chunk x="64" y="-16" width="16" height="16">
0,0,0,0,0,20,17,17,17,17,17,17,17,17,17,17,
0,0,0,0,0,0,20,17,17,17,17,17,17,17,17,17,
0,0,0,0,0,0,0,20,17,17,17,17,17,17,17,17,
0,0,0,0,0,0,0,0,17,17,17,17,17,17,17,17,
0,0,0,0,0,0,0,0,0,0,0,0,0,0,0,0,
0,0,0,0,0,0,0,0,0,0,0,0,0,0,0,0,
0,0,0,0,0,0,0,0,0,0,0,0,0,0,0,0,
0,0,0,0,0,0,0,0,0,0,0,0,0,0,0,0,
0,0,0,0,0,0,0,0,0,0,0,0,0,0,0,0,
0,0,0,0,0,0,0,0,0,0,0,0,0,0,0,10,
0,0,0,0,0,0,0,0,0,0,0,0,0,0,10,17,
0,0,0,0,0,0,0,0,0,0,0,0,27,28,17,17,
0,0,0,0,0,0,0,0,0,0,0,10,17,17,17,17,
0,0,0,0,0,0,0,0,0,27,28,17,17,17,17,17,
0,0,0,0,0,0,0,0,10,17,17,17,17,17,17,17,
0,0,0,0,0,0,27,28,17,17,17,17,17,17,17,17
</chunk>
   <chunk x="80" y="-16" width="16" height="16">
17,17,17,0,0,0,17,17,17,17,17,17,17,17,17,17,
17,39,40,0,0,0,17,17,17,17,17,17,17,17,17,17,
17,0,0,0,0,0,17,17,17,17,17,17,17,17,17,17,
21,0,0,0,0,0,17,17,17,17,17,17,17,17,17,17,
0,0,0,0,0,0,17,17,17,17,17,17,17,17,17,17,
0,0,0,0,0,0,17,17,17,17,17,17,17,17,17,21,
0,0,0,0,10,17,17,17,17,17,17,17,17,17,17,0,
0,0,27,28,17,17,17,17,17,17,17,17,17,17,17,0,
27,28,17,17,17,17,17,17,17,17,17,17,17,17,21,0,
17,17,17,17,17,17,17,17,17,17,17,17,17,17,0,0,
17,17,17,17,17,17,17,17,17,17,17,17,17,17,0,0,
17,17,17,17,17,17,17,17,17,17,17,17,17,17,0,0,
17,17,17,17,17,17,17,17,17,17,17,17,17,17,0,0,
17,17,17,17,17,17,17,17,17,17,17,17,17,17,0,0,
17,17,17,17,17,17,17,17,17,17,17,17,17,17,0,0,
17,17,17,17,17,17,17,17,17,17,17,17,17,21,0,0
</chunk>
   <chunk x="96" y="-16" width="16" height="16">
17,17,17,17,17,39,40,0,0,0,0,0,0,0,0,0,
17,17,17,17,21,0,0,0,0,0,0,0,0,0,0,0,
17,17,39,40,0,0,0,0,0,0,0,0,0,0,0,0,
39,40,0,0,0,0,0,0,0,0,0,0,0,0,0,0,
0,0,0,0,0,0,0,0,0,0,0,0,0,0,0,0,
0,0,0,0,0,0,0,0,0,0,0,0,0,0,0,0,
0,0,0,0,0,0,0,0,0,0,0,0,0,0,0,0,
0,0,0,0,0,0,0,0,0,0,0,0,0,0,0,0,
0,0,0,0,0,0,0,0,0,0,0,0,0,0,0,0,
0,0,0,0,0,0,0,0,0,0,0,0,0,0,0,0,
0,0,0,0,0,0,0,0,0,0,0,0,0,0,0,0,
0,0,0,0,0,0,0,0,0,0,0,0,0,0,0,0,
0,0,0,0,0,0,0,0,0,0,0,0,0,0,0,0,
0,0,0,0,0,0,0,0,0,0,0,0,0,0,0,0,
0,0,0,0,0,0,0,0,0,0,0,0,0,0,0,0,
0,0,0,0,0,0,0,0,0,0,0,0,0,0,0,0
</chunk>
   <chunk x="-16" y="0" width="16" height="16">
0,0,0,0,0,0,17,17,17,17,17,17,17,17,17,17,
0,0,0,0,0,0,20,17,17,17,17,17,17,17,17,17,
0,0,0,0,0,0,0,37,38,17,17,17,17,17,17,17,
0,0,0,0,0,0,0,0,0,20,17,17,17,17,17,17,
0,0,0,0,0,0,0,0,0,0,20,17,17,17,17,17,
0,0,0,0,0,0,0,0,0,0,0,17,17,17,17,17,
0,0,0,0,0,0,0,0,0,0,0,17,17,17,17,17,
0,0,0,0,0,0,0,0,0,0,0,20,17,17,17,17,
0,0,0,0,0,0,0,0,0,0,0,0,17,17,17,17,
0,0,0,0,0,0,0,0,0,0,0,0,20,17,17,17,
0,0,0,0,0,0,0,0,0,0,0,0,0,20,17,17,
0,0,0,0,0,0,0,0,0,0,0,0,0,0,20,17,
0,0,0,0,0,0,0,0,0,0,0,0,0,0,0,20,
0,0,0,0,0,0,0,0,0,0,0,0,0,0,0,0,
0,0,0,0,0,0,0,0,0,0,0,0,0,0,0,0,
0,0,0,0,0,0,0,0,0,0,0,0,0,0,0,0
</chunk>
   <chunk x="0" y="0" width="16" height="16">
17,17,17,17,17,17,17,17,17,17,17,17,17,17,17,17,
17,17,17,17,17,17,17,17,17,17,17,17,17,17,17,17,
17,17,17,17,17,17,17,17,17,17,17,17,17,17,17,17,
17,17,17,17,17,17,17,17,17,17,17,17,17,17,17,17,
17,17,17,17,17,17,17,17,17,17,17,17,17,17,17,17,
17,17,17,17,17,17,17,17,17,17,17,17,17,17,17,17,
17,17,17,17,17,17,17,17,17,17,17,17,17,17,17,17,
17,17,17,17,17,17,17,17,17,17,17,17,17,17,17,17,
17,17,17,17,17,17,17,17,17,17,17,17,17,17,17,17,
17,17,17,17,17,17,17,17,17,17,17,17,17,17,17,17,
17,17,17,17,17,17,17,17,17,17,17,17,17,17,17,17,
17,17,17,17,17,17,17,17,17,17,17,17,17,17,17,17,
17,17,17,17,17,17,17,17,17,17,17,17,17,17,17,17,
37,38,17,17,17,17,39,40,0,0,0,0,0,0,0,0,
0,0,0,0,0,0,0,0,0,0,0,0,0,0,0,0,
0,0,0,0,0,0,0,0,0,0,0,0,0,0,0,0
</chunk>
   <chunk x="16" y="0" width="16" height="16">
17,17,17,17,17,17,17,17,17,17,17,17,17,17,17,17,
17,17,17,17,17,17,17,17,17,17,17,17,17,17,17,17,
17,17,17,17,17,17,17,17,17,17,17,17,17,17,17,17,
17,17,17,17,17,17,17,17,17,17,17,17,17,17,17,17,
17,17,17,17,17,17,17,17,17,17,17,17,17,17,17,17,
17,17,17,17,17,17,17,17,17,17,17,17,17,17,17,17,
17,17,17,17,17,17,17,17,17,17,17,17,17,17,17,17,
17,17,17,17,17,17,17,17,17,17,17,17,17,17,17,17,
17,17,17,17,17,17,17,17,17,17,17,17,17,17,17,17,
17,17,17,17,17,17,17,17,17,17,17,17,17,17,17,17,
17,17,17,17,17,17,17,17,17,17,17,17,17,17,17,17,
17,17,17,17,17,17,17,17,17,17,17,17,17,17,17,17,
17,17,17,17,17,17,17,17,17,17,17,17,17,17,17,17,
0,0,0,0,0,0,37,38,17,17,17,17,17,17,17,17,
0,0,0,0,0,0,0,0,0,0,0,0,0,0,0,0,
0,0,0,0,0,0,0,0,0,0,0,0,0,0,0,0
</chunk>
   <chunk x="32" y="0" width="16" height="16">
17,17,17,17,17,17,17,0,0,0,0,0,0,0,0,0,
17,17,17,17,17,17,17,0,0,0,0,0,0,0,0,0,
17,17,17,17,17,17,17,0,0,0,0,0,0,0,0,0,
17,17,17,17,17,17,17,17,0,0,0,0,0,0,0,0,
17,17,17,17,17,17,17,17,0,0,0,0,0,0,0,0,
17,17,17,17,17,17,17,17,17,17,17,17,17,17,17,17,
17,17,17,17,17,17,17,17,17,17,17,17,17,17,17,17,
17,17,17,17,17,17,17,17,17,17,17,17,17,17,17,17,
17,17,17,17,17,17,17,17,17,17,17,17,17,17,17,17,
17,17,17,17,17,17,17,17,17,17,17,17,17,17,17,17,
17,17,17,17,17,17,17,17,17,17,17,17,17,17,17,17,
17,17,17,17,17,17,17,17,17,17,17,17,17,17,17,17,
17,17,17,17,17,17,17,17,17,17,17,17,17,17,17,17,
17,17,39,40,0,0,0,0,37,38,17,17,17,17,17,17,
0,0,0,0,0,0,0,0,0,0,0,0,37,38,17,17,
0,0,0,0,0,0,0,0,0,0,0,0,0,0,20,17
</chunk>
   <chunk x="48" y="0" width="16" height="16">
0,0,0,0,0,0,0,0,0,0,0,0,0,0,0,0,
0,0,0,0,0,0,0,0,0,0,0,0,0,0,0,0,
0,0,0,0,0,0,0,0,0,0,0,0,0,0,0,27,
0,0,0,0,0,0,0,0,0,0,0,0,27,28,17,17,
0,0,0,0,0,0,0,0,0,0,27,28,17,17,17,17,
17,17,0,0,0,0,0,17,17,17,17,17,17,17,17,17,
17,17,0,0,0,0,0,17,17,17,17,17,17,17,17,17,
17,17,0,0,0,0,0,17,17,17,17,17,17,17,17,17,
17,17,0,0,0,0,0,17,17,17,17,17,17,17,17,17,
17,17,0,0,0,0,0,17,17,17,17,17,17,17,17,17,
17,17,0,0,0,0,0,17,17,17,17,17,17,17,17,17,
17,17,0,0,0,0,0,17,17,17,17,17,17,17,17,17,
17,17,0,0,0,0,0,17,17,17,17,17,17,17,17,17,
17,17,0,0,0,0,0,0,0,0,0,0,0,0,0,0,
17,17,0,0,0,0,0,0,0,0,0,0,0,0,0,0,
17,17,0,0,0,0,0,0,0,0,0,0,0,0,0,0
</chunk>
   <chunk x="64" y="0" width="16" height="16">
0,0,0,0,0,10,17,17,17,17,17,17,17,17,17,17,
0,0,0,27,28,17,17,17,17,17,17,17,17,17,17,17,
28,17,17,17,17,17,17,17,17,17,17,17,17,17,17,17,
17,17,17,17,17,17,17,17,17,17,17,17,17,17,17,17,
17,17,17,17,17,17,17,17,17,17,17,17,17,17,17,17,
17,17,17,17,17,17,17,17,17,17,17,17,17,17,17,17,
17,17,17,17,17,17,17,17,17,17,17,17,17,17,17,17,
17,17,17,17,17,17,17,17,17,17,17,17,17,17,17,17,
17,17,17,17,17,17,17,17,17,17,17,17,17,17,17,17,
17,17,17,17,17,17,17,17,17,17,17,17,17,17,17,17,
17,17,17,17,17,17,17,17,17,17,17,17,17,17,17,17,
17,17,17,17,17,17,17,17,17,17,17,17,17,17,17,17,
17,17,17,17,17,17,17,17,17,17,17,17,17,17,17,17,
0,0,0,0,0,0,0,0,0,37,38,17,17,17,17,39,
0,0,0,0,0,0,0,0,0,0,0,0,0,0,0,0,
0,0,0,0,0,0,0,0,0,0,0,0,0,0,0,0
</chunk>
   <chunk x="80" y="0" width="16" height="16">
17,17,17,17,17,17,17,17,17,17,17,17,17,0,0,0,
17,17,17,17,17,17,17,17,17,17,17,17,17,0,0,0,
17,17,17,17,17,17,17,17,17,17,17,17,17,0,0,0,
17,17,17,17,17,17,17,17,17,17,17,17,21,0,0,0,
17,17,17,17,17,17,17,17,17,17,17,17,0,0,0,0,
17,17,17,17,17,17,17,17,17,17,17,21,0,0,0,0,
17,17,17,17,17,17,17,17,17,17,21,0,0,0,0,0,
17,17,17,17,17,17,17,17,17,21,0,0,0,0,0,0,
17,17,17,17,17,17,17,17,21,0,0,0,0,0,0,0,
17,17,17,17,17,17,17,21,0,0,0,0,0,0,0,0,
17,17,17,17,17,17,17,0,0,0,0,0,0,0,0,0,
17,17,17,17,17,39,40,0,0,0,0,0,0,0,0,0,
17,17,17,39,40,0,0,0,0,0,0,0,0,0,0,0,
40,0,0,0,0,0,0,0,0,0,0,0,0,0,0,0,
0,0,0,0,0,0,0,0,0,0,0,0,0,0,0,0,
0,0,0,0,0,0,0,0,0,0,0,0,0,0,0,0
</chunk>
   <chunk x="32" y="16" width="16" height="16">
0,0,0,0,0,0,0,0,0,0,0,0,0,0,0,17,
0,0,0,0,0,0,0,0,0,0,0,0,0,0,0,17,
0,0,0,0,0,0,0,0,0,0,0,0,0,0,0,17,
0,0,0,0,0,0,0,0,0,0,0,0,0,0,0,0,
0,0,0,0,0,0,0,0,0,0,0,0,0,0,0,0,
0,0,0,0,0,0,0,0,0,0,0,0,0,0,0,0,
0,0,0,0,0,0,0,0,0,0,0,0,0,0,0,0,
0,0,0,0,0,0,0,0,0,0,0,0,0,0,0,0,
0,0,0,0,0,0,0,0,0,0,0,0,0,0,0,0,
0,0,0,0,0,0,0,0,0,0,0,0,0,0,0,0,
0,0,0,0,0,0,0,0,0,0,0,0,0,0,0,0,
0,0,0,0,0,0,0,0,0,0,0,0,0,0,0,0,
0,0,0,0,0,0,0,0,0,0,0,0,0,0,0,0,
0,0,0,0,0,0,0,0,0,0,0,0,0,0,0,0,
0,0,0,0,0,0,0,0,0,0,0,0,0,0,0,0,
0,0,0,0,0,0,0,0,0,0,0,0,0,0,0,0
</chunk>
   <chunk x="48" y="16" width="16" height="16">
17,17,0,0,0,0,0,0,0,0,0,0,0,0,0,0,
17,21,0,0,0,0,0,0,0,0,0,0,0,0,0,0,
21,0,0,0,0,0,0,0,0,0,0,0,0,0,0,0,
0,0,0,0,0,0,0,0,0,0,0,0,0,0,0,0,
0,0,0,0,0,0,0,0,0,0,0,0,0,0,0,0,
0,0,0,0,0,0,0,0,0,0,0,0,0,0,0,0,
0,0,0,0,0,0,0,0,0,0,0,0,0,0,0,0,
0,0,0,0,0,0,0,0,0,0,0,0,0,0,0,0,
0,0,0,0,0,0,0,0,0,0,0,0,27,28,17,17,
0,0,0,0,0,0,0,0,0,0,0,10,17,17,17,17,
0,0,0,0,0,0,0,0,0,0,0,17,17,17,17,17,
0,0,0,0,0,0,0,0,0,0,0,17,17,17,17,17,
0,0,0,0,0,0,0,0,0,0,0,17,17,17,17,17,
0,0,0,0,0,0,0,0,0,0,0,17,17,17,17,17,
0,0,0,0,0,0,0,0,0,0,0,17,17,17,17,17,
0,0,0,0,0,0,0,0,0,0,0,17,17,17,17,17
</chunk>
   <chunk x="64" y="16" width="16" height="16">
0,0,0,0,0,0,0,0,0,0,0,0,0,0,0,0,
0,0,0,0,0,0,0,0,0,0,0,0,0,0,0,0,
0,0,0,0,0,0,0,0,0,0,0,0,0,0,0,0,
0,0,0,0,0,0,0,0,0,0,0,0,0,0,0,0,
0,0,0,0,0,0,0,0,0,0,0,0,0,0,0,0,
0,0,0,0,0,0,0,0,0,0,0,0,0,0,0,0,
0,0,0,0,0,0,0,0,0,0,0,0,0,0,0,0,
0,0,0,0,0,0,0,0,0,0,0,0,0,0,0,0,
17,17,17,17,17,29,30,0,0,0,0,0,0,0,0,0,
17,17,17,17,17,17,17,0,0,0,0,0,0,0,0,0,
17,17,17,17,17,17,17,0,0,0,0,0,0,0,0,0,
17,17,17,17,17,17,17,0,0,0,0,0,0,0,0,0,
17,17,17,17,17,17,17,0,0,0,0,0,0,0,0,0,
17,17,17,17,17,0,0,0,0,0,0,0,0,0,0,0,
17,17,17,17,17,17,0,0,0,0,0,0,0,0,0,0,
17,17,17,17,17,17,0,0,0,0,0,0,0,0,0,0
</chunk>
   <chunk x="32" y="32" width="16" height="16">
0,0,0,0,0,0,0,0,0,0,0,0,0,0,0,0,
0,0,0,0,0,0,0,0,0,0,0,0,0,0,0,0,
0,0,0,0,0,0,0,0,0,0,0,0,0,0,0,0,
0,0,0,0,0,0,0,0,0,0,0,0,0,0,0,0,
0,0,0,0,0,0,0,0,0,0,0,0,0,0,0,0,
0,0,0,0,0,0,0,0,0,17,17,17,17,0,0,0,
0,0,0,0,0,0,0,0,0,17,17,17,17,0,0,0,
0,0,0,0,0,0,0,0,0,17,17,17,17,0,0,0,
0,0,0,0,0,0,0,0,0,17,17,17,17,0,0,0,
0,0,0,0,0,0,0,0,0,17,17,17,17,0,0,0,
0,0,0,0,0,0,0,0,0,17,17,17,17,0,0,0,
0,0,0,0,0,0,0,0,0,17,17,17,17,17,17,29,
0,0,0,0,0,0,0,0,0,17,17,17,17,17,17,17,
0,0,0,0,0,0,0,0,0,17,17,17,0,0,0,0,
0,0,0,0,0,0,0,0,0,37,38,17,17,0,0,0,
0,0,0,0,0,0,0,0,0,0,0,20,17,0,0,0
</chunk>
   <chunk x="48" y="32" width="16" height="16">
0,0,0,0,0,0,0,0,0,0,0,17,17,17,17,17,
0,0,0,0,0,0,0,0,0,0,0,17,17,17,17,17,
0,0,0,0,0,0,0,0,0,0,0,17,17,17,17,17,
0,0,0,0,0,0,0,0,0,0,0,17,17,17,17,17,
0,0,0,0,0,0,0,0,0,0,0,17,17,17,17,17,
0,0,0,0,0,0,0,0,0,0,0,17,17,17,17,17,
0,0,0,0,0,0,0,0,0,0,17,17,17,17,17,17,
0,0,0,0,0,0,0,0,0,0,17,17,17,17,17,17,
0,0,0,0,0,0,0,0,0,0,17,17,17,17,17,17,
0,0,0,0,0,0,0,0,0,0,17,17,17,17,17,17,
0,0,0,0,0,0,0,0,0,0,17,17,17,17,17,17,
30,0,0,0,0,0,0,0,0,0,17,17,17,17,17,17,
17,0,0,0,0,0,0,0,0,0,17,17,17,17,17,17,
0,0,0,0,0,0,0,0,0,0,0,0,0,0,0,0,
0,0,0,0,0,0,0,0,0,0,0,0,0,0,0,0,
0,0,0,0,0,0,0,0,0,0,0,0,0,0,0,0
</chunk>
   <chunk x="64" y="32" width="16" height="16">
17,17,17,17,17,17,17,0,0,0,0,0,0,0,0,0,
17,17,17,17,17,17,17,0,0,0,0,0,0,0,0,0,
17,17,17,17,17,17,17,0,0,0,0,0,0,0,0,0,
17,17,17,17,17,17,17,0,0,0,0,0,0,0,0,0,
17,17,17,17,17,17,17,0,0,0,0,0,0,0,0,0,
17,17,17,17,17,17,17,0,0,0,0,0,0,0,0,0,
17,17,17,17,17,17,17,0,0,0,0,0,0,0,0,0,
17,17,17,17,17,17,17,0,0,0,0,0,0,0,0,0,
17,17,17,17,17,17,17,0,0,0,0,0,0,0,0,0,
17,17,17,17,17,17,17,0,0,0,0,0,0,0,0,0,
17,17,17,17,17,17,17,0,0,0,0,0,0,0,0,0,
17,17,17,17,17,17,17,17,17,17,17,17,17,17,17,17,
17,17,17,17,17,17,17,17,17,17,17,17,17,17,17,17,
0,0,0,0,0,0,0,0,0,0,0,0,0,0,0,0,
0,0,0,0,0,0,0,0,0,0,0,0,0,0,0,0,
0,0,0,0,0,0,0,0,0,0,0,0,0,0,0,0
</chunk>
   <chunk x="32" y="48" width="16" height="16">
0,0,0,0,0,0,0,0,0,0,0,0,17,0,0,0,
0,0,0,0,0,0,0,0,0,0,0,0,0,0,0,0,
0,0,0,0,0,0,0,0,0,0,0,0,0,0,0,0,
0,0,0,0,0,0,0,0,0,0,0,0,0,0,0,0,
0,0,0,0,0,0,0,0,0,0,0,0,0,0,0,0,
0,0,0,0,0,0,0,0,0,0,0,0,0,0,0,0,
0,0,0,0,0,0,0,0,0,0,0,0,0,0,0,0,
0,0,0,0,0,0,0,0,0,0,0,0,0,0,0,0,
0,0,0,0,0,0,0,0,0,0,0,0,0,0,0,0,
0,0,0,0,0,0,0,0,0,0,0,0,0,0,0,0,
0,0,0,0,0,0,0,0,0,0,0,0,0,0,0,0,
0,0,0,0,0,0,0,0,0,0,0,0,0,0,0,0,
0,0,0,0,0,0,0,0,0,0,0,0,0,0,0,0,
0,0,0,0,0,0,0,0,0,0,0,0,0,0,0,0,
0,0,0,0,0,0,0,0,0,0,0,0,0,0,0,0,
0,0,0,0,0,0,0,0,0,0,0,0,0,0,0,0
</chunk>
  </data>
 </layer>
 <layer id="4" name="ground" width="4" height="4">
  <data encoding="csv">
   <chunk x="-32" y="-80" width="16" height="16">
0,0,0,0,0,0,0,0,0,0,0,0,0,0,0,0,
0,0,0,0,0,0,0,0,0,0,0,0,0,0,0,0,
0,0,0,0,0,0,0,0,0,0,0,0,0,0,0,0,
0,0,0,0,0,0,0,0,0,0,0,0,0,0,0,0,
0,0,0,0,0,0,0,0,0,0,0,0,0,0,0,0,
0,0,0,0,0,0,0,0,0,0,0,0,0,0,0,0,
0,0,0,0,0,0,0,0,0,0,0,0,0,0,0,0,
0,0,0,0,0,0,0,0,0,0,0,0,0,0,0,0,
0,0,0,0,0,0,0,0,0,0,0,0,0,0,0,0,
0,0,0,0,0,0,0,0,0,0,0,0,0,0,0,0,
0,0,0,0,0,0,0,0,0,0,0,0,0,0,0,0,
0,0,0,0,0,0,0,0,0,0,0,0,0,0,0,0,
0,0,0,0,0,0,0,0,0,0,0,0,0,0,0,0,
0,0,0,0,0,0,0,0,0,0,0,0,0,0,0,0,
0,0,0,0,0,0,0,0,0,0,0,0,0,0,0,0,
0,0,0,97,98,99,100,100,100,100,100,100,100,100,100,100
</chunk>
   <chunk x="-16" y="-80" width="16" height="16">
0,0,0,0,0,0,0,0,0,0,0,0,0,0,0,0,
0,0,0,0,0,0,0,0,0,0,0,0,0,0,0,0,
0,0,0,0,0,0,0,0,0,0,0,0,0,0,0,0,
0,0,0,0,0,0,0,0,0,0,0,0,0,0,0,0,
0,0,0,0,0,0,0,0,0,0,0,0,0,0,0,0,
0,0,0,0,0,0,0,0,0,0,0,0,0,0,0,0,
0,0,0,0,0,0,0,0,0,0,0,0,0,0,0,0,
0,0,0,0,0,0,0,0,0,0,0,0,0,0,0,0,
0,0,0,0,0,0,0,0,0,0,0,0,0,0,0,0,
0,0,0,0,0,0,0,0,0,0,0,0,0,0,0,0,
0,0,0,0,0,0,0,0,0,0,0,0,0,0,0,0,
0,0,0,0,0,0,0,0,0,0,0,0,0,0,0,0,
0,0,0,0,0,0,0,0,0,0,0,0,0,0,0,0,
0,0,0,0,0,0,0,0,0,0,0,0,0,0,0,0,
0,0,0,0,0,0,0,0,0,0,0,0,0,0,0,0,
100,100,100,100,100,100,100,100,100,100,100,100,101,102,103,0
</chunk>
   <chunk x="-32" y="-64" width="16" height="16">
0,0,0,117,118,119,120,120,120,120,120,120,120,120,120,120,
0,0,0,137,138,139,509,509,509,509,509,509,509,509,509,509,
0,0,0,197,198,199,200,200,200,200,200,200,200,200,200,200,
0,0,0,217,218,219,220,220,220,220,220,220,220,220,220,220,
0,0,0,0,0,0,0,0,0,0,0,0,0,0,0,0,
0,0,0,0,0,0,0,0,0,0,0,0,0,0,0,0,
0,0,0,0,0,0,0,0,0,0,0,0,0,0,0,0,
0,0,0,0,0,0,0,0,0,0,0,0,0,0,0,0,
0,0,0,0,0,0,0,0,0,0,0,0,0,0,0,0,
0,0,0,0,0,0,0,0,0,0,0,0,0,0,0,0,
0,0,0,0,0,0,0,0,0,0,0,0,0,0,0,0,
0,0,0,0,0,0,0,0,0,0,0,0,0,0,0,0,
0,0,0,0,0,0,0,0,0,0,0,0,0,0,0,0,
0,0,0,0,0,0,0,0,0,0,0,0,0,0,0,0,
0,0,0,0,0,0,0,0,0,0,0,0,0,0,0,0,
0,0,0,0,0,0,0,0,0,0,0,0,0,0,0,0
</chunk>
   <chunk x="-16" y="-64" width="16" height="16">
120,120,120,120,120,120,120,120,120,120,120,120,121,122,123,0,
509,509,509,509,509,509,509,509,509,509,509,509,141,142,143,0,
200,200,200,200,200,200,200,200,200,200,200,200,201,202,203,0,
220,220,220,220,220,220,220,220,220,220,220,220,221,222,223,0,
0,0,0,0,0,0,0,0,0,0,0,0,0,0,0,0,
0,0,0,0,0,0,0,0,0,0,0,0,0,0,0,0,
0,0,0,0,0,0,0,0,0,0,0,0,0,0,0,0,
0,0,0,0,0,0,0,0,0,0,0,0,0,0,0,0,
0,0,0,0,0,0,0,0,0,0,0,0,0,0,0,0,
0,0,0,0,0,0,0,0,0,0,0,0,0,0,0,0,
0,0,0,0,0,0,0,0,0,0,0,0,0,0,0,0,
0,0,0,0,0,0,0,0,0,0,0,0,0,0,0,0,
0,0,0,0,0,0,0,0,0,0,0,0,0,0,0,0,
0,0,0,0,0,0,0,0,0,0,0,0,0,0,0,0,
0,0,0,0,0,0,0,0,0,0,0,0,0,0,0,0,
0,0,0,0,0,0,0,0,0,0,0,0,0,0,0,0
</chunk>
   <chunk x="-32" y="-48" width="16" height="16">
0,0,0,0,0,0,0,0,0,0,0,0,0,0,0,0,
0,0,0,0,0,0,0,0,0,0,0,0,0,0,0,0,
0,0,0,0,0,0,0,0,0,0,0,0,0,0,0,0,
0,0,0,0,0,0,0,0,0,97,98,99,100,100,100,100,
0,0,0,0,0,0,0,0,0,117,118,119,120,120,120,120,
0,0,0,0,0,0,0,0,0,137,138,139,509,509,509,509,
0,0,0,0,0,0,0,0,0,157,158,635,634,249,249,249,
0,0,0,0,0,0,0,0,97,190,191,633,172,160,160,160,
0,0,0,0,0,0,0,0,117,210,211,572,232,160,160,160,
0,0,0,0,0,0,0,0,157,158,591,172,160,160,160,160,
0,0,0,0,0,0,0,0,157,158,633,172,160,160,160,160,
0,0,0,0,0,0,0,0,157,158,633,172,160,160,160,160,
0,0,0,0,0,0,0,0,157,158,632,172,160,160,160,160,
0,0,0,0,0,0,0,0,157,158,632,172,160,160,160,160,
0,0,0,0,0,0,0,0,157,158,634,172,160,160,160,160,
0,0,0,0,0,0,0,0,157,158,635,172,160,160,160,160
</chunk>
   <chunk x="-16" y="-48" width="16" height="16">
0,0,0,0,0,0,0,0,0,0,0,0,0,0,0,0,
0,0,0,0,0,0,0,0,0,0,0,0,0,0,0,0,
0,0,0,0,0,0,0,0,0,0,0,0,0,0,0,0,
100,100,100,100,100,100,100,100,101,102,103,0,0,0,0,0,
120,120,120,120,120,120,120,120,121,122,123,0,0,0,0,0,
509,509,509,509,509,509,509,509,141,142,143,0,0,0,0,0,
249,249,249,249,249,249,249,169,632,162,163,0,0,0,0,0,
160,160,160,160,160,160,160,166,633,162,163,0,0,0,0,0,
160,160,160,160,160,160,160,166,634,162,163,0,0,0,0,0,
160,160,160,160,160,160,160,166,169,162,163,0,0,0,0,0,
160,160,160,160,160,160,160,166,634,162,163,0,0,0,0,0,
160,160,160,160,160,160,106,169,420,399,400,0,0,0,0,0,
160,160,160,160,160,160,166,633,162,163,0,0,0,0,0,0,
160,160,160,160,160,160,166,635,162,163,0,0,0,0,0,0,
160,160,160,160,160,160,166,169,162,163,0,0,0,0,0,0,
160,160,160,160,160,160,166,635,162,163,0,0,0,0,0,0
</chunk>
   <chunk x="80" y="-48" width="16" height="16">
0,0,0,0,0,0,0,0,0,0,0,0,0,0,0,0,
0,0,0,0,0,0,0,0,0,0,0,0,0,0,0,0,
0,0,0,0,0,0,0,0,0,0,0,0,0,0,0,0,
0,0,0,0,0,0,0,0,0,0,0,0,0,0,0,0,
0,0,0,0,0,0,0,0,0,0,0,0,0,0,0,0,
0,0,0,0,0,0,0,0,0,0,0,0,0,0,0,0,
0,0,0,0,0,0,0,0,0,0,0,0,0,0,0,0,
0,0,0,0,0,0,0,0,0,0,0,0,0,0,0,0,
0,0,0,0,0,0,0,0,0,0,0,0,0,0,0,0,
0,0,0,0,0,0,0,0,0,0,0,0,0,0,0,0,
0,0,0,0,0,0,0,0,0,0,0,0,0,0,0,0,
0,0,0,0,0,0,0,0,0,0,0,0,0,0,0,0,
0,0,0,0,0,0,0,0,0,0,0,0,0,0,0,0,
0,0,0,0,0,0,0,0,0,0,0,0,0,0,0,0,
0,0,0,0,0,0,0,0,0,0,0,0,0,0,0,338,
0,0,0,0,0,0,0,0,0,0,0,0,0,0,338,358
</chunk>
   <chunk x="96" y="-48" width="16" height="16">
0,0,0,0,0,0,0,0,0,0,0,0,0,0,0,0,
0,0,0,0,0,0,0,0,0,0,0,0,0,0,0,0,
0,0,0,0,0,0,0,0,0,0,0,0,0,0,0,0,
0,0,0,0,0,0,0,0,0,0,0,0,0,0,0,0,
0,0,0,0,0,0,0,0,0,0,0,0,0,0,0,0,
0,0,0,0,0,0,0,0,0,0,0,0,0,0,0,0,
0,0,0,0,0,0,0,0,0,0,0,0,0,0,0,0,
0,0,0,0,0,0,0,0,0,0,0,0,0,0,0,0,
0,0,0,0,0,0,0,0,0,0,0,0,0,0,0,0,
0,0,0,0,0,0,0,0,0,0,0,0,0,0,0,0,
0,0,0,0,0,0,0,0,0,0,0,0,0,0,0,0,
0,0,0,0,0,0,0,0,0,0,0,0,0,0,0,0,
0,338,99,100,100,100,100,100,100,100,100,339,0,0,0,0,
338,358,119,120,120,120,120,120,120,120,120,359,360,0,0,0,
358,378,139,509,509,509,509,509,509,509,509,379,380,0,0,0,
378,633,632,249,249,249,249,249,633,634,420,399,400,0,0,0
</chunk>
   <chunk x="-32" y="-32" width="16" height="16">
0,0,0,0,0,0,0,0,157,158,634,172,160,160,160,160,
0,0,0,0,0,0,0,0,157,158,632,172,160,160,160,160,
0,0,0,0,0,0,0,0,397,398,417,633,112,160,160,160,
0,0,0,0,0,0,0,0,0,157,158,632,172,160,160,160,
0,0,0,0,0,0,0,0,0,157,158,633,172,160,160,160,
0,0,0,0,0,0,0,0,0,157,158,169,172,160,160,160,
0,0,0,0,0,0,0,0,0,157,158,632,172,160,160,160,
0,0,0,0,0,0,0,0,0,397,398,417,635,112,160,160,
0,0,0,0,0,0,0,0,0,0,157,158,635,172,160,160,
0,0,0,0,0,0,0,0,0,0,157,158,632,172,160,160,
0,0,0,0,0,0,0,0,0,0,157,158,635,172,160,160,
0,0,0,0,0,0,0,0,0,0,157,158,635,172,160,160,
0,0,0,0,0,0,0,0,0,0,397,398,417,633,112,160,
0,0,0,0,0,0,0,0,0,0,0,157,158,633,172,160,
0,0,0,0,0,0,0,0,0,0,0,157,158,634,172,160,
0,0,0,0,0,0,0,0,0,0,0,157,158,632,172,160
</chunk>
   <chunk x="-16" y="-32" width="16" height="16">
160,160,160,160,160,160,166,632,162,163,0,0,0,0,0,0,
160,160,160,160,160,160,166,634,162,163,0,0,0,0,0,0,
160,160,160,160,160,160,166,169,162,163,0,0,0,0,0,0,
160,160,160,160,160,160,166,169,162,163,0,0,0,0,0,0,
160,160,160,160,160,160,166,169,162,163,0,0,0,0,0,0,
160,160,160,160,160,160,166,634,162,163,0,0,0,0,0,0,
160,160,160,160,160,160,166,634,162,163,0,0,0,0,0,0,
160,160,160,160,160,160,166,632,162,163,0,0,0,0,0,0,
160,160,160,160,160,160,166,634,162,163,0,0,0,0,0,0,
160,160,160,160,160,160,166,169,162,163,0,0,0,0,0,0,
160,160,160,160,160,106,635,420,399,400,0,0,0,0,0,0,
160,160,160,160,160,166,633,162,163,0,0,0,0,0,0,0,
160,160,160,160,106,635,420,399,400,0,0,0,0,0,0,0,
160,160,160,160,166,634,162,163,0,0,0,0,0,0,0,0,
160,160,160,160,166,632,162,163,0,0,0,0,0,0,0,0,
160,160,160,160,166,632,162,163,0,0,0,0,0,0,0,0
</chunk>
   <chunk x="64" y="-32" width="16" height="16">
0,0,0,0,0,0,0,0,0,0,0,0,0,0,0,0,
0,0,0,0,0,0,0,0,0,0,0,0,0,0,0,0,
0,0,0,0,0,0,0,0,343,102,103,0,0,0,0,0,
0,0,0,0,0,0,338,362,363,122,123,0,0,0,0,0,
0,0,0,0,0,338,358,382,383,162,163,0,0,0,0,0,
0,0,0,0,357,358,378,634,635,187,188,100,100,100,100,100,
0,0,0,0,377,378,635,635,566,207,208,120,120,120,120,120,
0,0,0,0,157,158,635,633,249,587,509,509,509,509,509,509,
0,0,0,0,157,158,169,172,160,226,249,249,169,169,633,635,
0,0,0,0,157,158,169,172,160,160,160,160,166,633,444,404,
0,0,0,0,157,158,169,172,160,160,160,160,166,633,187,188,
0,0,0,0,157,158,633,172,160,160,160,160,226,566,207,121,
0,0,0,0,157,158,632,172,160,160,160,160,160,226,587,141,
0,0,0,0,157,158,634,172,160,160,160,160,160,160,226,633,
0,0,0,0,157,158,635,172,160,160,160,160,160,160,160,226,
0,0,0,0,157,158,633,172,160,160,160,160,160,160,160,160
</chunk>
   <chunk x="80" y="-32" width="16" height="16">
0,0,0,0,0,0,0,0,0,0,0,0,0,338,358,378,
0,0,0,0,0,0,0,0,0,0,0,0,343,358,378,634,
0,0,0,0,0,0,0,0,0,97,98,362,363,337,169,169,
0,0,0,0,0,0,0,0,0,286,287,382,383,169,634,635,
0,0,0,0,0,0,0,0,343,306,307,635,169,633,635,633,
100,100,100,100,100,100,100,362,363,210,327,572,633,444,200,200,
120,120,120,120,120,120,120,382,383,509,591,444,404,405,220,220,
509,509,509,509,509,509,509,634,444,200,404,405,424,0,0,0,
444,443,634,635,633,633,444,404,405,220,424,0,0,0,0,0,
405,402,403,200,200,404,405,424,0,0,0,0,0,0,0,0,
339,0,423,220,220,424,0,0,343,100,100,100,100,100,100,100,
359,339,0,0,0,0,338,362,363,120,120,120,120,120,120,120,
379,359,339,0,0,357,358,382,383,509,509,509,509,509,509,509,
635,379,359,360,0,377,378,634,635,633,249,249,249,249,249,249,
635,169,379,380,0,157,158,635,169,232,160,160,160,160,160,160,
166,635,162,163,0,157,158,633,172,160,160,160,160,160,160,160
</chunk>
   <chunk x="96" y="-32" width="16" height="16">
634,635,232,160,160,160,160,160,166,169,162,163,0,0,0,0,
633,232,160,160,160,160,160,160,166,169,162,163,0,0,0,0,
172,160,160,160,160,160,160,106,635,420,399,400,0,0,0,0,
633,109,109,109,109,109,109,632,420,399,400,0,0,0,0,0,
634,635,633,633,169,169,634,181,182,183,0,0,0,0,0,0,
200,200,200,200,200,200,200,201,399,400,0,0,0,0,0,0,
220,220,220,220,220,220,220,221,419,0,0,0,0,0,0,0,
0,0,0,0,0,0,0,0,0,0,0,0,0,0,0,0,
0,0,0,0,0,0,0,0,0,0,0,0,0,0,0,0,
0,0,0,0,0,0,0,0,0,0,0,0,0,0,0,0,
100,100,100,100,100,100,100,100,100,100,100,100,100,100,100,100,
120,120,120,120,120,120,120,120,120,120,120,120,120,120,120,120,
509,509,509,509,509,509,509,509,509,509,509,509,509,509,509,509,
249,249,249,249,633,633,169,634,169,633,169,634,634,169,633,169,
160,160,160,160,166,634,633,635,633,635,169,634,169,169,632,633,
160,160,106,109,634,632,444,200,200,200,200,200,200,200,200,200
</chunk>
   <chunk x="112" y="-32" width="16" height="16">
0,0,0,0,0,0,0,0,0,0,0,0,0,0,0,0,
0,0,0,0,0,0,0,0,0,0,0,0,0,0,0,0,
0,0,0,0,0,0,0,0,0,0,0,0,0,0,0,0,
0,0,0,0,0,0,0,0,0,0,0,0,0,0,0,0,
0,0,0,0,0,0,0,0,0,0,0,0,0,0,0,0,
0,0,0,0,0,0,0,0,0,0,0,0,0,0,0,0,
0,0,0,0,0,0,0,0,0,0,0,0,0,0,0,0,
0,0,0,0,0,0,0,0,0,0,0,0,0,0,0,0,
0,0,0,0,0,0,0,0,0,0,0,0,0,0,0,0,
0,0,0,0,0,0,0,0,0,0,0,0,0,0,0,0,
101,102,103,0,0,0,0,0,0,0,0,0,0,0,0,0,
121,122,123,0,0,0,0,0,0,0,0,0,0,0,0,0,
141,142,143,0,0,0,0,0,0,0,0,0,0,0,0,0,
635,162,163,0,0,0,0,0,0,0,0,0,0,0,0,0,
181,182,183,0,0,0,0,0,0,0,0,0,0,0,0,0,
201,202,203,0,0,0,0,0,0,0,0,0,0,0,0,0
</chunk>
   <chunk x="-32" y="-16" width="16" height="16">
0,0,0,0,0,0,0,0,0,0,0,157,158,633,172,160,
0,0,0,0,0,0,0,0,0,0,0,397,398,417,635,112,
0,0,0,0,0,0,0,0,0,0,0,0,157,158,634,172,
0,0,0,0,0,0,0,0,0,0,0,0,157,158,633,172,
0,0,0,0,0,0,0,0,0,0,0,0,397,398,417,169,
0,0,0,0,0,0,0,0,0,0,0,0,0,397,398,417,
0,0,0,0,0,0,0,0,0,0,0,0,0,0,397,398,
0,0,0,0,0,0,0,0,0,0,0,0,0,0,0,418,
0,0,0,0,0,0,0,0,0,0,0,0,0,0,0,0,
0,0,0,0,0,0,0,0,0,0,0,0,0,0,0,0,
0,0,0,0,0,0,0,0,0,0,0,0,0,0,0,0,
0,0,0,0,0,0,0,0,0,0,0,0,0,0,0,0,
0,0,0,0,0,0,0,0,0,0,0,0,0,0,0,0,
0,0,0,0,0,0,0,0,0,0,0,0,0,0,0,0,
0,0,0,0,0,0,0,0,0,0,0,0,0,0,0,0,
0,0,0,0,0,0,0,0,0,0,0,0,0,0,0,0
</chunk>
   <chunk x="-16" y="-16" width="16" height="16">
160,160,160,160,166,633,162,163,0,0,0,0,0,0,0,0,
160,160,160,160,166,635,187,188,100,100,100,100,100,100,100,100,
160,160,160,160,226,566,207,208,120,120,120,120,120,120,120,120,
160,160,160,160,160,226,587,509,509,509,509,509,509,509,509,509,
109,109,109,112,160,160,226,249,249,249,249,249,249,249,249,249,
635,632,632,633,112,160,160,160,160,160,160,160,160,160,160,160,
200,200,443,632,633,112,160,160,160,160,160,160,160,160,160,160,
220,220,402,403,443,633,112,160,160,160,160,160,160,160,160,160,
0,0,0,423,158,632,172,160,160,160,160,160,160,160,160,160,
0,0,0,157,158,635,172,160,160,160,160,160,160,160,160,160,
0,0,0,157,158,633,172,160,160,160,160,160,160,160,160,160,
0,0,0,157,158,633,172,160,160,160,160,160,160,160,160,160,
0,0,0,397,398,417,633,112,160,160,160,160,160,160,160,160,
0,0,0,0,157,158,169,172,160,160,160,160,160,160,160,160,
0,0,0,0,157,158,169,172,160,160,160,160,160,160,160,160,
0,0,0,0,397,398,417,634,112,160,160,160,160,160,160,160
</chunk>
   <chunk x="0" y="-16" width="16" height="16">
0,0,0,0,0,0,0,0,0,0,0,0,0,0,0,0,
100,100,100,100,100,100,100,100,100,100,100,100,100,100,100,100,
120,120,120,120,120,120,120,120,120,120,120,120,120,120,120,120,
509,509,509,509,509,509,509,509,509,509,509,509,509,509,509,509,
249,249,249,249,249,249,249,249,249,249,249,249,249,249,249,249,
160,160,160,160,160,160,160,160,160,160,160,160,160,160,160,160,
160,160,160,160,160,160,160,160,160,160,160,160,160,160,160,160,
160,160,160,160,160,160,160,160,160,160,160,160,160,160,160,160,
160,160,160,160,160,160,160,160,160,160,160,160,160,160,160,160,
160,160,160,160,160,160,160,160,160,160,160,160,160,160,160,160,
160,160,160,160,160,160,160,160,160,160,160,160,160,160,160,160,
160,160,160,160,160,160,160,160,160,160,160,160,160,160,160,160,
160,160,160,160,160,160,160,160,160,160,160,160,160,160,160,160,
160,160,160,160,160,160,160,160,160,160,160,160,160,160,160,160,
160,160,160,160,160,160,160,160,160,160,160,160,160,160,160,160,
160,160,160,160,160,160,160,160,160,160,160,160,160,160,160,160
</chunk>
   <chunk x="16" y="-16" width="16" height="16">
0,0,0,0,0,0,343,100,100,100,100,100,100,344,345,0,
100,100,100,100,100,362,363,120,120,120,120,120,120,364,365,100,
120,120,120,120,120,382,383,509,509,509,509,509,509,384,385,120,
509,509,509,509,509,633,635,633,249,249,249,249,169,634,635,509,
249,249,249,249,249,249,249,232,160,160,160,160,226,249,249,249,
160,160,160,160,160,160,160,160,160,160,160,160,160,160,160,160,
160,160,160,160,160,160,160,160,160,160,160,160,160,160,160,160,
160,160,160,160,160,160,160,160,160,160,160,160,160,160,160,160,
160,160,160,160,160,160,160,160,160,160,160,160,160,160,160,160,
160,160,160,160,160,160,160,160,160,160,160,160,160,160,160,160,
160,160,160,160,160,160,160,160,160,160,160,160,160,160,160,160,
160,160,160,160,160,160,160,160,160,160,160,160,160,160,160,160,
160,160,160,160,160,160,160,160,160,160,160,160,160,160,160,160,
160,160,160,160,160,160,160,160,160,160,160,160,160,160,160,160,
160,160,160,160,160,160,160,160,160,160,160,160,160,160,160,160,
160,160,160,160,160,160,160,160,160,160,160,160,160,160,160,160
</chunk>
   <chunk x="32" y="-16" width="16" height="16">
0,0,0,0,0,0,0,0,0,0,0,0,0,0,0,0,
100,100,100,344,0,0,0,0,0,0,0,0,0,0,0,0,
120,120,120,364,365,366,0,0,0,0,0,0,0,0,0,0,
509,509,509,384,324,386,0,0,0,0,0,0,0,0,0,0,
249,249,632,634,187,188,100,344,345,0,0,0,0,0,0,0,
160,160,226,566,207,208,120,364,365,344,0,0,0,0,0,0,
160,160,160,226,587,509,509,384,385,364,365,366,0,0,0,0,
160,160,160,160,226,249,169,634,635,384,324,386,0,0,0,0,
160,160,160,160,160,160,226,635,633,127,128,203,0,0,0,0,
160,160,160,160,160,160,160,166,634,147,148,223,0,0,0,0,
160,160,160,160,160,160,160,166,635,187,188,103,0,0,0,0,
160,160,160,160,160,160,106,632,633,207,208,123,0,0,0,0,
160,160,160,160,160,106,634,634,444,200,202,203,0,0,0,0,
160,160,160,160,106,634,444,404,405,220,222,223,0,0,0,0,
160,160,160,160,166,635,162,424,0,0,0,0,0,0,0,0,
160,160,160,160,166,634,162,163,0,0,0,0,0,0,0,0
</chunk>
   <chunk x="64" y="-16" width="16" height="16">
0,0,0,0,397,398,417,634,112,160,160,160,160,160,160,106,
0,0,0,0,0,397,398,417,632,109,109,109,109,109,109,633,
0,0,0,0,0,0,397,398,417,169,633,635,635,634,632,181,
0,0,0,0,0,0,0,197,198,200,200,200,200,200,200,201,
0,0,0,0,0,0,0,217,218,220,220,220,220,220,220,221,
0,0,0,0,0,0,0,0,0,0,0,0,0,0,0,0,
0,0,0,0,0,0,0,0,0,0,0,0,0,0,0,0,
0,0,0,0,0,0,0,0,0,0,0,0,0,0,0,0,
0,0,0,0,0,0,0,0,0,0,0,0,0,0,0,338,
0,0,0,0,0,0,0,0,0,0,0,0,0,0,338,358,
0,0,0,0,0,0,0,0,0,0,0,0,0,343,358,378,
0,0,0,0,0,0,0,0,0,0,0,338,362,363,337,632,
0,0,0,0,0,0,0,0,0,0,343,358,382,383,635,169,
0,0,0,0,0,0,0,0,338,362,363,337,635,632,634,232,
0,0,0,0,0,0,0,343,358,382,383,632,635,249,232,160,
0,0,0,0,0,338,362,363,337,169,169,635,232,160,160,160
</chunk>
   <chunk x="80" y="-16" width="16" height="16">
169,632,162,163,0,157,158,632,172,160,160,160,160,160,160,160,
444,404,405,406,0,157,158,635,172,160,160,160,160,160,160,106,
182,183,0,0,0,157,158,633,172,160,160,160,160,160,106,634,
399,400,0,0,0,157,158,632,172,160,160,160,160,106,632,444,
419,0,0,0,0,157,158,632,172,160,160,160,160,166,635,162,
0,0,0,0,338,190,191,169,172,160,160,160,106,633,420,399,
0,0,0,343,358,119,211,572,232,160,160,160,166,632,162,163,
0,343,362,363,337,139,591,232,160,160,160,160,166,169,162,163,
362,363,382,383,632,635,232,160,160,160,160,106,634,420,399,400,
382,383,169,632,632,232,160,160,160,160,160,166,632,162,163,0,
169,633,634,249,232,160,160,160,160,160,160,166,635,162,163,0,
632,249,232,160,160,160,160,160,160,160,160,166,634,162,163,0,
232,160,160,160,160,160,160,160,160,160,160,166,632,162,163,0,
160,160,160,160,160,160,160,160,160,160,160,166,169,162,163,0,
160,160,160,160,160,160,160,160,160,160,160,166,633,162,163,0,
160,160,160,160,160,160,160,160,160,160,106,634,420,399,400,0
</chunk>
   <chunk x="96" y="-16" width="16" height="16">
106,109,632,633,444,404,405,220,220,220,220,220,220,220,220,220,
634,634,632,444,399,424,0,0,0,0,0,0,0,0,0,0,
632,444,404,405,419,0,0,0,0,0,0,0,0,0,0,0,
404,405,424,0,0,0,0,0,0,0,0,0,0,0,0,0,
424,0,0,0,0,0,0,0,0,0,0,0,0,0,0,0,
400,0,0,0,0,0,0,0,0,0,0,0,0,0,0,0,
0,0,0,0,0,0,0,0,0,0,0,0,0,0,0,0,
0,0,0,0,0,0,0,0,0,0,0,0,0,0,0,0,
0,0,0,0,0,0,0,0,0,0,0,0,0,0,0,0,
0,0,0,0,0,0,0,0,0,0,0,0,0,0,0,0,
0,0,0,0,0,0,0,0,0,0,0,0,0,0,0,0,
0,0,0,0,0,0,0,0,0,0,0,0,0,0,0,0,
0,0,0,0,0,0,0,0,0,0,0,0,0,0,0,0,
0,0,0,0,0,0,0,0,0,0,0,0,0,0,0,0,
0,0,0,0,0,0,0,0,0,0,0,0,0,0,0,0,
0,0,0,0,0,0,0,0,0,0,0,0,0,0,0,0
</chunk>
   <chunk x="112" y="-16" width="16" height="16">
221,222,223,0,0,0,0,0,0,0,0,0,0,0,0,0,
0,0,0,0,0,0,0,0,0,0,0,0,0,0,0,0,
0,0,0,0,0,0,0,0,0,0,0,0,0,0,0,0,
0,0,0,0,0,0,0,0,0,0,0,0,0,0,0,0,
0,0,0,0,0,0,0,0,0,0,0,0,0,0,0,0,
0,0,0,0,0,0,0,0,0,0,0,0,0,0,0,0,
0,0,0,0,0,0,0,0,0,0,0,0,0,0,0,0,
0,0,0,0,0,0,0,0,0,0,0,0,0,0,0,0,
0,0,0,0,0,0,0,0,0,0,0,0,0,0,0,0,
0,0,0,0,0,0,0,0,0,0,0,0,0,0,0,0,
0,0,0,0,0,0,0,0,0,0,0,0,0,0,0,0,
0,0,0,0,0,0,0,0,0,0,0,0,0,0,0,0,
0,0,0,0,0,0,0,0,0,0,0,0,0,0,0,0,
0,0,0,0,0,0,0,0,0,0,0,0,0,0,0,0,
0,0,0,0,0,0,0,0,0,0,0,0,0,0,0,0,
0,0,0,0,0,0,0,0,0,0,0,0,0,0,0,0
</chunk>
   <chunk x="-16" y="0" width="16" height="16">
0,0,0,0,0,157,158,169,634,112,160,160,160,160,160,160,
0,0,0,0,0,397,398,443,169,634,112,160,160,160,160,160,
0,0,0,0,0,0,418,402,403,443,632,112,160,160,160,160,
0,0,0,0,0,0,0,0,423,398,417,633,112,160,160,160,
0,0,0,0,0,0,0,0,0,397,398,417,169,112,160,160,
0,0,0,0,0,0,0,0,0,0,157,158,632,172,160,160,
0,0,0,0,0,0,0,0,0,0,157,158,635,172,160,160,
0,0,0,0,0,0,0,0,0,0,397,398,417,169,112,160,
0,0,0,0,0,0,0,0,0,0,0,157,158,169,172,160,
0,0,0,0,0,0,0,0,0,0,0,397,398,417,635,112,
0,0,0,0,0,0,0,0,0,0,0,0,397,398,417,632,
0,0,0,0,0,0,0,0,0,0,0,0,0,397,398,417,
0,0,0,0,0,0,0,0,0,0,0,0,0,0,397,398,
0,0,0,0,0,0,0,0,0,0,0,0,0,0,0,418,
0,0,0,0,0,0,0,0,0,0,0,0,0,0,0,0,
0,0,0,0,0,0,0,0,0,0,0,0,0,0,0,0
</chunk>
   <chunk x="0" y="0" width="16" height="16">
160,160,160,160,160,160,160,160,160,160,160,160,160,160,160,160,
160,160,160,160,160,160,160,160,160,160,160,160,160,160,160,160,
160,160,160,160,160,160,160,160,160,160,160,160,160,160,160,160,
160,160,160,160,160,160,160,160,160,160,160,160,160,160,160,160,
160,160,160,160,160,160,160,160,160,160,160,160,160,160,160,160,
160,160,160,160,160,160,160,160,160,160,160,160,160,160,160,160,
160,160,160,160,160,160,160,160,160,160,160,160,160,160,160,160,
160,160,160,160,160,160,160,160,160,160,160,160,160,160,160,160,
160,160,160,160,160,160,160,160,160,160,160,160,160,160,160,160,
160,160,160,160,160,160,160,160,160,160,160,160,160,160,160,160,
109,112,160,160,160,160,106,109,109,109,109,109,109,109,109,109,
635,634,109,109,109,109,632,633,632,632,169,169,634,633,632,632,
443,634,169,169,169,169,633,444,200,200,200,200,200,200,200,200,
402,403,200,200,200,200,404,405,220,220,220,220,220,220,220,220,
0,423,220,220,220,220,424,0,0,0,0,0,0,0,0,0,
0,0,0,0,0,0,0,0,0,0,0,0,0,0,0,0
</chunk>
   <chunk x="16" y="0" width="16" height="16">
160,160,160,160,160,160,160,160,160,160,160,160,160,160,160,160,
160,160,160,160,160,160,160,160,160,160,160,160,160,160,160,160,
160,160,160,160,160,160,160,160,160,160,160,160,160,160,160,160,
160,160,160,160,160,160,160,160,160,160,160,160,160,160,160,160,
160,160,160,160,160,160,160,160,160,160,160,160,160,160,160,160,
160,160,160,160,160,160,160,160,160,160,160,160,160,160,160,160,
160,160,160,160,160,160,160,160,160,160,160,160,160,160,160,160,
160,160,160,160,160,160,160,160,160,160,160,160,160,160,160,160,
160,160,160,160,160,160,160,160,160,160,160,160,160,160,160,160,
160,160,160,160,160,160,160,160,160,160,160,160,160,160,160,160,
109,109,109,109,109,109,109,112,160,160,160,160,160,160,160,160,
635,634,634,632,635,169,169,632,109,109,109,109,109,109,109,109,
200,200,200,200,200,200,443,635,634,169,635,169,635,632,632,635,
220,220,220,220,220,220,402,403,200,200,200,200,200,200,200,200,
0,0,0,0,0,0,0,423,220,220,220,220,220,220,220,220,
0,0,0,0,0,0,0,0,0,0,0,0,0,0,0,0
</chunk>
   <chunk x="32" y="0" width="16" height="16">
160,160,160,160,166,632,162,163,0,0,0,0,0,0,0,0,
160,160,160,160,166,169,162,163,0,0,0,0,0,0,0,0,
160,160,160,160,166,634,187,268,269,0,0,0,0,0,0,0,
160,160,160,160,226,566,207,288,289,0,0,0,0,0,0,0,
160,160,160,160,160,166,587,308,309,100,100,100,100,100,100,100,
160,160,160,160,160,226,566,328,329,120,120,120,120,120,120,120,
160,160,160,160,160,160,226,587,509,509,509,509,509,509,509,509,
160,160,160,160,160,160,160,226,249,249,249,249,249,249,249,635,
160,160,160,160,160,160,160,160,160,160,160,160,160,160,160,166,
160,160,160,160,160,160,160,160,160,160,160,160,160,160,160,166,
160,160,106,109,109,109,109,109,109,112,160,160,160,160,160,166,
109,109,634,633,635,632,633,633,169,169,109,109,109,112,160,166,
634,632,634,444,200,200,200,200,443,169,169,634,169,633,109,634,
200,200,404,405,220,220,220,220,402,403,200,200,443,632,169,635,
220,220,424,0,0,0,0,0,0,423,220,220,402,403,443,633,
0,0,0,0,0,0,0,0,0,0,0,0,0,423,398,417
</chunk>
   <chunk x="48" y="0" width="16" height="16">
0,0,0,0,0,0,0,0,0,0,0,0,0,0,0,0,
0,0,0,0,0,0,0,0,0,0,0,0,0,0,0,0,
0,0,0,0,0,0,0,0,0,0,0,0,0,343,100,362,
0,0,0,0,0,0,0,0,0,0,0,343,362,363,120,382,
101,102,103,0,0,0,97,98,99,100,362,363,382,383,509,633,
121,122,123,0,0,0,117,118,119,120,382,383,169,633,632,249,
141,142,143,0,0,0,137,138,139,509,634,633,633,249,232,160,
169,162,163,0,0,0,157,158,635,635,249,249,232,160,160,160,
632,162,163,0,0,0,157,158,169,172,160,160,160,160,160,160,
169,162,163,0,0,0,157,158,169,172,160,160,160,160,160,160,
169,162,163,0,0,0,157,158,633,634,109,109,109,109,109,109,
635,162,163,0,0,0,177,178,179,633,635,635,635,634,633,169,
633,162,163,0,0,0,197,198,199,200,200,200,200,200,200,200,
169,162,163,0,0,0,217,218,219,220,220,220,220,220,220,220,
632,162,163,0,0,0,0,0,0,0,0,0,0,0,0,0,
635,162,163,0,0,0,0,0,0,0,0,0,0,0,0,0
</chunk>
   <chunk x="64" y="0" width="16" height="16">
0,0,0,0,343,358,382,383,633,169,249,232,160,160,160,160,
343,100,100,362,363,337,632,635,633,232,160,160,160,160,160,160,
363,120,120,382,383,169,169,249,232,160,160,160,160,160,160,160,
383,509,509,634,169,634,232,160,160,160,160,160,160,160,160,160,
635,632,249,249,249,232,160,160,160,160,160,160,160,160,160,160,
249,232,160,160,160,160,160,160,160,160,160,160,160,160,160,160,
160,160,160,160,160,160,160,160,160,160,160,160,160,160,160,160,
160,160,160,160,160,160,160,160,160,160,160,160,160,160,160,160,
160,160,160,160,160,160,160,160,160,160,160,160,160,160,160,160,
160,160,160,160,160,160,160,160,160,160,160,160,160,160,160,160,
109,109,109,109,109,109,109,109,109,109,112,160,160,160,160,106,
635,635,632,635,635,632,632,634,633,634,632,109,109,109,109,632,
200,200,200,200,200,200,200,200,200,443,635,632,633,634,633,634,
220,220,220,220,220,220,220,220,220,402,403,200,200,200,200,404,
0,0,0,0,0,0,0,0,0,0,423,220,220,220,220,424,
0,0,0,0,0,0,0,0,0,0,0,0,0,0,0,0
</chunk>
   <chunk x="80" y="0" width="16" height="16">
160,160,160,160,160,160,160,160,160,160,166,634,162,163,0,0,
160,160,160,160,160,160,160,160,160,160,166,635,162,163,0,0,
160,160,160,160,160,160,160,160,160,160,166,635,162,163,0,0,
160,160,160,160,160,160,160,160,160,106,632,420,399,400,0,0,
160,160,160,160,160,160,160,160,160,166,633,162,163,0,0,0,
160,160,160,160,160,160,160,160,106,169,420,399,400,0,0,0,
160,160,160,160,160,160,160,106,634,420,399,400,0,0,0,0,
160,160,160,160,160,160,106,633,420,399,400,0,0,0,0,0,
160,160,160,160,160,106,633,420,399,400,0,0,0,0,0,0,
160,160,160,106,109,169,420,399,400,0,0,0,0,0,0,0,
109,109,109,632,633,632,162,163,0,0,0,0,0,0,0,0,
634,634,634,633,444,404,405,406,0,0,0,0,0,0,0,0,
444,200,200,404,405,424,0,0,0,0,0,0,0,0,0,0,
405,220,220,424,0,0,0,0,0,0,0,0,0,0,0,0,
0,0,0,0,0,0,0,0,0,0,0,0,0,0,0,0,
0,0,0,0,0,0,0,0,0,0,0,0,0,0,0,0
</chunk>
   <chunk x="32" y="16" width="16" height="16">
0,0,0,0,0,0,0,0,0,0,0,0,0,0,157,158,
0,0,0,0,0,0,0,0,0,0,0,0,0,0,157,158,
0,0,0,0,0,0,0,0,0,0,0,0,0,0,197,198,
0,0,0,0,0,0,0,0,0,0,0,0,0,0,217,218,
0,0,0,0,0,0,0,0,0,0,0,0,0,0,0,0,
0,0,0,0,0,0,0,0,0,0,0,0,0,0,0,0,
0,0,0,0,0,0,0,0,0,0,0,0,0,0,0,0,
0,0,0,0,0,0,0,0,0,0,0,0,0,0,0,0,
0,0,0,0,0,0,0,0,0,0,0,0,0,0,0,0,
0,0,0,0,0,0,0,0,0,0,0,0,0,0,0,0,
0,0,0,0,0,0,0,0,0,0,0,0,0,0,0,0,
0,0,0,0,0,0,0,0,0,0,0,0,0,0,0,0,
0,0,0,0,0,0,0,0,0,0,0,0,0,0,0,0,
0,0,0,0,0,0,0,0,0,0,0,0,0,0,0,0,
0,0,0,0,0,0,0,0,0,0,0,0,0,0,0,0,
0,0,0,0,0,0,0,0,0,0,0,0,0,0,0,0
</chunk>
   <chunk x="48" y="16" width="16" height="16">
634,162,163,0,0,0,0,0,0,0,0,0,0,0,0,0,
420,399,400,0,0,0,0,0,0,0,0,0,0,0,0,0,
399,400,0,0,0,0,0,0,0,0,0,0,0,0,0,0,
419,0,0,0,0,0,0,0,0,0,0,0,0,0,0,0,
0,0,0,0,0,0,0,0,0,0,0,0,0,0,0,0,
0,0,0,0,0,0,0,0,0,0,0,0,0,0,0,0,
0,0,0,0,0,0,0,0,0,0,0,0,0,0,0,0,
0,0,0,0,0,0,0,0,0,0,0,0,0,343,100,100,
0,0,0,0,0,0,0,0,0,0,0,338,362,363,120,120,
0,0,0,0,0,0,0,0,0,0,357,358,382,383,509,509,
0,0,0,0,0,0,0,0,0,0,377,378,169,635,635,249,
0,0,0,0,0,0,0,0,0,0,157,158,169,169,232,160,
0,0,0,0,0,0,0,0,0,0,157,158,635,172,160,160,
0,0,0,0,0,0,0,0,0,0,157,158,169,172,160,160,
0,0,0,0,0,0,0,0,0,0,157,158,633,172,160,160,
0,0,0,0,0,0,0,0,0,0,157,158,169,172,160,160
</chunk>
   <chunk x="64" y="16" width="16" height="16">
0,0,0,0,0,0,0,0,0,0,0,0,0,0,0,0,
0,0,0,0,0,0,0,0,0,0,0,0,0,0,0,0,
0,0,0,0,0,0,0,0,0,0,0,0,0,0,0,0,
0,0,0,0,0,0,0,0,0,0,0,0,0,0,0,0,
0,0,0,0,0,0,0,0,0,0,0,0,0,0,0,0,
0,0,0,0,0,0,0,0,0,0,0,0,0,0,0,0,
0,0,0,0,0,0,0,0,0,0,0,0,0,0,0,0,
100,100,100,100,100,344,0,0,0,0,0,0,0,0,0,0,
120,120,120,120,120,364,365,366,0,0,0,0,0,0,0,0,
509,509,509,509,509,384,324,386,0,0,0,0,0,0,0,0,
249,249,249,249,632,635,162,163,0,0,0,0,0,0,0,0,
160,160,160,160,166,181,182,183,0,0,0,0,0,0,0,0,
160,160,160,106,127,201,202,203,0,0,0,0,0,0,0,0,
160,160,106,634,147,221,222,223,0,0,0,0,0,0,0,0,
160,160,226,566,207,288,289,0,0,0,0,0,0,0,0,0,
160,160,160,166,587,308,309,103,0,0,0,0,0,0,0,0
</chunk>
   <chunk x="32" y="32" width="16" height="16">
0,0,0,0,0,0,0,0,0,0,0,0,0,0,0,0,
0,0,0,0,0,0,0,0,0,0,0,0,0,0,0,0,
0,0,0,0,0,0,0,0,0,0,0,0,0,0,0,0,
0,0,0,0,0,0,0,0,0,0,0,0,0,0,0,0,
0,0,0,0,0,0,0,0,97,98,99,101,102,103,0,0,
0,0,0,0,0,0,0,0,117,118,119,121,122,123,0,0,
0,0,0,0,0,0,0,0,137,138,139,141,142,143,0,0,
0,0,0,0,0,0,0,0,157,158,633,633,162,163,0,0,
0,0,0,0,0,0,0,0,157,158,169,635,162,163,0,0,
0,0,0,0,0,0,0,0,157,158,632,169,162,163,0,0,
0,0,0,0,0,0,0,0,157,158,632,169,187,188,100,344,
0,0,0,0,0,0,0,0,157,158,169,635,207,208,120,364,
0,0,0,0,0,0,0,0,157,158,634,127,128,200,200,632,
0,0,0,0,0,0,0,0,157,158,632,147,148,103,220,0,
0,0,0,0,0,0,0,0,401,402,403,443,208,123,0,0,
0,0,0,0,0,0,0,0,0,0,423,398,417,163,0,0
</chunk>
   <chunk x="48" y="32" width="16" height="16">
0,0,0,0,0,0,0,0,0,0,157,158,169,172,160,160,
0,0,0,0,0,0,0,0,0,0,157,158,632,172,160,160,
0,0,0,0,0,0,0,0,0,0,157,158,169,172,160,160,
0,0,0,0,0,0,0,0,0,0,157,158,632,172,160,160,
0,0,0,0,0,0,0,0,0,0,157,158,633,172,160,160,
0,0,0,0,0,0,0,0,0,97,190,191,633,172,160,160,
0,0,0,0,0,0,0,0,0,117,210,211,572,232,160,160,
0,0,0,0,0,0,0,0,0,157,158,591,172,160,160,160,
0,0,0,0,0,0,0,0,0,157,158,635,172,160,160,160,
0,0,0,0,0,0,0,0,0,157,158,632,172,160,160,160,
0,0,0,0,0,0,0,0,0,157,158,633,634,109,109,109,
365,0,0,0,0,0,0,0,0,177,178,179,169,632,635,632,
202,203,0,0,0,0,0,0,0,197,198,199,200,200,200,200,
222,223,0,0,0,0,0,0,0,217,218,219,220,220,220,220,
0,0,0,0,0,0,0,0,0,0,0,0,0,0,0,0,
0,0,0,0,0,0,0,0,0,0,0,0,0,0,0,0
</chunk>
   <chunk x="64" y="32" width="16" height="16">
160,160,160,226,566,328,208,123,0,0,0,0,0,0,0,0,
160,160,160,160,166,587,162,163,0,0,0,0,0,0,0,0,
160,160,160,160,166,169,162,163,0,0,0,0,0,0,0,0,
160,160,160,160,166,632,162,163,0,0,0,0,0,0,0,0,
160,160,160,160,166,633,162,163,0,0,0,0,0,0,0,0,
160,160,160,160,166,635,162,163,0,0,0,0,0,0,0,0,
160,160,160,160,166,169,162,163,0,0,0,0,0,0,0,0,
160,160,160,160,166,633,162,163,0,0,0,0,0,0,0,0,
160,160,160,160,166,634,162,163,0,0,0,0,0,0,0,0,
160,160,160,160,166,632,162,163,0,0,0,0,0,0,0,0,
109,109,109,109,633,169,187,188,100,100,100,100,100,100,100,102,
632,632,169,633,169,635,207,208,120,120,120,120,120,120,120,122,
200,200,200,200,200,200,200,200,200,200,200,200,200,200,200,202,
220,220,220,220,220,220,220,220,220,220,220,220,220,220,220,222,
0,0,0,0,0,0,0,0,0,0,0,0,0,0,0,0,
0,0,0,0,0,0,0,0,0,0,0,0,0,0,0,0
</chunk>
   <chunk x="80" y="32" width="16" height="16">
0,0,0,0,0,0,0,0,0,0,0,0,0,0,0,0,
0,0,0,0,0,0,0,0,0,0,0,0,0,0,0,0,
0,0,0,0,0,0,0,0,0,0,0,0,0,0,0,0,
0,0,0,0,0,0,0,0,0,0,0,0,0,0,0,0,
0,0,0,0,0,0,0,0,0,0,0,0,0,0,0,0,
0,0,0,0,0,0,0,0,0,0,0,0,0,0,0,0,
0,0,0,0,0,0,0,0,0,0,0,0,0,0,0,0,
0,0,0,0,0,0,0,0,0,0,0,0,0,0,0,0,
0,0,0,0,0,0,0,0,0,0,0,0,0,0,0,0,
0,0,0,0,0,0,0,0,0,0,0,0,0,0,0,0,
103,0,0,0,0,0,0,0,0,0,0,0,0,0,0,0,
123,0,0,0,0,0,0,0,0,0,0,0,0,0,0,0,
203,0,0,0,0,0,0,0,0,0,0,0,0,0,0,0,
223,0,0,0,0,0,0,0,0,0,0,0,0,0,0,0,
0,0,0,0,0,0,0,0,0,0,0,0,0,0,0,0,
0,0,0,0,0,0,0,0,0,0,0,0,0,0,0,0
</chunk>
   <chunk x="32" y="48" width="16" height="16">
0,0,0,0,0,0,0,0,0,0,0,599,600,601,0,0,
0,0,0,0,0,0,0,0,0,0,0,619,620,621,0,0,
0,0,0,0,0,0,0,0,0,0,0,0,0,0,0,0,
0,0,0,0,0,0,0,0,0,0,0,0,0,0,0,0,
0,0,0,0,0,0,0,0,0,0,0,0,0,0,0,0,
0,0,0,0,0,0,0,0,0,0,0,0,0,0,0,0,
0,0,0,0,0,0,0,0,0,0,0,0,0,0,0,0,
0,0,0,0,0,0,0,0,0,0,0,0,0,0,0,0,
0,0,0,0,0,0,0,0,0,0,0,0,0,0,0,0,
0,0,0,0,0,0,0,0,0,0,0,0,0,0,0,0,
0,0,0,0,0,0,0,0,0,0,0,0,0,0,0,0,
0,0,0,0,0,0,0,0,0,0,0,0,0,0,0,0,
0,0,0,0,0,0,0,0,0,0,0,0,0,0,0,0,
0,0,0,0,0,0,0,0,0,0,0,0,0,0,0,0,
0,0,0,0,0,0,0,0,0,0,0,0,0,0,0,0,
0,0,0,0,0,0,0,0,0,0,0,0,0,0,0,0
</chunk>
  </data>
 </layer>
</map>
