<?xml version="1.0" encoding="UTF-8"?>
<map version="1.10" tiledversion="1.12.0" orientation="orthogonal" renderorder="right-down" width="30" height="17" tilewidth="16" tileheight="16" infinite="1" nextlayerid="4" nextobjectid="1">
 <tileset firstgid="1" source="../tileset template.tsx"/>
 <tileset firstgid="51" source="../tangled incomplete tileset.tsx"/>
 <layer id="1" name="template" width="30" height="17">
  <data encoding="csv">
   <chunk x="-16" y="-16" width="16" height="16">
0,0,0,0,0,0,0,0,0,0,0,0,0,0,0,0,
0,0,0,0,0,0,0,0,0,0,0,0,0,0,0,0,
0,0,0,0,0,0,0,0,0,0,0,0,0,0,0,0,
0,0,0,0,0,0,0,0,0,0,0,0,0,0,0,0,
0,0,0,0,0,0,0,0,0,0,0,0,0,0,0,0,
0,0,0,0,0,0,0,0,0,0,0,0,0,0,0,0,
0,0,0,0,0,0,0,0,0,0,0,0,0,0,0,0,
0,0,0,0,0,0,0,0,0,0,0,0,0,0,0,0,
0,0,0,0,0,0,0,0,0,0,0,0,0,0,0,0,
0,0,0,0,0,0,0,0,0,0,0,0,0,0,0,0,
0,0,0,0,0,0,0,0,0,0,0,0,0,0,0,0,
0,0,0,0,0,0,0,0,0,0,0,12,12,12,12,12,
0,0,0,0,0,0,0,0,0,0,0,12,12,12,12,12,
0,0,0,0,0,0,0,0,0,0,0,12,12,12,12,12,
0,0,0,0,0,0,0,0,0,0,0,12,12,12,12,12,
0,0,0,0,0,0,0,0,0,0,0,12,12,12,12,12
</chunk>
   <chunk x="0" y="-16" width="16" height="16">
0,0,0,0,0,0,0,0,0,0,0,0,0,0,0,0,
0,0,0,0,0,0,0,0,0,0,0,0,0,0,0,0,
0,0,0,0,0,0,0,0,0,0,0,0,0,0,0,0,
0,0,0,0,0,0,0,0,0,0,0,0,0,0,0,0,
0,0,0,0,0,0,0,0,0,0,0,0,0,0,0,0,
0,0,0,0,0,0,0,0,0,0,0,0,0,0,0,0,
0,0,0,0,0,0,0,0,0,0,0,0,0,0,0,0,
0,0,0,0,0,0,0,0,0,0,0,0,0,0,0,0,
0,0,0,0,0,0,0,0,0,0,0,0,0,0,0,0,
0,0,0,0,0,0,0,0,0,0,0,0,0,0,0,0,
0,0,0,0,0,0,0,0,0,0,0,0,0,0,0,0,
12,12,12,12,12,12,12,12,12,12,12,12,12,12,12,12,
12,12,12,12,12,12,12,12,12,12,12,12,12,12,12,12,
12,12,12,12,12,12,12,12,12,12,12,12,12,12,12,12,
12,12,12,12,12,12,12,12,12,12,12,12,12,12,12,12,
12,12,12,12,12,12,12,12,12,12,12,12,12,12,12,12
</chunk>
   <chunk x="16" y="-16" width="16" height="16">
0,0,0,0,0,0,0,0,0,0,0,0,0,0,0,0,
0,0,0,0,0,0,0,0,0,0,0,0,0,0,0,0,
0,0,0,0,0,0,0,0,0,0,0,0,0,0,0,0,
0,0,0,0,0,0,0,0,0,0,0,0,0,0,0,0,
0,0,0,0,0,0,0,0,0,0,0,0,0,0,0,0,
0,0,0,0,0,0,0,0,0,0,0,0,0,0,0,0,
0,0,0,0,0,0,0,0,0,0,0,0,0,0,0,0,
0,0,0,0,0,0,0,0,0,0,0,0,0,0,0,0,
0,0,0,0,0,0,0,0,0,0,0,0,0,0,0,0,
0,0,0,0,0,0,0,0,0,0,0,0,0,0,0,0,
0,0,0,0,0,0,0,0,0,0,0,0,0,0,0,0,
12,12,12,12,12,12,12,12,12,12,12,12,12,12,12,12,
12,12,12,12,12,12,12,12,12,12,12,12,12,12,12,12,
12,12,12,12,12,12,12,12,12,12,12,12,12,12,12,12,
12,12,12,12,12,12,12,12,12,12,12,12,12,12,12,12,
12,12,12,12,12,12,12,12,12,12,12,12,12,12,12,12
</chunk>
   <chunk x="32" y="-16" width="16" height="16">
0,0,0,0,0,0,0,0,0,0,0,0,0,0,0,0,
0,0,0,0,0,0,0,0,0,0,0,0,0,0,0,0,
0,0,0,0,0,0,0,0,0,0,0,0,0,0,0,0,
0,0,0,0,0,0,0,0,0,0,0,0,0,0,0,0,
0,0,0,0,0,0,0,0,0,0,0,0,0,0,0,0,
0,0,0,0,0,0,0,0,0,0,0,0,0,0,0,0,
0,0,0,0,0,0,0,0,0,0,0,0,0,0,0,0,
0,0,0,0,0,0,0,0,0,0,0,0,0,0,0,0,
0,0,0,0,0,0,0,0,0,0,0,0,0,0,0,0,
0,0,0,0,0,0,0,0,0,0,0,0,0,0,0,0,
0,0,0,0,0,0,0,0,0,0,0,0,0,0,0,0,
12,12,12,12,12,0,0,0,0,0,0,0,0,0,0,0,
12,12,12,12,12,0,0,0,0,0,0,0,0,0,0,0,
12,12,12,12,12,0,0,0,0,0,0,0,0,0,0,0,
12,12,12,12,12,0,0,0,0,0,0,0,0,0,0,0,
12,12,12,12,12,0,0,0,0,0,0,0,0,0,0,0
</chunk>
   <chunk x="-16" y="0" width="16" height="16">
0,0,0,0,0,0,0,0,0,0,0,12,12,12,12,12,
0,0,0,0,0,0,0,0,0,0,0,12,12,12,12,12,
0,0,0,0,0,0,0,0,0,0,0,12,12,12,12,12,
0,0,0,0,0,0,0,0,0,0,0,12,12,12,12,12,
0,0,0,0,0,0,0,0,0,0,0,12,12,12,12,12,
0,0,0,0,0,0,0,0,0,0,0,12,12,12,12,12,
0,0,0,0,0,0,0,0,0,0,0,12,12,12,12,12,
0,0,0,0,0,0,0,0,0,0,0,12,12,12,12,12,
0,0,0,0,0,0,0,0,0,0,0,12,12,12,12,12,
0,0,0,0,0,0,0,0,0,0,0,12,12,12,12,12,
0,0,0,0,0,0,0,0,0,0,0,12,12,12,12,12,
0,0,0,0,0,0,0,0,0,0,0,12,12,12,12,12,
0,0,0,0,0,0,0,0,0,0,0,12,12,12,12,12,
0,0,0,0,0,0,0,0,0,0,0,12,12,12,12,12,
0,0,0,0,0,0,0,0,0,0,0,12,12,12,12,12,
0,0,0,0,0,0,0,0,0,0,0,12,12,12,12,12
</chunk>
   <chunk x="0" y="0" width="16" height="16">
12,12,12,12,12,12,12,12,12,12,12,12,12,12,12,12,
12,12,12,12,12,12,12,12,12,12,12,12,12,12,12,12,
12,12,12,12,12,12,0,0,0,0,0,0,0,0,0,0,
12,12,12,12,0,0,0,0,0,0,0,0,0,0,0,0,
12,12,12,0,0,0,0,0,0,0,0,0,0,0,0,0,
12,12,12,0,0,0,0,0,0,0,0,0,0,0,0,0,
12,12,12,0,0,0,0,0,0,0,0,0,0,0,0,0,
12,12,0,0,0,0,0,0,0,0,0,0,0,0,0,0,
12,12,0,0,0,0,0,0,0,0,0,0,0,0,0,0,
12,12,0,0,0,0,0,0,0,0,0,0,0,0,0,0,
12,12,0,0,0,0,0,0,0,0,0,0,0,0,0,0,
12,12,12,0,0,0,0,0,0,0,0,0,12,12,12,12,
12,12,12,12,0,0,0,0,0,0,0,0,12,12,12,12,
12,12,12,12,12,12,0,0,0,0,0,0,12,12,12,12,
12,12,12,12,12,12,12,12,12,12,12,12,12,12,12,12,
12,12,12,12,12,12,12,12,12,12,12,12,12,12,12,12
</chunk>
   <chunk x="16" y="0" width="16" height="16">
12,12,12,12,12,12,12,12,12,12,12,12,12,12,12,12,
12,12,12,12,12,12,12,12,12,12,12,12,12,12,12,12,
0,0,0,0,0,0,0,0,0,0,12,12,12,12,12,12,
0,0,0,0,0,0,0,0,0,0,0,0,12,12,12,12,
0,0,0,0,0,0,0,0,0,0,0,0,0,12,12,12,
0,0,0,0,0,0,0,0,0,0,0,0,0,12,12,12,
0,0,0,0,0,0,0,0,0,0,0,0,0,12,12,12,
0,0,0,0,0,0,0,0,0,0,0,0,0,0,12,12,
0,0,0,0,0,0,0,0,0,0,0,0,0,0,12,12,
0,0,0,0,0,0,0,0,0,0,0,0,0,0,12,12,
0,0,0,0,0,0,0,0,0,0,0,0,0,0,12,12,
12,12,12,12,0,0,0,0,0,0,0,0,0,12,12,12,
12,12,12,12,0,0,0,0,0,0,0,0,12,12,12,12,
12,12,12,12,0,0,0,0,0,0,12,12,12,12,12,12,
12,12,12,12,12,12,12,12,12,12,12,12,12,12,12,12,
12,12,12,12,12,12,12,12,12,12,12,12,12,12,12,12
</chunk>
   <chunk x="32" y="0" width="16" height="16">
12,12,12,12,12,0,0,0,0,0,0,0,0,0,0,0,
12,12,12,12,12,0,0,0,0,0,0,0,0,0,0,0,
12,12,12,12,12,0,0,0,0,0,0,0,0,0,0,0,
12,12,12,12,12,0,0,0,0,0,0,0,0,0,0,0,
12,12,12,12,12,0,0,0,0,0,0,0,0,0,0,0,
12,12,12,12,12,0,0,0,0,0,0,0,0,0,0,0,
12,12,12,12,12,0,0,0,0,0,0,0,0,0,0,0,
12,12,12,12,12,0,0,0,0,0,0,0,0,0,0,0,
12,12,12,12,12,0,0,0,0,0,0,0,0,0,0,0,
12,12,12,12,12,0,0,0,0,0,0,0,0,0,0,0,
12,12,12,12,12,0,0,0,0,0,0,0,0,0,0,0,
12,12,12,12,12,0,0,0,0,0,0,0,0,0,0,0,
12,12,12,12,12,0,0,0,0,0,0,0,0,0,0,0,
12,12,12,12,12,0,0,0,0,0,0,0,0,0,0,0,
12,12,12,12,12,0,0,0,0,0,0,0,0,0,0,0,
12,12,12,12,12,0,0,0,0,0,0,0,0,0,0,0
</chunk>
   <chunk x="-16" y="16" width="16" height="16">
0,0,0,0,0,0,0,0,0,0,0,12,12,12,12,12,
0,0,0,0,0,0,0,0,0,0,0,12,12,12,12,12,
0,0,0,0,0,0,0,0,0,0,0,12,12,12,12,12,
0,0,0,0,0,0,0,0,0,0,0,12,12,12,12,12,
0,0,0,0,0,0,0,0,0,0,0,12,12,12,12,12,
0,0,0,0,0,0,0,0,0,0,0,0,0,0,0,0,
0,0,0,0,0,0,0,0,0,0,0,0,0,0,0,0,
0,0,0,0,0,0,0,0,0,0,0,0,0,0,0,0,
0,0,0,0,0,0,0,0,0,0,0,0,0,0,0,0,
0,0,0,0,0,0,0,0,0,0,0,0,0,0,0,0,
0,0,0,0,0,0,0,0,0,0,0,0,0,0,0,0,
0,0,0,0,0,0,0,0,0,0,0,0,0,0,0,0,
0,0,0,0,0,0,0,0,0,0,0,0,0,0,0,0,
0,0,0,0,0,0,0,0,0,0,0,0,0,0,0,0,
0,0,0,0,0,0,0,0,0,0,0,0,0,0,0,0,
0,0,0,0,0,0,0,0,0,0,0,0,0,0,0,0
</chunk>
   <chunk x="0" y="16" width="16" height="16">
12,12,12,12,12,12,12,12,12,12,12,12,12,12,12,12,
12,12,12,12,12,12,12,12,12,12,12,12,12,12,12,12,
12,12,12,12,12,12,12,12,12,12,12,12,12,12,12,12,
12,12,12,12,12,12,12,12,12,12,12,12,12,12,12,12,
12,12,12,12,12,12,12,12,12,12,12,12,12,12,12,12,
0,0,0,0,0,0,0,0,0,0,0,0,0,0,0,0,
0,0,0,0,0,0,0,0,0,0,0,0,0,0,0,0,
0,0,0,0,0,0,0,0,0,0,0,0,0,0,0,0,
0,0,0,0,0,0,0,0,0,0,0,0,0,0,0,0,
0,0,0,0,0,0,0,0,0,0,0,0,0,0,0,0,
0,0,0,0,0,0,0,0,0,0,0,0,0,0,0,0,
0,0,0,0,0,0,0,0,0,0,0,0,0,0,0,0,
0,0,0,0,0,0,0,0,0,0,0,0,0,0,0,0,
0,0,0,0,0,0,0,0,0,0,0,0,0,0,0,0,
0,0,0,0,0,0,0,0,0,0,0,0,0,0,0,0,
0,0,0,0,0,0,0,0,0,0,0,0,0,0,0,0
</chunk>
   <chunk x="16" y="16" width="16" height="16">
12,12,12,12,12,12,12,12,12,12,12,12,12,12,12,12,
12,12,12,12,12,12,12,12,12,12,12,12,12,12,12,12,
12,12,12,12,12,12,12,12,12,12,12,12,12,12,12,12,
12,12,12,12,12,12,12,12,12,12,12,12,12,12,12,12,
12,12,12,12,12,12,12,12,12,12,12,12,12,12,12,12,
0,0,0,0,0,0,0,0,0,0,0,0,0,0,0,0,
0,0,0,0,0,0,0,0,0,0,0,0,0,0,0,0,
0,0,0,0,0,0,0,0,0,0,0,0,0,0,0,0,
0,0,0,0,0,0,0,0,0,0,0,0,0,0,0,0,
0,0,0,0,0,0,0,0,0,0,0,0,0,0,0,0,
0,0,0,0,0,0,0,0,0,0,0,0,0,0,0,0,
0,0,0,0,0,0,0,0,0,0,0,0,0,0,0,0,
0,0,0,0,0,0,0,0,0,0,0,0,0,0,0,0,
0,0,0,0,0,0,0,0,0,0,0,0,0,0,0,0,
0,0,0,0,0,0,0,0,0,0,0,0,0,0,0,0,
0,0,0,0,0,0,0,0,0,0,0,0,0,0,0,0
</chunk>
   <chunk x="32" y="16" width="16" height="16">
12,12,12,12,12,0,0,0,0,0,0,0,0,0,0,0,
12,12,12,12,12,0,0,0,0,0,0,0,0,0,0,0,
12,12,12,12,12,0,0,0,0,0,0,0,0,0,0,0,
12,12,12,12,12,0,0,0,0,0,0,0,0,0,0,0,
12,12,12,12,12,0,0,0,0,0,0,0,0,0,0,0,
0,0,0,0,0,0,0,0,0,0,0,0,0,0,0,0,
0,0,0,0,0,0,0,0,0,0,0,0,0,0,0,0,
0,0,0,0,0,0,0,0,0,0,0,0,0,0,0,0,
0,0,0,0,0,0,0,0,0,0,0,0,0,0,0,0,
0,0,0,0,0,0,0,0,0,0,0,0,0,0,0,0,
0,0,0,0,0,0,0,0,0,0,0,0,0,0,0,0,
0,0,0,0,0,0,0,0,0,0,0,0,0,0,0,0,
0,0,0,0,0,0,0,0,0,0,0,0,0,0,0,0,
0,0,0,0,0,0,0,0,0,0,0,0,0,0,0,0,
0,0,0,0,0,0,0,0,0,0,0,0,0,0,0,0,
0,0,0,0,0,0,0,0,0,0,0,0,0,0,0,0
</chunk>
  </data>
 </layer>
 <layer id="2" name="temp" width="30" height="17">
  <data encoding="csv">
   <chunk x="-16" y="-16" width="16" height="16">
0,0,0,0,0,0,0,0,0,0,0,0,0,0,0,0,
0,0,0,0,0,0,0,0,0,0,0,0,0,0,0,0,
0,0,0,0,0,0,0,0,0,0,0,0,0,0,0,0,
0,0,0,0,0,0,0,0,0,0,0,0,0,0,0,0,
0,0,0,0,0,0,0,0,0,0,0,0,0,0,0,0,
0,0,0,0,0,0,0,0,0,0,0,0,0,0,0,0,
0,0,0,0,0,0,0,0,0,0,0,0,0,0,0,0,
0,0,0,0,0,0,0,0,0,0,0,0,0,0,0,0,
0,0,0,0,0,0,0,0,0,0,0,0,0,0,0,0,
0,0,0,0,0,0,0,0,0,0,0,0,0,0,0,0,
0,0,0,0,0,0,0,0,0,0,0,0,0,0,0,0,
0,0,0,0,0,0,0,0,0,0,0,12,12,12,12,12,
0,0,0,0,0,0,0,0,0,0,0,12,12,12,12,12,
0,0,0,0,0,0,0,0,0,0,0,12,12,12,12,12,
0,0,0,0,0,0,0,0,0,0,0,12,12,12,12,12,
0,0,0,0,0,0,0,0,0,0,0,12,12,12,12,12
</chunk>
   <chunk x="0" y="-16" width="16" height="16">
0,0,0,0,0,0,0,0,0,0,0,0,0,0,0,0,
0,0,0,0,0,0,0,0,0,0,0,0,0,0,0,0,
0,0,0,0,0,0,0,0,0,0,0,0,0,0,0,0,
0,0,0,0,0,0,0,0,0,0,0,0,0,0,0,0,
0,0,0,0,0,0,0,0,0,0,0,0,0,0,0,0,
0,0,0,0,0,0,0,0,0,0,0,0,0,0,0,0,
0,0,0,0,0,0,0,0,0,0,0,0,0,0,0,0,
0,0,0,0,0,0,0,0,0,0,0,0,0,0,0,0,
0,0,0,0,0,0,0,0,0,0,0,0,0,0,0,0,
0,0,0,0,0,0,0,0,0,0,0,0,0,0,0,0,
0,0,0,0,0,0,0,0,0,0,0,0,0,0,0,0,
12,12,12,12,12,12,12,12,12,12,12,12,12,12,12,12,
12,12,12,12,12,12,12,12,12,12,12,12,12,12,12,12,
12,12,12,12,12,12,12,12,12,12,12,12,12,12,12,12,
12,12,12,12,12,12,12,12,12,12,12,12,12,12,12,12,
12,12,12,12,12,12,12,12,12,12,12,12,12,12,12,12
</chunk>
   <chunk x="16" y="-16" width="16" height="16">
0,0,0,0,0,0,0,0,0,0,0,0,0,0,0,0,
0,0,0,0,0,0,0,0,0,0,0,0,0,0,0,0,
0,0,0,0,0,0,0,0,0,0,0,0,0,0,0,0,
0,0,0,0,0,0,0,0,0,0,0,0,0,0,0,0,
0,0,0,0,0,0,0,0,0,0,0,0,0,0,0,0,
0,0,0,0,0,0,0,0,0,0,0,0,0,0,0,0,
0,0,0,0,0,0,0,0,0,0,0,0,0,0,0,0,
0,0,0,0,0,0,0,0,0,0,0,0,0,0,0,0,
0,0,0,0,0,0,0,0,0,0,0,0,0,0,0,0,
0,0,0,0,0,0,0,0,0,0,0,0,0,0,0,0,
0,0,0,0,0,0,0,0,0,0,0,0,0,0,0,0,
12,12,12,12,12,12,12,12,12,12,12,12,12,12,12,12,
12,12,12,12,12,12,12,12,12,12,12,12,12,12,12,12,
12,12,12,12,12,12,12,12,12,12,12,12,12,12,12,12,
12,12,12,12,12,12,12,12,12,12,12,12,12,12,12,12,
12,12,12,12,12,12,12,12,12,12,12,12,12,12,12,12
</chunk>
   <chunk x="32" y="-16" width="16" height="16">
0,0,0,0,0,0,0,0,0,0,0,0,0,0,0,0,
0,0,0,0,0,0,0,0,0,0,0,0,0,0,0,0,
0,0,0,0,0,0,0,0,0,0,0,0,0,0,0,0,
0,0,0,0,0,0,0,0,0,0,0,0,0,0,0,0,
0,0,0,0,0,0,0,0,0,0,0,0,0,0,0,0,
0,0,0,0,0,0,0,0,0,0,0,0,0,0,0,0,
0,0,0,0,0,0,0,0,0,0,0,0,0,0,0,0,
0,0,0,0,0,0,0,0,0,0,0,0,0,0,0,0,
0,0,0,0,0,0,0,0,0,0,0,0,0,0,0,0,
0,0,0,0,0,0,0,0,0,0,0,0,0,0,0,0,
0,0,0,0,0,0,0,0,0,0,0,0,0,0,0,0,
12,12,12,12,12,0,0,0,0,0,0,0,0,0,0,0,
12,12,12,12,12,0,0,0,0,0,0,0,0,0,0,0,
12,12,12,12,12,0,0,0,0,0,0,0,0,0,0,0,
12,12,12,12,12,0,0,0,0,0,0,0,0,0,0,0,
12,12,12,12,12,0,0,0,0,0,0,0,0,0,0,0
</chunk>
   <chunk x="-16" y="0" width="16" height="16">
0,0,0,0,0,0,0,0,0,0,0,12,12,12,12,12,
0,0,0,0,0,0,0,0,0,0,0,12,12,12,12,12,
0,0,0,0,0,0,0,0,0,0,0,12,12,12,12,12,
0,0,0,0,0,0,0,0,0,0,0,12,12,12,12,12,
0,0,0,0,0,0,0,0,0,0,0,12,12,12,12,12,
0,0,0,0,0,0,0,0,0,0,0,12,12,12,12,12,
0,0,0,0,0,0,0,0,0,0,0,12,12,12,12,12,
0,0,0,0,0,0,0,0,0,0,0,12,12,12,12,12,
0,0,0,0,0,0,0,0,0,0,0,12,12,12,12,12,
0,0,0,0,0,0,0,0,0,0,0,12,12,12,12,12,
0,0,0,0,0,0,0,0,0,0,0,12,12,12,12,12,
0,0,0,0,0,0,0,0,0,0,0,12,12,12,12,12,
0,0,0,0,0,0,0,0,0,0,0,12,12,12,12,12,
0,0,0,0,0,0,0,0,0,0,0,12,12,12,12,12,
0,0,0,0,0,0,0,0,0,0,0,12,12,12,12,12,
0,0,0,0,0,0,0,0,0,0,0,12,12,12,12,12
</chunk>
   <chunk x="0" y="0" width="16" height="16">
12,12,12,12,12,12,12,12,12,12,12,12,12,12,12,12,
12,12,12,12,12,12,12,12,12,12,12,12,12,12,12,12,
12,12,12,12,12,12,34,35,0,0,0,0,0,0,0,0,
12,12,12,12,34,35,0,0,0,0,0,0,0,0,0,0,
12,12,12,16,0,0,0,0,0,0,0,0,0,0,0,0,
12,12,12,0,0,0,0,0,0,0,0,0,0,0,0,0,
12,12,12,0,0,0,0,0,0,0,0,0,0,0,0,0,
12,12,16,0,0,0,0,0,0,0,0,0,0,0,0,0,
12,12,0,0,0,0,0,0,0,0,0,0,0,0,0,0,
12,12,0,0,0,0,0,0,0,0,0,0,0,0,0,0,
12,12,0,0,0,0,0,0,0,0,0,0,0,0,0,0,
12,12,12,6,0,0,0,0,0,0,0,0,12,12,12,12,
12,12,12,12,24,25,0,0,0,0,0,0,12,12,12,12,
12,12,12,12,12,12,24,25,0,0,0,0,12,12,12,12,
12,12,12,12,12,12,12,12,12,12,12,12,12,12,12,12,
12,12,12,12,12,12,12,12,12,12,12,12,12,12,12,12
</chunk>
   <chunk x="16" y="0" width="16" height="16">
12,12,12,12,12,12,12,12,12,12,12,12,12,12,12,12,
12,12,12,12,12,12,12,12,12,12,12,12,12,12,12,12,
0,0,0,0,0,0,0,0,32,33,12,12,12,12,12,12,
0,0,0,0,0,0,0,0,0,0,32,33,12,12,12,12,
0,0,0,0,0,0,0,0,0,0,0,0,15,12,12,12,
0,0,0,0,0,0,0,0,0,0,0,0,0,12,12,12,
0,0,0,0,0,0,0,0,0,0,0,0,0,12,12,12,
0,0,0,0,0,0,0,0,0,0,0,0,0,15,12,12,
0,0,0,0,0,0,0,0,0,0,0,0,0,0,12,12,
0,0,0,0,0,0,0,0,0,0,0,0,0,0,12,12,
0,0,0,0,0,0,0,0,0,0,0,0,0,0,12,12,
12,12,12,12,0,0,0,0,0,0,0,0,5,12,12,12,
12,12,12,12,0,0,0,0,0,0,22,23,12,12,12,12,
12,12,12,12,0,0,0,0,22,23,12,12,12,12,12,12,
12,12,12,12,12,12,12,12,12,12,12,12,12,12,12,12,
12,12,12,12,12,12,12,12,12,12,12,12,12,12,12,12
</chunk>
   <chunk x="32" y="0" width="16" height="16">
12,12,12,12,12,0,0,0,0,0,0,0,0,0,0,0,
12,12,12,12,12,0,0,0,0,0,0,0,0,0,0,0,
12,12,12,12,12,0,0,0,0,0,0,0,0,0,0,0,
12,12,12,12,12,0,0,0,0,0,0,0,0,0,0,0,
12,12,12,12,12,0,0,0,0,0,0,0,0,0,0,0,
12,12,12,12,12,0,0,0,0,0,0,0,0,0,0,0,
12,12,12,12,12,0,0,0,0,0,0,0,0,0,0,0,
12,12,12,12,12,0,0,0,0,0,0,0,0,0,0,0,
12,12,12,12,12,0,0,0,0,0,0,0,0,0,0,0,
12,12,12,12,12,0,0,0,0,0,0,0,0,0,0,0,
12,12,12,12,12,0,0,0,0,0,0,0,0,0,0,0,
12,12,12,12,12,0,0,0,0,0,0,0,0,0,0,0,
12,12,12,12,12,0,0,0,0,0,0,0,0,0,0,0,
12,12,12,12,12,0,0,0,0,0,0,0,0,0,0,0,
12,12,12,12,12,0,0,0,0,0,0,0,0,0,0,0,
12,12,12,12,12,0,0,0,0,0,0,0,0,0,0,0
</chunk>
   <chunk x="-16" y="16" width="16" height="16">
0,0,0,0,0,0,0,0,0,0,0,12,12,12,12,12,
0,0,0,0,0,0,0,0,0,0,0,12,12,12,12,12,
0,0,0,0,0,0,0,0,0,0,0,12,12,12,12,12,
0,0,0,0,0,0,0,0,0,0,0,12,12,12,12,12,
0,0,0,0,0,0,0,0,0,0,0,12,12,12,12,12,
0,0,0,0,0,0,0,0,0,0,0,0,0,0,0,0,
0,0,0,0,0,0,0,0,0,0,0,0,0,0,0,0,
0,0,0,0,0,0,0,0,0,0,0,0,0,0,0,0,
0,0,0,0,0,0,0,0,0,0,0,0,0,0,0,0,
0,0,0,0,0,0,0,0,0,0,0,0,0,0,0,0,
0,0,0,0,0,0,0,0,0,0,0,0,0,0,0,0,
0,0,0,0,0,0,0,0,0,0,0,0,0,0,0,0,
0,0,0,0,0,0,0,0,0,0,0,0,0,0,0,0,
0,0,0,0,0,0,0,0,0,0,0,0,0,0,0,0,
0,0,0,0,0,0,0,0,0,0,0,0,0,0,0,0,
0,0,0,0,0,0,0,0,0,0,0,0,0,0,0,0
</chunk>
   <chunk x="0" y="16" width="16" height="16">
12,12,12,12,12,12,12,12,12,12,12,12,12,12,12,12,
12,12,12,12,12,12,12,12,12,12,12,12,12,12,12,12,
12,12,12,12,12,12,12,12,12,12,12,12,12,12,12,12,
12,12,12,12,12,12,12,12,12,12,12,12,12,12,12,12,
12,12,12,12,12,12,12,12,12,12,12,12,12,12,12,12,
0,0,0,0,0,0,0,0,0,0,0,0,0,0,0,0,
0,0,0,0,0,0,0,0,0,0,0,0,0,0,0,0,
0,0,0,0,0,0,0,0,0,0,0,0,0,0,0,0,
0,0,0,0,0,0,0,0,0,0,0,0,0,0,0,0,
0,0,0,0,0,0,0,0,0,0,0,0,0,0,0,0,
0,0,0,0,0,0,0,0,0,0,0,0,0,0,0,0,
0,0,0,0,0,0,0,0,0,0,0,0,0,0,0,0,
0,0,0,0,0,0,0,0,0,0,0,0,0,0,0,0,
0,0,0,0,0,0,0,0,0,0,0,0,0,0,0,0,
0,0,0,0,0,0,0,0,0,0,0,0,0,0,0,0,
0,0,0,0,0,0,0,0,0,0,0,0,0,0,0,0
</chunk>
   <chunk x="16" y="16" width="16" height="16">
12,12,12,12,12,12,12,12,12,12,12,12,12,12,12,12,
12,12,12,12,12,12,12,12,12,12,12,12,12,12,12,12,
12,12,12,12,12,12,12,12,12,12,12,12,12,12,12,12,
12,12,12,12,12,12,12,12,12,12,12,12,12,12,12,12,
12,12,12,12,12,12,12,12,12,12,12,12,12,12,12,12,
0,0,0,0,0,0,0,0,0,0,0,0,0,0,0,0,
0,0,0,0,0,0,0,0,0,0,0,0,0,0,0,0,
0,0,0,0,0,0,0,0,0,0,0,0,0,0,0,0,
0,0,0,0,0,0,0,0,0,0,0,0,0,0,0,0,
0,0,0,0,0,0,0,0,0,0,0,0,0,0,0,0,
0,0,0,0,0,0,0,0,0,0,0,0,0,0,0,0,
0,0,0,0,0,0,0,0,0,0,0,0,0,0,0,0,
0,0,0,0,0,0,0,0,0,0,0,0,0,0,0,0,
0,0,0,0,0,0,0,0,0,0,0,0,0,0,0,0,
0,0,0,0,0,0,0,0,0,0,0,0,0,0,0,0,
0,0,0,0,0,0,0,0,0,0,0,0,0,0,0,0
</chunk>
   <chunk x="32" y="16" width="16" height="16">
12,12,12,12,12,0,0,0,0,0,0,0,0,0,0,0,
12,12,12,12,12,0,0,0,0,0,0,0,0,0,0,0,
12,12,12,12,12,0,0,0,0,0,0,0,0,0,0,0,
12,12,12,12,12,0,0,0,0,0,0,0,0,0,0,0,
12,12,12,12,12,0,0,0,0,0,0,0,0,0,0,0,
0,0,0,0,0,0,0,0,0,0,0,0,0,0,0,0,
0,0,0,0,0,0,0,0,0,0,0,0,0,0,0,0,
0,0,0,0,0,0,0,0,0,0,0,0,0,0,0,0,
0,0,0,0,0,0,0,0,0,0,0,0,0,0,0,0,
0,0,0,0,0,0,0,0,0,0,0,0,0,0,0,0,
0,0,0,0,0,0,0,0,0,0,0,0,0,0,0,0,
0,0,0,0,0,0,0,0,0,0,0,0,0,0,0,0,
0,0,0,0,0,0,0,0,0,0,0,0,0,0,0,0,
0,0,0,0,0,0,0,0,0,0,0,0,0,0,0,0,
0,0,0,0,0,0,0,0,0,0,0,0,0,0,0,0,
0,0,0,0,0,0,0,0,0,0,0,0,0,0,0,0
</chunk>
  </data>
 </layer>
 <layer id="3" name="ground" width="30" height="17">
  <data encoding="csv">
   <chunk x="-16" y="-16" width="16" height="16">
0,0,0,0,0,0,0,0,0,0,0,0,0,0,0,0,
0,0,0,0,0,0,0,0,0,0,0,0,0,0,0,0,
0,0,0,0,0,0,0,0,0,0,0,0,0,0,0,0,
0,0,0,0,0,0,0,0,0,0,0,0,0,0,0,0,
0,0,0,0,0,0,0,0,0,0,0,0,0,0,0,0,
0,0,0,0,0,0,0,0,0,0,0,0,0,0,0,0,
0,0,0,0,0,0,0,0,0,0,0,0,0,0,0,0,
0,0,0,0,0,0,0,0,0,0,0,0,0,0,0,0,
0,0,0,0,0,0,0,0,0,0,0,0,0,0,0,0,
0,0,0,0,0,0,0,0,0,0,0,0,0,0,0,0,
0,0,0,0,0,0,0,0,0,0,92,93,94,95,95,95,
0,0,0,0,0,0,0,0,0,0,112,113,114,115,115,115,
0,0,0,0,0,0,0,0,0,0,132,133,134,504,504,504,
0,0,0,0,0,0,0,0,0,0,152,153,629,630,244,244,
0,0,0,0,0,0,0,0,0,0,152,153,628,167,155,155,
0,0,0,0,0,0,0,0,0,0,152,153,627,167,155,155
</chunk>
   <chunk x="0" y="-16" width="16" height="16">
0,0,0,0,0,0,0,0,0,0,0,0,0,0,0,0,
0,0,0,0,0,0,0,0,0,0,0,0,0,0,0,0,
0,0,0,0,0,0,0,0,0,0,0,0,0,0,0,0,
0,0,0,0,0,0,0,0,0,0,0,0,0,0,0,0,
0,0,0,0,0,0,0,0,0,0,0,0,0,0,0,0,
0,0,0,0,0,0,0,0,0,0,0,0,0,0,0,0,
0,0,0,0,0,0,0,0,0,0,0,0,0,0,0,0,
0,0,0,0,0,0,0,0,0,0,0,0,0,0,0,0,
0,0,0,0,0,0,0,0,0,0,0,0,0,0,0,0,
0,0,0,0,0,0,0,0,0,0,0,0,0,0,0,0,
95,95,95,95,95,95,95,95,95,95,95,95,95,95,95,95,
115,115,115,115,115,115,115,115,115,115,115,115,115,115,115,115,
504,504,504,504,504,504,504,504,504,504,504,504,504,504,504,504,
244,244,244,244,244,244,244,244,244,244,244,244,244,244,244,244,
155,155,155,155,155,155,155,155,155,155,155,155,155,155,155,155,
155,155,155,155,155,155,101,104,104,104,104,104,104,104,104,104
</chunk>
   <chunk x="16" y="-16" width="16" height="16">
0,0,0,0,0,0,0,0,0,0,0,0,0,0,0,0,
0,0,0,0,0,0,0,0,0,0,0,0,0,0,0,0,
0,0,0,0,0,0,0,0,0,0,0,0,0,0,0,0,
0,0,0,0,0,0,0,0,0,0,0,0,0,0,0,0,
0,0,0,0,0,0,0,0,0,0,0,0,0,0,0,0,
0,0,0,0,0,0,0,0,0,0,0,0,0,0,0,0,
0,0,0,0,0,0,0,0,0,0,0,0,0,0,0,0,
0,0,0,0,0,0,0,0,0,0,0,0,0,0,0,0,
0,0,0,0,0,0,0,0,0,0,0,0,0,0,0,0,
0,0,0,0,0,0,0,0,0,0,0,0,0,0,0,0,
95,95,95,95,95,95,95,95,95,95,95,95,95,95,95,95,
115,115,115,115,115,115,115,115,115,115,115,115,115,115,115,115,
504,504,504,504,504,504,504,504,504,504,504,504,504,504,504,504,
244,244,244,244,244,244,244,244,244,244,244,244,244,244,244,244,
155,155,155,155,155,155,155,155,155,155,155,155,155,155,155,155,
104,104,104,104,104,104,104,104,104,107,155,155,155,155,155,155
</chunk>
   <chunk x="32" y="-16" width="16" height="16">
0,0,0,0,0,0,0,0,0,0,0,0,0,0,0,0,
0,0,0,0,0,0,0,0,0,0,0,0,0,0,0,0,
0,0,0,0,0,0,0,0,0,0,0,0,0,0,0,0,
0,0,0,0,0,0,0,0,0,0,0,0,0,0,0,0,
0,0,0,0,0,0,0,0,0,0,0,0,0,0,0,0,
0,0,0,0,0,0,0,0,0,0,0,0,0,0,0,0,
0,0,0,0,0,0,0,0,0,0,0,0,0,0,0,0,
0,0,0,0,0,0,0,0,0,0,0,0,0,0,0,0,
0,0,0,0,0,0,0,0,0,0,0,0,0,0,0,0,
0,0,0,0,0,0,0,0,0,0,0,0,0,0,0,0,
95,95,95,96,97,98,0,0,0,0,0,0,0,0,0,0,
115,115,115,116,117,118,0,0,0,0,0,0,0,0,0,0,
504,504,504,136,137,138,0,0,0,0,0,0,0,0,0,0,
244,244,629,628,157,158,0,0,0,0,0,0,0,0,0,0,
155,155,161,627,157,158,0,0,0,0,0,0,0,0,0,0,
155,155,161,628,157,158,0,0,0,0,0,0,0,0,0,0
</chunk>
   <chunk x="-16" y="0" width="16" height="16">
0,0,0,0,0,0,0,0,0,0,152,153,629,167,155,155,
0,0,0,0,0,0,0,0,0,0,152,153,164,167,155,155,
0,0,0,0,0,0,0,0,0,0,152,153,628,167,155,155,
0,0,0,0,0,0,0,0,0,0,152,153,630,167,155,155,
0,0,0,0,0,0,0,0,0,0,152,153,630,167,155,155,
0,0,0,0,0,0,0,0,0,0,152,153,629,167,155,155,
0,0,0,0,0,0,0,0,0,0,152,153,164,167,155,155,
0,0,0,0,0,0,0,0,0,0,152,153,629,167,155,101,
0,0,0,0,0,0,0,0,0,0,152,153,164,167,155,161,
0,0,0,0,0,0,0,0,0,0,152,153,627,167,155,161,
0,0,0,0,0,0,0,0,0,0,152,153,628,167,155,161,
0,0,0,0,0,0,0,0,0,0,152,153,629,167,155,221,
0,0,0,0,0,0,0,0,0,0,152,153,629,167,155,155,
0,0,0,0,0,0,0,0,0,0,152,153,628,167,155,155,
0,0,0,0,0,0,0,0,0,0,152,153,628,167,155,155,
0,0,0,0,0,0,0,0,0,0,152,153,628,167,155,155
</chunk>
   <chunk x="0" y="0" width="16" height="16">
155,155,155,155,101,104,629,628,628,630,628,627,629,628,630,628,
155,155,155,101,164,629,629,439,195,195,195,195,195,195,195,195,
155,155,101,630,628,439,399,400,215,215,215,215,215,215,215,215,
155,101,630,439,399,400,419,0,0,0,0,0,0,0,0,0,
101,628,415,394,419,0,0,0,0,0,0,0,0,0,0,0,
161,164,157,158,0,0,0,0,0,0,0,0,0,0,0,0,
161,630,157,158,0,0,0,0,0,0,0,0,0,0,0,0,
164,415,394,395,0,0,0,0,0,0,0,0,0,0,0,0,
630,157,158,0,0,0,0,0,0,0,0,0,0,0,0,0,
630,157,158,0,0,0,0,0,0,0,0,0,0,0,0,0,
164,182,183,334,0,0,0,0,0,0,0,92,93,94,95,95,
561,202,116,354,339,340,0,0,0,0,0,112,113,114,115,115,
221,582,136,335,359,360,339,340,0,0,0,132,133,134,504,504,
155,221,627,628,379,380,359,360,95,95,95,185,186,629,627,244,
155,155,221,627,628,627,379,380,115,115,115,205,206,567,227,155,
155,155,155,221,244,628,628,629,504,504,504,504,586,227,155,155
</chunk>
   <chunk x="16" y="0" width="16" height="16">
629,627,627,164,628,164,627,164,627,627,104,107,155,155,155,155,
195,195,195,195,195,195,195,195,438,629,629,628,107,155,155,155,
215,215,215,215,215,215,215,215,397,398,438,627,164,107,155,155,
0,0,0,0,0,0,0,0,0,418,397,398,438,629,107,155,
0,0,0,0,0,0,0,0,0,0,0,418,393,412,630,107,
0,0,0,0,0,0,0,0,0,0,0,0,152,153,629,167,
0,0,0,0,0,0,0,0,0,0,0,0,152,153,630,167,
0,0,0,0,0,0,0,0,0,0,0,0,392,393,412,628,
0,0,0,0,0,0,0,0,0,0,0,0,0,152,153,627,
0,0,0,0,0,0,0,0,0,0,0,0,0,152,153,164,
95,95,96,97,98,0,0,0,0,0,0,0,333,185,186,164,
115,115,116,117,118,0,0,0,0,0,0,338,353,114,206,567,
504,504,136,137,138,0,0,0,0,338,357,358,332,134,586,227,
244,630,629,182,183,95,95,95,357,358,377,378,629,164,227,155,
155,221,561,202,203,115,115,115,377,378,164,164,628,227,155,155,
155,155,221,582,504,504,504,504,629,629,627,244,227,155,155,155
</chunk>
   <chunk x="32" y="0" width="16" height="16">
155,155,161,630,157,158,0,0,0,0,0,0,0,0,0,0,
155,155,161,627,157,158,0,0,0,0,0,0,0,0,0,0,
155,155,161,164,157,158,0,0,0,0,0,0,0,0,0,0,
155,155,161,627,157,158,0,0,0,0,0,0,0,0,0,0,
155,155,161,164,157,158,0,0,0,0,0,0,0,0,0,0,
155,155,161,628,157,158,0,0,0,0,0,0,0,0,0,0,
155,155,161,627,157,158,0,0,0,0,0,0,0,0,0,0,
107,155,161,630,157,158,0,0,0,0,0,0,0,0,0,0,
167,155,161,630,157,158,0,0,0,0,0,0,0,0,0,0,
167,155,161,629,157,158,0,0,0,0,0,0,0,0,0,0,
167,155,161,164,157,158,0,0,0,0,0,0,0,0,0,0,
227,155,161,629,157,158,0,0,0,0,0,0,0,0,0,0,
155,155,161,164,157,158,0,0,0,0,0,0,0,0,0,0,
155,155,161,164,157,158,0,0,0,0,0,0,0,0,0,0,
155,155,161,164,157,158,0,0,0,0,0,0,0,0,0,0,
155,155,161,629,157,158,0,0,0,0,0,0,0,0,0,0
</chunk>
   <chunk x="-16" y="16" width="16" height="16">
0,0,0,0,0,0,0,0,0,0,152,153,164,167,155,155,
0,0,0,0,0,0,0,0,0,0,152,153,629,167,155,155,
0,0,0,0,0,0,0,0,0,0,152,153,627,164,104,104,
0,0,0,0,0,0,0,0,0,0,172,173,174,629,627,627,
0,0,0,0,0,0,0,0,0,0,192,193,194,195,195,195,
0,0,0,0,0,0,0,0,0,0,212,213,214,215,215,215,
0,0,0,0,0,0,0,0,0,0,0,0,0,0,0,0,
0,0,0,0,0,0,0,0,0,0,0,0,0,0,0,0,
0,0,0,0,0,0,0,0,0,0,0,0,0,0,0,0,
0,0,0,0,0,0,0,0,0,0,0,0,0,0,0,0,
0,0,0,0,0,0,0,0,0,0,0,0,0,0,0,0,
0,0,0,0,0,0,0,0,0,0,0,0,0,0,0,0,
0,0,0,0,0,0,0,0,0,0,0,0,0,0,0,0,
0,0,0,0,0,0,0,0,0,0,0,0,0,0,0,0,
0,0,0,0,0,0,0,0,0,0,0,0,0,0,0,0,
0,0,0,0,0,0,0,0,0,0,0,0,0,0,0,0
</chunk>
   <chunk x="0" y="16" width="16" height="16">
155,155,155,155,155,221,244,244,244,244,244,244,227,155,155,155,
155,155,155,155,155,155,155,155,155,155,155,155,155,155,155,155,
104,104,104,104,104,104,104,104,104,104,104,104,104,104,104,104,
629,628,629,628,627,630,628,630,628,164,628,629,629,628,629,164,
195,195,195,195,195,195,195,195,195,195,195,195,195,195,195,195,
215,215,215,215,215,215,215,215,215,215,215,215,215,215,215,215,
0,0,0,0,0,0,0,0,0,0,0,0,0,0,0,0,
0,0,0,0,0,0,0,0,0,0,0,0,0,0,0,0,
0,0,0,0,0,0,0,0,0,0,0,0,0,0,0,0,
0,0,0,0,0,0,0,0,0,0,0,0,0,0,0,0,
0,0,0,0,0,0,0,0,0,0,0,0,0,0,0,0,
0,0,0,0,0,0,0,0,0,0,0,0,0,0,0,0,
0,0,0,0,0,0,0,0,0,0,0,0,0,0,0,0,
0,0,0,0,0,0,0,0,0,0,0,0,0,0,0,0,
0,0,0,0,0,0,0,0,0,0,0,0,0,0,0,0,
0,0,0,0,0,0,0,0,0,0,0,0,0,0,0,0
</chunk>
   <chunk x="16" y="16" width="16" height="16">
155,155,155,221,244,244,244,244,244,244,227,155,155,155,155,155,
155,155,155,155,155,155,155,155,155,155,155,155,155,155,155,155,
104,104,104,104,104,104,104,104,104,104,104,104,104,104,104,104,
164,164,164,627,627,627,629,628,630,630,164,627,629,164,628,629,
195,195,195,195,195,195,195,195,195,195,195,195,195,195,195,195,
215,215,215,215,215,215,215,215,215,215,215,215,215,215,215,215,
0,0,0,0,0,0,0,0,0,0,0,0,0,0,0,0,
0,0,0,0,0,0,0,0,0,0,0,0,0,0,0,0,
0,0,0,0,0,0,0,0,0,0,0,0,0,0,0,0,
0,0,0,0,0,0,0,0,0,0,0,0,0,0,0,0,
0,0,0,0,0,0,0,0,0,0,0,0,0,0,0,0,
0,0,0,0,0,0,0,0,0,0,0,0,0,0,0,0,
0,0,0,0,0,0,0,0,0,0,0,0,0,0,0,0,
0,0,0,0,0,0,0,0,0,0,0,0,0,0,0,0,
0,0,0,0,0,0,0,0,0,0,0,0,0,0,0,0,
0,0,0,0,0,0,0,0,0,0,0,0,0,0,0,0
</chunk>
   <chunk x="32" y="16" width="16" height="16">
155,155,161,629,157,158,0,0,0,0,0,0,0,0,0,0,
155,155,161,164,157,158,0,0,0,0,0,0,0,0,0,0,
104,104,627,630,157,158,0,0,0,0,0,0,0,0,0,0,
630,628,627,176,177,178,0,0,0,0,0,0,0,0,0,0,
195,195,195,196,197,198,0,0,0,0,0,0,0,0,0,0,
215,215,215,216,217,218,0,0,0,0,0,0,0,0,0,0,
0,0,0,0,0,0,0,0,0,0,0,0,0,0,0,0,
0,0,0,0,0,0,0,0,0,0,0,0,0,0,0,0,
0,0,0,0,0,0,0,0,0,0,0,0,0,0,0,0,
0,0,0,0,0,0,0,0,0,0,0,0,0,0,0,0,
0,0,0,0,0,0,0,0,0,0,0,0,0,0,0,0,
0,0,0,0,0,0,0,0,0,0,0,0,0,0,0,0,
0,0,0,0,0,0,0,0,0,0,0,0,0,0,0,0,
0,0,0,0,0,0,0,0,0,0,0,0,0,0,0,0,
0,0,0,0,0,0,0,0,0,0,0,0,0,0,0,0,
0,0,0,0,0,0,0,0,0,0,0,0,0,0,0,0
</chunk>
  </data>
 </layer>
</map>
