<?xml version="1.0" encoding="UTF-8"?>
<map version="1.10" tiledversion="1.12.0" orientation="orthogonal" renderorder="right-down" width="30" height="20" tilewidth="16" tileheight="16" infinite="0" nextlayerid="5" nextobjectid="1">
 <tileset firstgid="1" source="../test tileset.tsx"/>
 <tileset firstgid="217" source="../tileset template.tsx"/>
 <layer id="1" name="prototype" width="30" height="20">
  <data encoding="csv">
0,0,0,0,0,0,0,0,0,0,0,0,0,0,0,0,0,0,0,0,0,0,0,0,0,0,0,0,0,0,
0,0,0,0,0,0,0,0,0,0,0,0,0,0,0,0,0,0,0,0,0,0,0,0,0,0,0,0,0,0,
0,0,0,0,0,0,0,0,0,0,0,0,0,0,0,0,0,0,0,0,0,0,0,0,0,0,0,0,0,0,
0,0,0,0,0,0,0,0,0,0,0,0,0,0,0,0,0,0,0,0,0,0,0,0,0,0,0,0,0,0,
0,0,0,0,0,0,0,0,0,0,0,0,0,0,0,0,0,0,0,0,0,0,0,0,0,0,0,0,0,0,
0,0,0,0,0,0,0,0,0,0,0,0,0,0,0,0,228,0,0,0,0,0,0,0,0,0,0,0,0,0,
0,0,0,0,0,0,0,0,0,0,0,0,0,0,228,228,228,228,228,228,0,0,0,0,0,0,0,0,0,0,
0,0,0,0,0,0,0,0,0,0,0,0,0,0,0,0,228,0,0,228,0,0,0,0,0,0,0,0,0,0,
0,0,0,0,0,0,0,0,0,0,0,0,0,0,0,0,0,0,0,228,0,0,0,0,0,0,0,0,0,0,
0,0,0,0,0,0,0,0,0,0,0,0,0,0,0,0,0,0,0,0,0,0,0,0,0,0,0,0,0,0,
0,0,0,221,228,222,0,0,0,238,239,228,222,0,0,0,0,0,0,0,0,0,0,0,0,0,0,0,0,0,
0,0,0,231,228,228,228,228,228,228,228,228,228,0,0,228,228,222,0,0,0,0,0,0,0,0,0,0,0,0,
0,0,0,0,0,0,231,232,248,249,228,228,232,0,0,228,228,228,240,241,0,0,0,0,0,0,0,0,0,0,
0,0,0,0,0,0,0,0,0,0,0,0,0,0,0,0,0,0,228,228,240,241,0,0,0,0,0,0,0,0,
0,0,0,0,0,0,0,0,0,0,0,0,0,0,0,0,0,0,228,228,228,228,222,0,0,0,0,0,0,0,
0,0,0,0,0,0,0,0,0,0,0,0,0,221,228,228,228,228,228,228,228,228,228,222,0,0,0,0,0,0,
0,0,0,0,0,0,0,0,0,0,238,239,228,228,228,228,228,228,228,0,0,228,228,228,222,0,0,0,0,0,
0,0,0,0,0,0,0,0,0,221,228,228,228,228,228,0,0,0,0,0,0,228,0,0,228,222,0,0,0,0,
228,228,228,228,228,228,228,228,228,228,228,228,228,0,0,0,0,0,0,0,228,228,0,0,228,228,228,240,241,0,
228,228,228,228,228,228,228,228,228,228,228,228,228,0,0,0,0,0,0,0,0,228,228,228,228,228,228,228,228,228
</data>
 </layer>
 <layer id="4" name="level" width="30" height="20">
  <data encoding="csv">
0,0,0,0,0,0,0,0,0,0,0,0,0,0,0,0,0,0,0,0,0,0,0,0,0,0,0,0,0,0,
0,0,0,0,0,0,0,0,0,0,0,0,0,0,0,0,0,0,0,0,0,0,0,0,0,0,0,0,0,0,
0,0,0,0,0,0,0,0,0,0,0,0,0,0,0,0,0,0,0,0,0,0,0,0,0,0,0,0,0,0,
0,0,0,0,0,0,0,0,0,0,0,0,0,0,0,0,0,0,0,0,0,0,0,0,0,0,0,0,0,0,
0,0,0,0,0,0,0,0,0,0,0,0,0,0,0,0,0,0,0,0,0,0,0,0,0,0,0,0,0,0,
0,0,0,0,0,0,0,0,0,0,0,0,0,0,0,0,38,0,0,0,0,0,0,0,0,0,0,0,0,0,
0,0,0,0,0,0,0,0,0,0,0,0,0,0,64,65,29,65,65,18,0,0,0,0,0,0,0,0,0,0,
0,0,0,0,0,0,0,0,0,0,0,0,0,0,0,0,62,0,0,50,0,0,0,0,0,0,0,0,0,0,
0,0,0,0,0,0,0,0,0,0,0,0,0,0,0,0,0,0,0,62,0,0,0,0,0,0,0,0,0,0,
0,0,0,0,0,0,0,0,0,0,0,0,0,0,0,0,0,0,0,0,0,0,0,0,0,0,0,0,0,0,
0,0,0,122,17,123,0,0,0,86,87,17,123,0,0,0,0,0,0,0,0,0,0,0,0,0,0,0,0,0,
0,0,0,134,41,41,17,17,17,29,29,29,30,0,0,16,17,123,0,0,0,0,0,0,0,0,0,0,0,0,
0,0,0,0,0,0,134,135,98,99,41,41,135,0,0,40,41,41,88,89,0,0,0,0,0,0,0,0,0,0,
0,0,0,0,0,0,0,0,0,0,0,0,0,0,0,0,0,0,28,29,88,89,0,0,0,0,0,0,0,0,
0,0,0,0,0,0,0,0,0,0,0,0,0,0,0,0,0,0,28,29,29,29,123,0,0,0,0,0,0,0,
0,0,0,0,0,0,0,0,0,0,0,0,0,122,17,17,17,17,29,41,41,29,29,123,0,0,0,0,0,0,
0,0,0,0,0,0,0,0,0,0,86,87,17,29,29,41,41,41,42,0,0,28,41,41,123,0,0,0,0,0,
0,0,0,0,0,0,0,0,0,122,29,29,29,41,42,0,0,0,0,0,0,50,0,0,28,123,0,0,0,0,
17,17,17,17,17,17,17,17,17,29,29,29,30,0,0,0,0,0,0,0,64,30,0,0,28,29,17,88,89,0,
29,29,29,29,29,29,29,29,29,29,29,29,30,0,0,0,0,0,0,0,0,28,29,29,29,29,29,29,29,29
</data>
 </layer>
</map>
