<?xml version="1.0" encoding="UTF-8"?>
<map version="1.10" tiledversion="1.12.0" orientation="orthogonal" renderorder="right-down" width="20" height="30" tilewidth="16" tileheight="16" infinite="1" nextlayerid="9" nextobjectid="1">
 <tileset firstgid="1" source=":/automap-tiles.tsx"/>
 <tileset firstgid="6" source="../tileset template.tsx"/>
 <tileset firstgid="56" source="../tangled incomplete tileset.tsx"/>
 <layer id="1" name="template" width="20" height="30">
  <data encoding="csv">
   <chunk x="96" y="-80" width="16" height="16">
0,0,0,0,0,0,0,0,0,0,0,0,0,0,0,0,
0,0,0,0,0,0,0,0,0,0,0,0,0,0,0,0,
0,0,0,0,0,0,0,0,0,0,0,0,0,0,0,0,
0,0,0,0,0,0,0,0,0,0,0,0,0,0,0,0,
0,0,0,0,0,0,0,0,0,0,0,0,0,0,0,0,
0,0,0,0,0,0,0,0,0,0,0,0,0,0,0,0,
0,0,0,0,0,0,0,0,0,0,0,0,0,0,0,0,
0,0,0,0,0,0,0,0,0,0,0,0,0,0,0,0,
0,0,0,0,0,0,0,0,0,0,0,0,0,0,0,0,
0,0,0,0,0,0,0,0,0,0,0,0,0,0,0,0,
0,0,0,0,0,0,0,0,0,0,0,0,0,0,0,0,
0,0,0,0,0,0,0,0,0,0,0,17,17,0,0,0,
0,0,0,0,0,0,0,0,0,0,0,17,17,0,0,0,
0,0,0,0,0,0,0,0,0,0,0,17,17,0,0,0,
0,0,0,0,0,0,0,0,0,0,0,17,17,0,0,0,
0,0,0,0,0,0,0,0,0,0,0,17,17,0,0,0
</chunk>
   <chunk x="128" y="-80" width="16" height="16">
0,0,0,0,0,0,0,0,0,0,0,0,0,0,0,0,
0,0,0,0,0,0,0,0,0,0,0,0,0,0,0,0,
0,0,0,0,0,0,0,0,0,0,0,17,17,17,0,0,
0,0,0,0,0,0,0,0,0,0,0,17,17,17,0,0,
0,0,0,0,0,0,0,0,0,0,0,17,17,17,0,0,
0,0,0,0,0,0,0,0,0,0,0,17,17,17,0,0,
0,0,0,0,0,0,0,0,0,0,0,17,17,17,0,0,
0,0,0,0,0,0,0,0,0,0,17,17,17,17,0,0,
0,0,0,0,0,0,0,0,0,0,17,17,17,17,0,0,
0,0,0,0,0,0,0,0,0,17,17,17,17,17,0,0,
0,0,0,0,0,0,0,0,0,17,17,17,17,17,0,0,
0,0,0,0,0,0,0,0,0,17,17,17,17,17,0,0,
0,0,0,0,0,0,0,0,17,17,17,17,17,17,0,0,
0,0,0,0,0,0,0,0,17,17,17,17,17,17,0,0,
0,0,0,0,0,0,0,17,17,17,17,17,17,17,0,0,
0,0,0,0,0,0,0,17,17,17,17,17,17,17,0,0
</chunk>
   <chunk x="96" y="-64" width="16" height="16">
0,0,0,0,0,0,0,0,0,0,0,17,17,17,17,0,
0,0,0,0,0,0,0,0,0,0,0,17,17,17,17,17,
0,0,0,0,0,0,0,0,0,0,0,17,17,17,17,17,
0,0,0,0,0,0,0,0,0,0,0,17,17,17,17,17,
0,0,0,0,0,0,0,0,0,0,0,17,17,17,17,17,
0,0,0,0,0,0,0,0,0,0,0,0,17,17,17,17,
0,0,0,0,0,0,0,0,0,0,0,0,0,17,17,17,
0,0,0,0,0,0,0,0,0,0,0,0,0,0,17,17,
0,0,0,0,0,0,0,0,0,0,0,0,0,0,0,0,
0,0,0,0,0,0,0,0,0,0,0,0,0,0,0,0,
0,0,0,0,0,0,0,0,0,0,0,0,0,0,0,0,
0,0,0,0,0,0,0,0,0,0,0,0,0,0,0,0,
0,0,0,0,0,0,0,0,0,0,0,0,0,0,0,0,
0,0,0,0,0,0,0,0,0,0,0,0,0,0,0,0,
0,0,0,0,0,0,0,0,0,0,0,0,0,0,0,0,
0,0,0,0,0,0,0,0,0,0,0,0,0,0,0,0
</chunk>
   <chunk x="112" y="-64" width="16" height="16">
0,0,0,0,0,0,0,0,0,0,0,0,0,0,0,0,
0,0,0,0,0,0,0,0,0,0,0,0,0,0,0,0,
17,0,0,0,0,0,0,0,0,0,0,0,0,0,0,0,
17,17,0,0,0,0,0,0,0,0,0,0,0,0,17,17,
17,17,17,17,0,0,0,0,0,0,0,0,0,0,17,17,
17,17,17,17,17,17,17,0,0,0,0,0,0,0,17,17,
17,17,17,17,17,17,17,17,0,0,0,0,0,0,17,17,
17,17,17,17,17,17,17,17,0,0,0,0,0,0,17,0,
0,17,17,17,17,17,17,17,0,0,0,0,0,0,0,0,
0,0,0,0,17,17,0,0,0,0,0,0,0,0,0,0,
0,0,0,0,0,0,0,0,0,0,0,0,0,0,0,0,
0,0,0,0,0,0,0,0,0,0,0,0,0,0,0,0,
0,0,0,0,0,0,0,0,0,0,0,0,0,0,0,0,
0,0,0,0,0,0,0,0,0,0,0,0,0,0,0,0,
0,0,0,0,0,0,0,0,0,0,0,0,0,0,0,0,
0,0,0,0,0,0,0,0,0,0,0,0,0,0,0,0
</chunk>
   <chunk x="128" y="-64" width="16" height="16">
0,0,0,0,0,17,17,17,17,17,17,0,0,0,0,0,
0,0,0,0,0,17,17,17,17,17,17,0,0,0,0,0,
0,0,0,0,17,17,17,17,17,17,17,0,0,0,0,0,
17,17,17,17,17,17,17,17,17,17,0,0,0,0,0,0,
17,17,17,17,17,17,17,17,17,0,0,0,0,0,0,0,
17,17,17,17,17,17,17,17,0,0,0,0,0,0,0,0,
17,17,17,17,17,0,0,0,0,0,0,0,0,0,0,0,
0,0,0,0,0,0,0,0,0,0,0,0,0,0,0,0,
0,0,0,0,0,0,0,0,0,0,0,0,0,0,0,0,
0,0,0,0,0,0,0,0,0,0,0,0,0,0,0,0,
0,0,0,0,0,0,0,0,0,0,0,0,0,0,0,0,
0,0,0,0,0,0,0,0,0,0,0,0,0,0,0,0,
0,0,0,0,0,0,0,0,0,0,0,0,0,0,0,0,
0,0,0,0,0,0,0,0,0,0,0,0,0,0,0,0,
0,0,0,0,0,0,0,0,0,0,0,0,0,0,0,0,
0,0,0,0,0,0,0,0,0,0,0,0,0,0,0,0
</chunk>
   <chunk x="208" y="-48" width="16" height="16">
0,0,0,0,0,0,0,0,0,0,0,0,0,0,0,0,
0,0,0,0,0,0,0,0,0,0,0,0,0,0,0,0,
0,0,0,0,0,0,0,0,0,0,0,0,0,0,0,0,
0,0,0,0,0,0,0,0,0,0,0,0,0,0,0,0,
0,0,0,0,0,0,0,0,0,0,0,0,0,0,0,0,
0,0,0,0,0,0,0,0,0,0,0,0,0,0,0,0,
0,0,0,0,0,0,0,0,0,0,0,0,0,0,0,0,
0,0,0,0,0,0,0,0,0,0,0,0,0,0,0,0,
0,0,0,0,0,0,0,0,0,0,0,0,0,0,0,0,
0,0,0,0,0,0,0,0,0,0,0,0,0,0,0,0,
0,0,0,0,0,0,0,0,0,0,0,0,0,0,0,0,
0,0,0,0,0,0,0,0,0,0,0,0,0,0,0,0,
0,0,0,0,0,0,0,0,0,0,0,0,0,0,0,0,
0,0,0,0,0,0,17,17,17,17,0,0,0,0,0,0,
0,0,0,0,0,0,17,17,17,17,17,17,17,17,17,17,
0,0,0,0,0,0,0,0,0,0,17,17,17,17,17,17
</chunk>
   <chunk x="224" y="-48" width="16" height="16">
0,0,0,0,0,0,0,0,0,0,0,0,0,0,0,0,
0,0,0,0,0,0,0,0,0,0,0,0,0,0,0,0,
0,0,0,0,0,0,0,0,0,0,0,0,0,0,0,0,
0,0,0,0,0,0,0,0,0,0,0,0,0,0,0,0,
0,0,0,0,0,0,0,0,0,0,0,0,0,0,0,0,
0,0,0,0,0,0,0,0,0,0,0,0,0,0,0,0,
0,0,0,0,0,0,0,0,0,0,0,0,0,0,0,0,
0,0,0,0,0,0,0,0,0,0,0,0,0,0,0,0,
0,0,0,0,0,0,0,0,0,0,0,0,0,0,0,0,
0,0,0,0,0,0,0,0,0,0,0,0,0,0,0,17,
0,0,0,0,0,0,0,0,0,0,0,0,0,0,0,17,
0,0,0,0,0,0,17,17,0,0,0,0,0,0,0,17,
0,0,0,17,17,17,17,17,0,0,0,0,0,0,0,0,
0,17,17,17,17,17,17,0,0,0,0,0,0,0,0,17,
17,17,17,17,0,17,17,0,0,0,0,0,0,0,0,17,
17,17,17,0,0,17,17,17,0,0,0,0,0,0,0,17
</chunk>
   <chunk x="240" y="-48" width="16" height="16">
0,0,0,0,0,0,0,0,0,0,0,0,0,0,0,0,
0,0,0,0,0,0,0,0,0,0,0,0,0,0,0,0,
0,0,0,0,0,0,0,0,0,0,0,0,0,0,0,0,
0,0,0,0,0,0,0,0,0,0,0,0,0,0,0,0,
0,0,0,0,0,0,0,0,0,0,0,0,0,0,0,0,
0,0,0,0,0,0,0,0,0,0,0,0,0,0,0,0,
0,0,0,0,0,0,0,0,0,0,0,0,0,0,0,0,
0,0,0,0,0,0,0,0,0,0,0,0,0,0,0,0,
0,0,0,0,0,0,0,0,0,0,0,0,0,0,0,0,
17,0,0,0,0,0,0,0,0,0,0,0,0,0,0,0,
17,17,0,0,0,0,0,0,0,0,0,0,0,0,0,0,
17,17,0,0,0,0,0,0,0,0,0,0,0,0,0,0,
17,17,0,0,0,0,0,0,0,0,0,0,0,0,0,0,
17,17,17,0,0,0,0,0,0,0,0,0,0,0,0,0,
17,17,17,0,17,0,0,0,0,0,0,0,0,0,0,0,
17,17,17,17,0,0,0,0,0,0,0,0,0,0,0,0
</chunk>
   <chunk x="176" y="-32" width="16" height="16">
0,0,0,0,0,0,0,0,0,0,0,0,0,0,0,0,
0,0,0,0,0,0,0,0,0,0,0,0,0,0,0,0,
0,0,0,0,0,0,0,0,0,0,0,0,0,0,0,0,
0,0,0,0,0,0,0,0,0,0,0,0,0,0,0,0,
0,0,0,0,0,0,0,0,0,0,0,0,0,0,0,0,
0,0,0,0,0,0,0,0,0,0,0,0,0,0,0,0,
0,0,0,0,0,0,0,0,0,0,0,0,0,0,0,0,
0,0,0,0,0,0,0,0,0,0,0,0,0,0,0,0,
0,0,0,0,0,0,0,0,0,0,0,0,0,0,0,0,
0,0,0,0,0,0,0,0,0,0,0,0,0,0,0,0,
0,0,0,0,0,0,0,0,0,0,0,0,0,0,0,0,
0,0,0,0,0,0,0,0,0,0,0,0,0,0,0,0,
0,0,0,0,0,0,0,0,0,0,0,0,0,0,0,0,
0,0,0,0,0,0,0,0,0,0,0,0,0,0,0,0,
0,0,0,0,0,0,0,0,0,0,0,17,17,17,0,0,
0,0,0,0,0,0,0,0,0,17,17,17,17,17,0,0
</chunk>
   <chunk x="192" y="-32" width="16" height="16">
0,0,0,17,17,17,0,0,0,0,0,0,0,0,0,0,
0,0,0,17,17,0,0,0,0,0,0,0,0,0,0,0,
0,0,0,0,0,0,0,0,0,0,0,0,0,0,0,0,
0,0,0,0,0,0,0,0,0,0,0,0,0,0,0,0,
0,0,0,0,0,0,0,0,0,0,0,0,0,0,0,0,
0,0,0,0,0,0,0,17,17,17,17,17,17,17,17,0,
0,0,0,0,0,0,0,0,0,0,0,0,0,0,0,0,
0,0,0,0,0,0,0,0,0,0,0,0,0,0,0,0,
0,0,0,0,0,0,0,0,0,0,0,0,0,0,0,0,
0,0,0,0,0,0,0,0,0,0,0,0,0,0,0,0,
0,0,0,0,0,0,0,0,0,0,0,0,0,0,0,0,
0,0,0,0,0,0,0,0,0,0,0,0,0,0,0,0,
0,0,0,0,0,0,0,0,0,0,17,17,17,0,0,0,
0,0,0,17,0,0,0,0,17,17,17,17,17,0,0,0,
0,0,0,17,0,0,0,0,17,17,17,17,0,0,0,0,
0,0,17,17,17,0,0,0,17,17,0,0,0,0,0,0
</chunk>
   <chunk x="208" y="-32" width="16" height="16">
0,0,0,0,0,0,0,0,0,0,0,0,17,17,17,17,
0,0,0,0,0,0,0,0,0,0,0,0,17,17,17,17,
0,0,0,0,0,0,0,0,0,0,0,0,17,17,17,17,
0,0,0,0,0,0,0,0,0,0,0,0,0,0,0,0,
0,0,0,0,0,0,0,0,0,0,0,0,0,0,0,0,
0,0,0,0,0,0,0,0,0,0,0,0,0,0,0,0,
0,0,0,0,0,0,0,0,0,0,0,0,0,0,0,0,
0,0,0,0,0,0,0,0,0,0,0,0,0,0,0,0,
0,17,17,0,0,0,0,0,0,0,0,0,0,0,0,0,
0,17,17,17,17,17,17,17,17,17,17,17,17,17,17,17,
17,17,17,17,17,17,17,17,17,17,17,17,17,17,17,17,
17,17,17,17,17,17,17,17,17,17,17,17,17,17,17,17,
17,17,17,17,17,17,17,17,17,17,17,17,17,17,17,17,
17,17,17,17,17,17,17,17,17,17,17,17,17,0,0,17,
17,17,17,17,17,17,17,17,17,17,17,0,0,0,0,17,
17,17,17,17,17,17,17,17,17,17,0,0,0,0,0,17
</chunk>
   <chunk x="224" y="-32" width="16" height="16">
17,17,17,0,0,17,17,17,0,0,0,0,0,0,0,0,
0,0,0,0,0,17,17,17,0,0,0,0,0,0,0,17,
0,0,0,0,0,17,17,0,0,0,0,0,0,0,0,17,
0,0,0,0,0,0,17,17,0,0,0,0,0,0,0,0,
0,0,0,0,0,0,0,17,0,0,0,0,0,0,0,0,
0,0,0,0,0,0,0,0,0,0,0,0,0,0,0,0,
0,0,0,0,0,0,0,0,0,0,0,0,0,0,0,0,
0,0,0,0,0,0,0,0,0,0,0,0,0,0,0,0,
0,0,0,0,0,0,0,0,0,0,0,0,0,0,0,0,
17,17,17,17,17,17,17,17,17,17,17,17,17,17,17,17,
17,17,17,17,17,17,17,17,17,17,17,17,17,17,17,17,
17,17,17,17,17,17,17,17,17,17,17,17,17,17,17,17,
17,17,17,17,17,17,17,17,17,17,17,17,17,17,17,17,
17,17,17,17,17,17,17,17,17,17,17,17,17,17,17,17,
17,17,17,17,17,17,17,17,17,17,17,17,17,17,17,17,
17,17,17,17,17,17,17,17,17,17,17,17,17,17,17,17
</chunk>
   <chunk x="240" y="-32" width="16" height="16">
17,17,17,17,0,0,0,0,0,0,0,0,0,0,0,0,
17,17,17,17,0,0,0,0,0,0,0,0,0,0,0,0,
17,17,17,17,17,0,0,0,0,0,0,0,0,0,0,0,
0,0,17,17,17,0,0,0,0,0,0,0,0,0,0,0,
0,0,0,17,17,0,0,0,0,0,0,0,0,0,0,0,
0,0,0,17,17,0,0,0,0,0,0,0,0,0,0,0,
0,0,0,17,17,0,0,0,0,0,0,0,0,0,0,0,
0,0,0,0,17,0,0,0,0,0,0,0,0,0,0,0,
0,0,0,0,17,17,0,0,0,0,0,0,0,0,0,0,
17,0,0,0,17,17,0,0,0,0,0,0,0,0,0,0,
17,17,17,17,17,17,0,0,0,0,0,0,0,0,0,0,
17,17,17,17,17,17,0,0,0,0,0,0,0,0,0,0,
17,17,17,17,17,17,17,0,0,0,0,0,0,0,0,0,
17,17,17,17,17,17,17,0,0,0,0,0,0,0,0,0,
17,17,17,17,17,17,17,0,0,0,0,0,0,0,0,0,
17,17,17,17,17,17,17,0,0,0,0,0,0,0,0,0
</chunk>
   <chunk x="0" y="-16" width="16" height="16">
0,0,0,0,0,0,0,0,0,0,0,0,0,0,0,0,
0,0,0,0,0,0,0,0,0,0,0,0,0,0,0,0,
0,0,0,0,0,0,0,0,0,0,0,0,0,0,0,0,
0,0,0,0,0,0,0,0,0,0,0,0,0,0,0,0,
0,0,0,0,0,0,0,0,0,0,0,0,0,0,0,0,
0,0,0,0,0,0,0,0,0,0,0,0,0,0,0,0,
0,0,0,0,0,0,0,0,0,0,0,0,0,0,0,0,
0,0,0,0,0,0,0,0,0,0,0,0,0,0,0,17,
0,0,0,0,0,0,0,0,0,0,0,0,0,0,0,17,
0,0,0,0,0,0,0,0,0,0,0,0,0,0,0,17,
0,0,0,0,0,0,0,0,0,0,0,0,0,0,0,17,
0,0,0,0,0,0,0,0,0,0,0,0,0,0,0,17,
0,0,0,0,0,0,0,0,0,0,0,0,0,0,0,17,
0,0,0,0,0,0,0,0,0,0,0,0,0,0,0,0,
0,0,0,0,0,0,0,0,0,0,0,0,0,0,0,0,
0,0,0,0,0,17,17,17,17,0,0,0,0,0,0,0
</chunk>
   <chunk x="16" y="-16" width="16" height="16">
0,0,0,0,0,0,0,0,0,0,0,0,0,0,0,0,
0,0,0,0,0,0,0,0,0,0,0,0,0,0,0,0,
0,0,0,0,0,0,0,0,0,0,0,0,0,0,0,0,
0,0,0,0,0,0,0,0,0,0,0,0,0,0,0,0,
0,0,0,0,0,0,0,0,0,0,0,0,0,0,0,0,
0,0,0,0,0,0,0,0,0,0,0,0,0,0,0,0,
0,0,0,0,0,0,0,0,0,0,0,0,0,0,0,0,
17,17,0,0,0,0,0,0,0,0,17,17,17,17,0,0,
17,17,0,0,0,0,0,0,0,0,17,17,17,17,0,0,
17,17,0,0,0,0,0,0,0,0,17,17,17,17,0,0,
17,17,0,0,0,0,0,0,0,0,17,17,17,17,0,0,
17,17,0,0,0,0,17,0,0,0,17,17,17,17,0,0,
17,17,17,17,17,17,17,17,17,17,17,17,17,17,0,0,
0,17,17,17,17,17,17,17,17,17,17,17,17,0,0,0,
0,0,17,17,17,17,17,17,17,17,17,17,17,0,0,0,
0,0,0,0,0,0,0,0,0,0,0,0,0,0,0,0
</chunk>
   <chunk x="64" y="-16" width="16" height="16">
0,0,0,0,0,0,0,0,0,0,0,0,0,0,0,0,
0,0,0,0,0,0,0,0,0,0,0,0,0,0,0,0,
0,0,0,0,0,0,0,0,0,0,0,0,0,0,0,0,
0,0,0,0,0,0,0,0,0,0,0,0,0,0,0,0,
0,0,0,0,0,0,0,0,0,0,0,0,0,0,0,0,
0,0,0,0,0,0,0,0,0,0,0,0,0,0,0,0,
0,0,0,0,0,0,0,0,0,0,0,0,0,0,0,0,
0,0,0,0,0,0,0,0,0,0,0,0,0,0,0,0,
0,0,0,0,0,0,0,0,0,0,0,0,0,0,0,0,
0,0,0,0,0,0,0,0,0,0,0,0,0,0,0,0,
0,0,0,0,0,0,0,0,0,0,0,0,0,0,0,0,
0,0,0,0,0,0,0,0,0,0,0,0,0,0,0,0,
0,0,0,0,0,0,0,0,0,0,0,0,0,0,0,0,
0,0,0,0,0,0,0,0,0,0,0,0,0,0,0,0,
0,0,0,0,0,0,0,0,0,0,17,17,17,17,0,0,
0,0,17,17,17,17,17,17,17,17,17,17,17,17,0,0
</chunk>
   <chunk x="144" y="-16" width="16" height="16">
0,0,0,0,0,0,0,0,0,0,0,0,0,0,0,0,
0,0,0,0,0,0,0,0,0,0,0,0,0,0,0,0,
0,0,0,0,0,0,0,0,0,0,0,0,0,0,0,0,
0,0,0,0,0,0,0,0,0,0,0,0,0,0,0,0,
0,0,0,0,0,0,0,0,0,0,0,0,0,0,0,0,
0,0,0,0,0,0,0,0,0,0,0,0,0,0,0,0,
0,0,0,0,0,0,0,0,0,0,0,0,0,0,0,0,
0,0,0,0,0,0,17,0,0,0,0,0,0,0,0,17,
0,0,0,0,0,17,17,17,0,0,0,0,0,17,17,17,
0,0,0,0,0,17,17,17,17,17,17,0,0,0,0,0,
0,0,0,0,0,0,17,17,17,17,0,0,0,0,0,0,
0,0,0,0,0,0,0,17,17,0,0,0,0,0,0,0,
0,0,0,0,0,0,0,0,0,0,0,0,0,0,17,17,
0,0,0,0,0,0,0,0,0,0,0,0,0,17,17,17,
0,0,0,0,0,0,0,0,0,0,0,0,17,17,0,17,
0,0,0,0,0,0,0,0,0,0,0,0,0,0,0,17
</chunk>
   <chunk x="160" y="-16" width="16" height="16">
0,0,0,0,0,0,0,0,0,0,0,0,0,0,0,0,
0,0,0,0,0,0,0,0,0,0,0,0,0,0,0,0,
0,0,0,0,0,0,0,0,0,0,0,0,0,0,0,0,
0,0,0,0,0,0,0,0,0,0,0,0,0,0,0,0,
0,0,0,0,0,0,0,0,0,0,0,0,0,0,0,0,
0,0,0,0,0,0,0,0,0,0,0,0,0,0,0,0,
0,0,0,0,0,0,0,0,17,17,17,17,17,0,0,0,
17,0,0,0,0,0,17,17,17,17,17,17,17,17,17,17,
17,17,17,0,0,0,0,0,0,17,17,17,17,17,17,17,
17,0,0,0,0,0,0,0,0,0,0,0,0,0,17,17,
0,0,0,0,0,0,0,0,0,0,0,0,0,0,0,0,
0,0,0,0,17,17,17,17,0,0,0,0,0,0,0,0,
0,0,17,17,17,17,17,0,0,0,0,0,0,0,0,0,
17,17,17,17,17,0,0,0,0,0,0,0,0,0,0,0,
17,17,17,17,17,0,0,0,0,0,0,0,0,0,0,0,
17,17,17,17,17,0,0,0,0,0,0,0,0,0,0,0
</chunk>
   <chunk x="176" y="-16" width="16" height="16">
0,0,0,0,0,0,0,0,0,0,0,0,0,0,0,0,
0,0,0,0,17,17,17,0,0,0,0,0,0,0,0,0,
0,0,17,17,17,17,0,0,0,0,0,0,0,0,0,0,
0,0,17,17,0,0,0,0,0,0,0,0,0,0,0,0,
0,0,0,0,0,0,0,0,0,0,0,0,0,0,0,0,
0,0,0,0,0,0,0,0,0,0,0,0,0,0,0,0,
0,0,0,0,0,0,0,0,0,0,0,0,0,0,0,0,
17,17,0,0,0,0,0,0,0,0,0,0,0,0,0,0,
17,17,17,17,17,17,0,0,0,0,0,0,0,0,0,0,
17,17,17,17,17,17,17,0,0,0,0,0,0,0,0,0,
0,0,17,17,17,0,0,0,0,0,0,0,0,0,0,0,
0,0,0,0,0,0,0,0,0,0,0,0,0,0,0,0,
0,0,0,0,0,0,0,0,0,0,0,0,0,0,0,0,
0,0,0,0,0,0,0,0,0,0,0,0,0,0,0,0,
0,0,0,0,0,0,0,0,0,0,0,0,0,0,0,0,
0,0,0,0,0,0,0,0,0,0,0,0,0,0,0,0
</chunk>
   <chunk x="192" y="-16" width="16" height="16">
0,0,0,17,0,0,0,0,0,0,0,0,0,0,0,0,
0,0,0,17,0,0,0,0,0,0,0,0,0,0,0,0,
0,0,0,17,0,0,0,0,0,0,0,0,0,0,0,0,
0,0,0,17,0,0,0,0,0,0,0,0,0,0,0,0,
0,0,0,17,0,0,0,0,0,0,0,0,0,0,0,0,
0,0,0,0,0,0,0,0,0,0,0,0,0,0,0,0,
0,0,0,0,0,0,0,0,0,0,0,0,0,0,0,0,
0,0,0,0,0,0,0,0,0,0,0,0,0,0,0,0,
0,0,0,0,0,0,0,0,0,0,0,0,0,0,0,0,
0,0,0,0,0,0,0,0,0,0,0,0,0,0,0,0,
0,0,0,0,0,0,0,0,0,0,0,0,0,0,0,0,
0,0,0,0,0,0,0,0,0,0,0,0,0,0,0,0,
0,0,0,0,0,0,0,0,0,0,0,0,0,0,0,0,
0,0,0,0,0,0,0,0,0,0,0,0,0,0,0,0,
0,0,0,0,0,0,0,0,0,0,0,0,0,0,0,0,
0,0,0,0,0,0,0,0,0,0,0,0,0,0,0,0
</chunk>
   <chunk x="208" y="-16" width="16" height="16">
0,0,0,0,0,0,0,0,0,0,0,0,0,0,0,17,
0,0,0,0,0,0,0,0,0,0,0,0,0,0,0,0,
0,0,0,0,0,0,0,0,0,0,0,0,0,0,0,0,
0,0,0,0,0,0,0,0,0,0,0,0,0,0,0,0,
0,0,0,0,0,0,0,0,0,0,0,0,0,0,0,0,
0,0,0,0,0,0,0,0,0,0,0,0,0,0,0,0,
0,0,0,0,0,0,0,0,0,0,0,0,0,0,0,0,
0,0,0,0,0,0,0,0,0,0,0,0,0,0,0,0,
0,0,0,0,0,0,0,0,0,0,0,0,0,0,0,0,
0,0,0,0,0,0,0,0,0,0,0,0,0,0,0,0,
0,0,0,0,0,0,0,0,0,0,0,0,0,0,0,0,
0,0,0,0,0,0,0,0,0,0,0,0,0,0,0,0,
0,0,0,0,0,0,0,0,0,0,0,0,0,0,0,0,
0,0,0,0,0,0,0,0,0,0,0,0,0,0,0,0,
0,0,0,0,0,0,0,0,0,0,0,0,0,0,0,0,
0,0,0,0,0,0,0,0,0,0,0,0,0,0,0,0
</chunk>
   <chunk x="224" y="-16" width="16" height="16">
17,17,17,17,17,17,17,17,17,17,17,17,17,17,17,17,
17,17,17,17,17,17,17,17,17,17,17,17,17,17,17,17,
0,0,17,17,17,17,17,17,17,17,17,17,17,17,17,17,
0,0,0,17,17,17,17,17,17,17,17,17,17,17,17,17,
0,0,0,0,0,0,0,0,0,0,0,0,0,0,0,0,
0,0,0,0,0,0,0,0,0,0,0,0,0,0,0,0,
0,0,0,0,0,0,0,0,0,0,0,0,0,0,0,0,
0,0,0,0,0,0,0,0,0,0,0,0,0,0,0,0,
0,0,0,0,0,0,0,0,0,0,0,0,0,0,0,0,
0,0,0,0,0,0,0,0,0,0,0,0,0,0,0,0,
0,0,0,0,0,0,0,0,0,0,0,0,0,0,0,0,
0,0,0,0,0,0,0,0,0,0,0,0,0,0,0,0,
0,0,0,0,0,0,0,0,0,0,0,0,0,0,0,0,
0,0,0,0,0,0,0,0,0,0,0,0,0,0,0,0,
0,0,0,0,0,0,0,0,0,0,0,0,0,0,0,0,
0,0,0,0,0,0,0,0,0,0,0,0,0,0,0,0
</chunk>
   <chunk x="240" y="-16" width="16" height="16">
17,17,17,17,17,17,0,0,0,0,0,0,0,0,0,0,
17,17,17,17,17,17,0,0,0,0,0,0,0,0,0,0,
17,17,17,17,17,17,0,0,0,0,0,0,0,0,0,0,
17,17,17,17,0,0,0,0,0,0,0,0,0,0,0,0,
0,0,0,0,0,0,0,0,0,0,0,0,0,0,0,0,
0,0,0,0,0,0,0,0,0,0,0,0,0,0,0,0,
0,0,0,0,0,0,0,0,0,0,0,0,0,0,0,0,
0,0,0,0,0,0,0,0,0,0,0,0,0,0,0,0,
0,0,0,0,0,0,0,0,0,0,0,0,0,0,0,0,
0,0,0,0,0,0,0,0,0,0,0,0,0,0,0,0,
0,0,0,0,0,0,0,0,0,0,0,0,0,0,0,0,
0,0,0,0,0,0,0,0,0,0,0,0,0,0,0,0,
0,0,0,0,0,0,0,0,0,0,0,0,0,0,0,0,
0,0,0,0,0,0,0,0,0,0,0,0,0,0,0,0,
0,0,0,0,0,0,0,0,0,0,0,0,0,0,0,0,
0,0,0,0,0,0,0,0,0,0,0,0,0,0,0,0
</chunk>
   <chunk x="-32" y="0" width="16" height="16">
0,0,0,0,0,0,0,0,0,0,0,0,0,0,0,0,
0,0,0,0,0,0,0,0,0,0,0,0,0,0,0,0,
0,0,0,0,0,0,0,0,0,0,0,0,0,0,0,0,
0,0,0,0,0,0,0,0,17,17,17,17,0,0,0,0,
0,0,0,0,0,0,0,17,17,17,17,17,0,0,0,0,
0,0,0,0,0,0,0,17,17,17,17,17,0,0,0,0,
0,0,0,0,0,0,0,17,17,17,17,0,0,0,0,0,
0,0,0,0,0,0,0,17,17,17,17,17,0,0,0,0,
0,0,0,0,0,0,17,17,17,17,17,17,0,0,0,0,
0,0,0,0,0,0,17,17,17,17,17,17,0,0,0,0,
0,0,0,0,0,0,17,17,17,17,17,0,0,0,0,0,
0,0,0,0,0,0,17,17,17,17,17,17,0,0,0,0,
0,0,0,0,0,0,17,17,17,17,17,17,0,0,0,0,
0,0,0,0,0,0,17,17,17,17,17,0,0,0,0,0,
0,0,0,0,0,0,17,17,17,17,17,0,0,0,0,0,
0,0,0,0,0,0,17,17,17,17,17,17,17,17,17,17
</chunk>
   <chunk x="-16" y="0" width="16" height="16">
0,0,0,0,0,0,0,0,0,0,0,0,0,17,17,17,
0,0,0,17,17,0,0,0,17,17,17,17,17,17,17,17,
0,0,0,17,17,17,0,0,17,17,17,17,17,17,17,17,
0,0,0,17,17,17,0,0,17,17,17,17,17,17,17,17,
0,0,0,0,17,17,0,0,17,17,17,17,17,17,17,17,
0,0,0,17,17,17,17,0,17,17,17,17,17,17,17,17,
0,0,0,17,17,17,17,0,17,17,17,17,17,17,17,17,
0,0,0,17,17,17,17,17,17,17,17,17,17,17,17,17,
0,0,0,0,17,17,17,17,17,17,17,17,17,17,17,17,
0,0,0,17,17,17,17,0,0,0,0,17,17,17,17,17,
0,0,0,17,17,17,0,0,0,0,0,0,0,0,17,17,
0,0,0,0,0,0,0,0,0,0,0,0,0,0,17,17,
0,0,0,0,0,0,0,0,17,0,0,0,0,0,17,0,
0,0,0,0,0,0,0,17,17,0,0,0,0,0,17,0,
0,0,0,0,0,0,0,17,17,0,0,0,0,0,0,0,
17,17,17,17,17,17,17,17,17,0,0,0,0,0,0,0
</chunk>
   <chunk x="0" y="0" width="16" height="16">
17,17,17,17,17,17,17,17,17,17,17,0,0,0,0,0,
17,17,17,17,17,17,17,17,17,17,17,17,17,0,0,0,
17,17,17,17,17,17,17,17,17,17,17,17,17,17,17,0,
17,17,17,17,17,17,17,17,17,17,17,17,17,17,17,17,
17,17,17,17,17,17,17,17,17,17,17,17,17,17,17,17,
17,17,17,17,17,17,17,0,0,0,0,0,0,0,0,0,
17,17,17,0,0,0,0,0,0,0,0,0,0,0,0,0,
17,17,0,0,0,0,0,0,0,0,0,0,0,0,0,0,
17,0,0,0,0,0,0,0,0,0,0,0,0,0,0,0,
0,0,0,0,0,0,0,0,0,0,0,0,0,0,0,0,
0,0,0,0,0,0,0,0,0,0,0,0,0,0,0,0,
0,0,0,0,0,0,0,0,0,0,0,0,0,0,0,0,
0,0,0,0,0,0,0,0,0,0,0,0,0,0,0,0,
0,0,0,0,0,0,0,0,0,0,0,0,0,0,0,0,
0,0,0,0,0,0,0,0,0,0,0,0,0,0,0,0,
0,0,0,0,0,0,0,0,0,0,0,0,0,0,0,0
</chunk>
   <chunk x="16" y="0" width="16" height="16">
0,0,0,0,0,0,0,0,0,0,0,0,0,0,0,17,
0,0,0,0,0,0,0,0,0,0,0,0,0,0,17,17,
0,0,0,0,0,0,0,0,0,0,0,0,0,17,17,17,
17,0,0,0,0,0,0,0,0,0,0,0,17,17,17,17,
17,17,17,0,0,0,0,0,0,0,17,17,17,17,17,17,
0,0,0,0,0,0,0,0,17,17,17,17,17,17,17,17,
0,0,0,0,0,0,17,17,17,17,17,17,17,17,17,17,
0,0,0,0,17,17,17,17,17,17,17,17,17,17,17,17,
0,0,17,17,17,17,17,17,17,17,17,17,17,17,17,17,
17,17,17,17,17,17,17,17,17,17,17,17,17,17,17,17,
17,17,17,17,0,0,0,0,0,0,0,0,0,0,0,0,
17,17,17,0,0,0,0,0,0,0,0,0,0,0,0,0,
0,0,0,0,0,0,0,0,0,0,0,0,0,0,0,0,
0,0,0,0,0,0,0,0,0,0,0,0,0,0,0,0,
0,0,0,0,0,0,0,0,0,0,0,0,0,0,0,0,
0,0,0,0,0,0,0,0,0,0,0,0,0,0,0,0
</chunk>
   <chunk x="32" y="0" width="16" height="16">
0,0,0,0,0,0,0,0,0,0,0,0,0,0,0,0,
0,0,0,0,0,0,0,0,0,0,0,0,0,0,0,0,
0,0,0,0,0,0,0,0,0,0,0,0,0,0,0,0,
0,0,0,0,0,0,0,0,0,0,0,0,0,0,0,17,
0,0,0,0,0,0,0,0,0,0,0,17,17,17,17,17,
0,0,0,0,0,0,17,17,17,17,17,17,17,17,17,17,
0,0,0,0,0,0,17,17,17,17,17,17,17,17,17,17,
0,0,0,0,0,0,17,17,17,17,17,17,17,17,17,17,
0,0,0,0,0,0,17,17,17,17,17,17,17,17,17,17,
0,0,0,0,0,0,17,17,17,17,17,17,17,17,17,17,
0,0,0,0,0,0,17,17,17,17,17,17,17,17,17,17,
0,0,0,0,0,0,17,17,17,17,17,17,17,17,17,17,
0,0,0,0,0,0,17,17,17,17,17,17,17,17,17,0,
0,0,0,0,0,0,17,17,17,17,17,0,0,0,0,0,
0,0,0,0,0,0,17,17,17,17,17,0,0,0,0,0,
0,0,0,0,0,0,17,17,17,17,17,17,0,0,0,0
</chunk>
   <chunk x="48" y="0" width="16" height="16">
0,0,0,0,0,0,0,0,0,0,0,17,17,17,17,17,
0,0,0,0,0,0,17,17,17,17,17,17,17,17,17,17,
0,0,0,17,17,17,17,17,17,17,17,17,17,17,17,17,
17,17,17,17,17,17,17,17,17,17,17,17,17,17,17,17,
17,17,17,17,17,17,17,17,17,17,17,17,17,17,17,17,
17,17,17,17,17,17,17,17,17,17,17,17,17,17,17,17,
17,17,17,17,17,17,17,17,17,17,17,17,17,17,17,17,
17,17,17,17,17,17,17,17,17,17,17,17,17,17,17,17,
17,17,17,17,17,17,17,17,17,17,17,17,17,17,17,17,
17,17,17,17,17,17,17,17,17,17,17,17,17,17,17,17,
17,17,17,17,17,17,17,17,17,17,17,17,17,17,17,17,
17,0,0,0,0,0,0,0,0,0,0,0,0,0,0,0,
0,0,0,0,0,0,0,0,0,0,0,0,0,0,0,0,
0,0,0,0,0,0,0,0,0,0,0,0,0,0,0,0,
0,0,0,0,0,0,0,0,0,0,0,0,0,0,0,0,
0,0,0,0,0,0,0,0,0,0,0,0,0,0,0,0
</chunk>
   <chunk x="64" y="0" width="16" height="16">
17,17,17,17,17,17,17,17,17,17,17,17,17,17,0,0,
17,17,17,17,17,17,17,17,17,17,17,17,17,17,0,0,
17,17,17,17,17,17,17,17,17,17,17,17,17,17,0,0,
17,17,17,17,17,17,17,17,17,17,17,17,17,17,0,0,
17,17,17,17,17,17,17,17,17,17,17,17,17,17,0,0,
17,17,17,17,17,17,17,17,17,17,17,17,17,0,0,0,
17,17,17,17,17,17,17,17,17,17,17,0,0,0,0,0,
17,17,17,17,17,17,17,17,17,0,0,0,0,0,0,17,
17,17,17,17,17,17,17,17,0,0,0,0,0,0,17,17,
17,17,17,17,17,17,0,0,0,0,0,0,0,17,17,17,
17,17,17,0,0,0,0,0,0,0,0,0,17,17,17,17,
0,0,0,0,0,0,0,0,0,0,0,17,17,17,17,17,
0,0,0,0,0,0,0,0,0,0,17,17,17,17,17,17,
0,0,0,0,0,0,0,0,0,17,17,17,17,17,17,17,
0,0,0,0,0,0,0,0,17,17,17,17,17,17,17,17,
0,0,0,0,0,0,0,17,17,17,17,17,17,17,17,17
</chunk>
   <chunk x="80" y="0" width="16" height="16">
0,0,0,0,0,0,0,0,0,0,0,0,0,0,0,0,
0,0,0,0,0,0,0,0,0,0,0,0,0,0,0,0,
0,0,0,0,0,0,0,0,0,0,0,0,0,0,0,0,
0,0,0,0,0,0,0,0,0,0,0,0,0,0,0,0,
0,0,0,0,0,0,0,0,0,0,0,0,0,0,0,0,
0,0,0,0,0,0,0,0,0,0,0,0,0,0,0,0,
17,17,17,17,0,0,0,0,0,0,0,0,17,17,17,17,
17,17,17,17,0,0,0,0,0,0,0,0,17,17,17,17,
17,17,17,17,0,0,0,0,0,0,0,0,0,17,17,17,
17,17,17,17,0,0,0,0,0,0,0,0,0,17,17,17,
17,17,17,17,0,0,0,0,0,0,0,0,0,17,17,17,
17,17,17,17,0,0,0,0,0,0,0,0,0,17,17,17,
17,17,17,17,0,0,0,0,0,0,0,0,0,0,17,17,
17,17,17,17,0,0,0,0,0,0,0,0,0,0,17,17,
17,17,17,17,0,0,0,0,0,0,0,0,0,0,17,17,
17,17,17,17,0,0,0,0,0,0,0,0,0,0,17,17
</chunk>
   <chunk x="96" y="0" width="16" height="16">
0,0,0,0,0,0,0,0,0,0,0,0,0,0,0,0,
0,0,0,0,0,0,0,0,0,0,0,0,0,0,0,0,
0,0,0,0,0,0,0,0,0,0,0,0,0,0,0,0,
0,0,0,0,0,0,0,0,0,0,0,0,0,0,0,0,
0,0,0,0,0,0,0,0,0,0,0,0,0,0,0,0,
0,0,0,0,0,0,0,0,0,0,0,0,0,0,0,0,
17,17,17,0,0,0,0,0,0,0,0,0,0,0,0,0,
17,17,17,17,17,17,17,17,0,0,0,0,0,0,0,0,
17,17,17,17,17,17,17,17,17,17,0,0,0,0,0,0,
17,17,17,17,17,17,17,17,17,17,17,0,0,0,0,0,
17,17,17,17,17,17,17,17,17,17,17,0,0,0,0,0,
17,17,17,17,17,17,17,17,17,17,17,0,0,0,0,0,
17,17,17,17,17,17,17,17,17,17,17,0,0,0,0,0,
17,17,17,17,17,17,17,17,17,17,17,0,0,0,0,0,
17,17,17,17,17,17,17,17,17,17,17,0,0,0,0,0,
17,17,17,17,17,17,17,17,17,17,17,0,0,0,0,0
</chunk>
   <chunk x="112" y="0" width="16" height="16">
0,0,0,0,0,0,0,0,0,0,0,0,0,0,0,0,
0,0,0,0,0,0,0,0,0,0,0,0,0,0,0,0,
0,0,0,0,0,0,0,0,0,0,0,0,0,0,0,0,
0,0,0,0,0,0,0,0,0,0,0,0,0,0,0,0,
0,0,0,0,0,0,0,0,0,0,0,0,0,0,0,0,
0,0,0,0,0,0,0,0,0,0,0,0,0,0,0,0,
0,0,0,0,0,0,0,0,0,17,17,17,17,17,17,17,
0,0,0,0,0,0,0,0,17,17,17,17,17,17,17,17,
0,0,0,0,0,0,0,0,17,17,17,17,17,17,17,17,
0,0,0,0,0,0,0,17,17,17,17,17,17,17,17,17,
0,0,0,0,0,0,0,17,17,17,17,17,17,17,17,17,
0,0,0,0,0,0,17,17,17,17,17,17,17,17,17,17,
0,0,0,0,0,0,17,17,17,17,17,17,17,17,17,0,
0,0,0,0,0,17,17,17,17,17,17,17,17,17,17,0,
0,0,0,0,0,17,17,17,17,17,17,17,17,17,0,0,
0,0,0,0,0,17,17,17,17,17,17,17,17,17,0,0
</chunk>
   <chunk x="128" y="0" width="16" height="16">
0,0,0,0,0,0,0,0,0,0,0,0,0,0,0,0,
0,0,0,0,0,0,0,0,0,0,0,0,0,0,0,0,
0,0,0,0,0,0,0,0,0,0,0,0,0,0,0,0,
0,0,0,0,0,0,0,0,0,0,0,0,0,0,0,0,
0,0,0,0,0,0,0,0,0,0,0,0,0,0,0,0,
0,0,0,0,0,0,0,0,0,0,0,0,0,0,0,0,
17,17,17,17,0,0,0,0,0,0,0,0,0,0,0,0,
17,17,17,17,17,0,0,0,0,0,0,0,17,17,0,0,
17,17,17,17,17,17,0,0,0,0,17,17,17,17,17,17,
17,0,0,0,0,0,0,0,0,0,0,0,17,17,17,17,
0,0,0,0,0,0,0,0,0,0,0,0,0,0,17,17,
0,0,0,0,0,0,0,0,0,0,0,0,0,0,0,0,
0,0,0,0,0,0,0,0,0,0,0,0,0,0,0,0,
0,0,0,0,0,0,0,0,0,0,0,0,0,0,0,0,
0,0,0,0,0,0,0,0,0,0,0,0,0,0,0,0,
0,0,0,0,0,0,0,0,0,0,0,0,0,0,0,0
</chunk>
   <chunk x="144" y="0" width="16" height="16">
0,0,0,0,0,0,0,0,0,0,0,0,0,0,0,17,
0,0,0,0,0,0,0,0,0,0,0,17,17,17,17,17,
0,0,0,17,17,0,0,0,0,0,0,17,17,17,17,17,
0,0,17,17,17,17,17,0,0,0,17,17,17,17,17,0,
0,0,0,0,0,0,0,0,0,17,17,17,17,17,0,0,
0,0,0,0,0,0,0,0,0,17,17,17,17,17,0,0,
0,0,0,0,0,0,0,0,17,17,17,17,17,0,0,0,
0,0,0,0,0,0,0,17,17,17,17,17,0,0,0,0,
0,0,0,17,17,17,17,17,17,17,17,0,0,0,0,0,
17,17,17,17,17,17,17,17,17,17,17,0,0,0,0,0,
17,17,17,17,17,17,17,17,17,17,17,0,0,0,0,0,
0,0,0,0,0,0,0,0,17,17,17,0,0,0,0,0,
0,0,0,0,0,0,0,0,0,0,0,0,0,0,0,0,
0,0,0,0,0,0,0,0,0,0,0,0,0,0,0,0,
0,0,0,0,0,0,0,0,0,0,0,0,0,0,0,0,
0,0,0,0,0,0,0,0,0,0,0,0,0,0,0,0
</chunk>
   <chunk x="160" y="0" width="16" height="16">
17,17,17,17,0,0,0,0,0,0,0,0,0,0,0,0,
17,17,17,0,0,0,0,0,0,0,0,0,0,0,0,0,
17,0,0,0,0,0,0,0,0,0,0,0,0,0,0,0,
0,0,0,0,0,0,0,0,0,0,0,0,0,0,0,0,
0,0,0,0,0,0,0,0,0,0,0,0,0,0,0,0,
0,0,0,0,0,0,0,0,0,0,0,0,0,0,0,0,
0,0,0,0,0,0,0,0,0,0,0,0,0,0,0,0,
0,0,0,0,0,0,0,0,0,0,0,0,0,0,0,0,
0,0,0,0,0,0,0,0,0,0,0,0,0,0,0,0,
0,0,0,0,0,0,0,0,0,0,0,0,0,0,0,0,
0,0,0,0,0,0,0,0,0,0,0,0,0,0,0,0,
0,0,0,0,0,0,0,0,0,0,0,0,0,0,0,0,
0,0,0,0,0,0,0,0,0,0,0,0,0,0,0,0,
0,0,0,0,0,0,0,0,0,0,0,0,0,0,0,0,
0,0,0,0,0,0,0,0,0,0,0,0,0,0,0,0,
0,0,0,0,0,0,0,0,0,0,0,0,0,0,0,0
</chunk>
   <chunk x="-64" y="16" width="16" height="16">
0,0,0,0,0,0,0,0,0,0,0,0,0,0,0,0,
0,0,0,0,0,0,0,0,0,0,0,0,0,0,0,0,
0,0,0,0,0,0,0,0,0,0,0,0,0,0,0,0,
0,0,0,0,0,0,0,0,0,0,0,0,0,0,0,0,
0,0,0,0,0,0,0,0,0,0,0,0,0,0,0,0,
0,0,0,0,0,0,0,0,0,0,0,0,0,0,0,0,
0,0,0,0,0,0,0,0,0,0,0,17,17,0,0,0,
0,0,0,0,0,0,0,0,0,0,0,17,17,17,17,0,
0,0,0,0,0,0,0,0,0,0,0,17,17,17,17,0,
0,0,0,0,0,0,0,0,0,0,0,17,17,17,17,0,
0,0,0,0,0,0,0,0,0,0,0,17,17,17,17,0,
0,0,0,0,0,0,0,0,0,0,0,0,0,0,0,0,
0,0,0,0,0,0,0,0,0,0,0,0,0,0,0,0,
0,0,0,0,0,0,0,0,0,0,0,0,0,0,0,0,
0,0,0,0,0,0,0,0,0,0,0,0,0,0,0,0,
0,0,0,0,0,0,0,0,0,0,0,0,0,0,0,0
</chunk>
   <chunk x="-48" y="16" width="16" height="16">
0,0,0,0,0,0,0,0,0,0,0,0,0,0,0,0,
0,0,0,0,0,0,0,0,0,0,0,0,17,0,0,0,
0,0,0,0,0,0,0,0,0,0,0,0,0,0,0,0,
0,0,0,0,0,0,0,0,0,0,0,0,0,0,0,0,
0,0,0,0,0,0,0,0,0,0,0,0,0,0,0,0,
0,0,0,0,0,0,0,0,0,0,0,0,0,0,0,0,
0,0,0,0,17,0,0,17,0,0,0,0,0,17,17,17,
0,17,17,17,17,0,0,17,17,17,17,0,0,17,17,17,
0,17,17,17,17,0,0,17,17,17,17,0,0,17,17,17,
0,17,17,17,17,0,0,17,17,17,17,0,0,17,17,17,
0,17,17,17,17,0,0,17,17,17,17,0,0,0,0,0,
0,0,0,0,0,0,0,0,0,0,0,0,0,0,0,0,
0,0,0,0,0,0,0,0,0,0,0,0,0,0,0,0,
0,0,0,0,0,0,0,0,0,0,0,0,0,0,0,0,
0,0,0,0,0,0,0,0,0,0,0,0,0,0,0,0,
0,0,0,0,0,0,0,0,0,0,0,0,0,0,0,0
</chunk>
   <chunk x="-32" y="16" width="16" height="16">
0,0,0,0,0,0,17,17,17,17,17,17,17,17,17,17,
0,0,0,0,0,0,0,17,17,17,17,17,17,17,17,17,
0,0,0,0,0,0,0,0,17,17,17,17,17,17,17,17,
0,0,0,0,0,0,0,0,0,17,17,17,17,17,17,17,
0,0,0,0,0,0,0,0,0,17,17,17,17,17,17,17,
0,0,0,0,0,0,0,0,0,0,17,17,17,17,17,17,
17,0,0,17,17,17,17,0,0,0,0,17,17,17,17,17,
17,0,0,17,17,17,17,0,0,0,0,17,17,17,17,17,
17,0,0,17,17,17,17,0,0,0,0,17,17,17,17,17,
17,0,0,17,17,17,17,0,0,0,0,17,17,17,17,17,
17,0,0,17,0,0,0,0,0,0,0,17,17,17,17,17,
0,0,0,0,0,0,0,0,17,17,17,17,17,17,17,17,
0,0,0,0,0,0,0,17,17,17,17,17,17,17,0,0,
0,0,0,0,0,17,17,17,17,17,17,17,17,17,17,0,
0,0,0,0,17,17,17,17,17,17,17,17,17,17,17,0,
0,0,0,17,17,17,17,17,17,17,17,17,17,17,0,0
</chunk>
   <chunk x="-16" y="16" width="16" height="16">
17,17,17,17,17,17,17,17,17,17,17,17,0,0,0,0,
17,17,17,17,17,17,17,17,17,17,17,17,17,17,17,17,
17,17,17,17,17,17,17,17,17,17,17,17,17,17,17,17,
17,17,17,17,17,17,17,17,17,17,17,17,17,17,17,17,
17,17,17,17,17,17,17,17,17,17,17,17,17,17,17,17,
17,17,17,17,17,17,17,17,17,17,17,17,17,17,17,0,
17,17,17,17,17,17,17,17,17,17,17,17,17,17,17,0,
17,17,17,17,17,17,17,17,17,17,17,17,17,17,17,0,
17,17,17,17,17,17,17,17,17,17,17,17,17,17,17,0,
17,17,17,17,17,17,17,17,17,17,17,17,17,17,17,0,
17,17,17,17,0,0,0,17,17,17,17,17,17,17,17,0,
0,0,0,0,0,0,0,0,17,17,17,17,17,17,17,0,
0,0,0,0,0,0,0,0,0,17,17,17,17,17,17,0,
0,0,0,0,0,17,0,0,0,0,17,17,17,17,0,0,
0,17,17,17,17,17,17,0,0,0,17,17,17,17,0,0,
0,17,17,17,17,17,17,17,0,0,0,17,17,17,17,0
</chunk>
   <chunk x="0" y="16" width="16" height="16">
0,0,0,0,0,0,0,0,0,0,0,0,0,0,0,0,
17,0,0,0,0,0,0,0,0,0,0,0,0,0,0,0,
17,17,17,0,0,0,0,0,0,0,0,0,0,0,0,0,
17,17,17,17,17,0,0,0,0,0,0,0,0,0,0,0,
17,17,0,17,0,0,0,0,0,0,0,0,0,0,0,0,
0,0,0,0,0,0,0,0,0,0,0,0,0,0,0,0,
0,0,0,0,0,0,0,0,0,0,0,0,0,0,0,0,
0,0,0,0,0,0,0,0,0,0,0,17,17,17,17,0,
0,0,0,0,0,0,0,0,0,0,17,17,17,17,17,0,
0,0,0,0,0,0,0,0,0,17,17,17,17,17,0,0,
0,0,0,0,0,0,0,0,17,17,17,17,17,0,0,0,
0,0,0,0,0,0,0,17,17,17,17,17,0,0,0,0,
0,0,0,0,0,0,17,17,17,17,17,0,0,0,0,0,
0,0,0,0,0,17,17,17,17,0,0,0,0,0,0,0,
0,0,0,0,17,17,17,17,0,0,0,0,0,0,0,0,
0,0,0,17,17,17,17,0,0,0,0,0,0,0,0,17
</chunk>
   <chunk x="16" y="16" width="16" height="16">
0,0,0,0,0,0,0,0,0,0,0,0,0,0,0,0,
0,0,0,0,0,0,0,0,0,0,0,0,0,0,0,0,
0,0,0,0,0,0,0,0,0,0,0,0,0,0,0,0,
0,0,0,0,0,0,0,0,0,0,0,0,0,0,0,0,
0,0,0,0,0,0,0,0,0,0,0,0,0,0,0,0,
0,0,0,0,0,0,0,0,0,0,0,0,0,0,0,0,
0,0,0,0,0,0,0,0,17,17,17,17,17,17,17,17,
0,0,0,0,0,0,0,17,17,17,17,17,17,17,17,17,
0,0,0,0,0,0,17,17,17,17,17,0,0,0,0,0,
0,0,0,0,0,17,17,17,17,17,0,0,0,0,0,0,
0,0,0,0,17,17,17,17,17,0,0,0,0,0,0,0,
0,0,0,17,17,17,17,17,0,0,0,0,0,0,0,0,
0,0,17,17,17,17,17,0,0,0,0,0,0,0,0,0,
0,17,17,17,17,17,0,0,0,0,0,0,0,0,0,0,
17,17,17,17,17,0,0,0,0,0,0,0,0,0,0,0,
17,17,17,17,0,0,0,0,0,0,0,0,0,0,0,0
</chunk>
   <chunk x="32" y="16" width="16" height="16">
0,0,0,0,0,0,17,17,17,17,17,17,0,0,0,0,
0,0,0,0,0,0,0,17,17,17,17,17,17,0,0,0,
0,0,0,0,0,0,0,0,17,17,17,17,17,17,0,0,
0,0,0,0,0,0,0,0,0,17,17,17,17,17,0,0,
0,0,0,0,0,0,0,0,0,0,17,17,17,17,0,0,
0,0,0,0,0,0,0,0,0,0,17,17,17,17,0,0,
17,17,0,0,17,17,17,17,17,17,17,17,17,17,0,0,
17,17,0,0,17,17,17,17,17,17,17,17,17,17,0,0,
0,0,0,0,0,0,0,0,0,0,17,17,0,0,0,0,
0,17,17,0,0,0,0,0,0,0,17,17,0,0,0,0,
0,17,17,0,0,0,0,0,0,0,0,17,0,0,0,0,
0,17,17,0,0,0,0,0,0,0,17,17,0,0,0,0,
0,17,0,0,0,0,0,0,0,0,17,17,0,0,0,0,
0,17,17,0,0,0,0,0,0,0,17,17,0,0,0,0,
0,17,17,0,0,0,0,0,0,0,0,17,0,0,0,0,
0,17,17,0,0,0,0,0,0,0,17,17,0,0,0,0
</chunk>
   <chunk x="48" y="16" width="16" height="16">
0,0,0,0,0,0,0,0,0,0,0,0,0,0,0,0,
0,0,0,0,0,0,0,0,0,0,0,0,0,0,0,0,
0,0,0,0,0,0,0,0,0,0,0,0,0,0,0,0,
0,0,0,0,0,0,0,0,0,0,0,0,0,0,0,0,
0,0,0,0,0,0,0,0,0,0,0,0,0,0,0,0,
0,0,0,0,0,0,0,0,0,0,0,0,0,0,0,0,
0,0,0,0,0,0,0,0,0,0,0,0,0,0,0,0,
0,0,0,0,0,0,0,0,0,0,0,0,0,0,0,17,
0,0,0,0,0,0,0,0,0,0,0,0,0,0,17,17,
0,0,0,0,0,0,0,0,0,0,0,0,0,17,17,17,
0,0,0,0,0,0,0,0,0,0,0,0,17,17,17,17,
0,0,0,0,0,0,0,0,0,0,0,17,17,17,17,17,
0,0,0,0,0,0,0,0,0,0,17,17,17,17,17,17,
0,0,0,0,0,0,0,0,0,17,17,17,17,17,17,17,
0,0,0,0,0,0,0,0,17,17,17,17,17,17,17,17,
0,0,0,0,0,0,0,17,17,17,17,17,17,17,17,17
</chunk>
   <chunk x="64" y="16" width="16" height="16">
0,0,0,0,0,0,17,17,17,17,17,17,17,17,17,17,
0,0,0,0,0,17,17,17,17,17,17,17,17,17,17,17,
0,0,0,0,17,17,17,17,17,17,17,17,17,17,17,17,
0,0,0,17,17,17,17,17,17,17,17,17,17,17,17,17,
0,0,17,17,17,17,17,17,17,17,17,17,17,17,17,17,
0,17,17,17,17,17,17,17,17,17,17,17,17,17,17,17,
17,17,17,17,17,17,17,17,17,17,17,17,17,17,17,17,
17,17,17,17,17,17,17,17,17,17,17,17,17,17,17,17,
17,17,17,17,17,17,17,17,17,17,17,17,17,17,17,17,
17,17,17,17,17,17,17,17,17,17,17,17,17,17,17,17,
17,17,17,17,17,17,17,17,17,17,17,17,17,17,17,17,
17,17,17,17,17,17,17,17,17,17,17,17,17,17,17,17,
17,17,17,17,17,17,17,17,17,17,17,17,17,17,17,17,
17,17,17,17,17,17,17,17,17,17,17,17,17,17,17,17,
17,17,17,17,17,17,17,17,17,17,17,17,17,17,17,17,
17,17,17,17,17,17,17,17,17,17,17,17,17,17,17,17
</chunk>
   <chunk x="80" y="16" width="16" height="16">
17,17,17,17,0,0,0,0,0,0,0,0,0,0,0,17,
17,17,17,17,0,0,0,0,0,0,0,0,0,0,0,17,
17,17,17,17,0,0,0,0,0,0,0,0,0,0,0,17,
17,17,17,17,0,0,0,0,0,0,0,0,0,0,0,17,
17,17,17,17,0,0,0,0,0,0,0,0,0,0,0,0,
17,17,17,17,0,0,0,0,0,0,0,0,0,0,0,0,
17,17,17,17,0,0,0,0,0,0,0,0,0,0,0,0,
17,17,17,17,0,0,0,0,0,0,0,0,0,0,0,0,
17,17,17,17,0,0,0,0,0,0,0,0,0,0,0,0,
17,17,17,17,0,0,0,0,0,0,0,0,0,0,0,0,
17,17,17,17,0,0,0,0,0,0,0,0,0,0,0,0,
17,17,17,17,0,0,0,0,0,0,0,0,0,0,0,0,
17,17,17,17,0,0,0,0,0,0,0,0,0,0,0,0,
17,17,17,17,0,0,0,0,0,0,0,0,0,0,0,0,
17,17,17,17,0,0,0,0,0,0,0,0,0,0,0,0,
17,17,17,17,0,0,0,0,0,0,0,0,0,0,0,0
</chunk>
   <chunk x="96" y="16" width="16" height="16">
17,17,17,17,17,17,17,17,17,17,17,17,0,0,0,0,
17,17,17,17,17,17,17,17,17,17,17,17,0,0,0,0,
17,17,17,17,17,17,17,17,17,17,17,17,0,0,0,0,
17,17,17,17,17,17,17,17,17,17,17,17,17,0,0,0,
17,17,17,17,17,17,17,17,17,17,17,17,17,0,0,0,
17,17,17,17,17,17,17,17,17,17,17,17,17,17,0,0,
17,17,17,17,17,17,17,17,17,17,17,17,17,17,0,0,
0,17,17,17,17,17,17,17,17,17,17,17,17,17,0,0,
0,17,17,17,17,17,17,17,17,17,17,17,17,17,17,0,
0,0,17,17,17,17,17,17,17,17,17,17,17,17,17,0,
0,0,17,17,17,17,17,17,17,17,17,17,17,17,17,17,
0,0,17,17,17,17,17,17,17,17,17,17,17,17,17,17,
0,0,0,17,17,17,17,17,17,17,17,17,17,17,17,17,
0,0,0,0,17,17,17,17,17,17,17,17,17,17,17,17,
0,0,0,0,0,17,17,17,17,17,17,17,17,17,17,17,
0,0,0,0,0,0,0,17,17,17,17,17,17,17,17,17
</chunk>
   <chunk x="112" y="16" width="16" height="16">
0,0,0,0,17,17,17,17,17,17,17,17,17,17,0,0,
0,0,0,17,17,17,17,17,17,17,0,0,0,17,0,0,
0,0,0,0,17,17,17,17,0,0,0,0,0,17,17,0,
0,0,0,0,17,17,17,17,17,17,0,0,0,17,17,17,
0,0,0,0,0,17,17,17,17,17,0,0,0,17,17,17,
0,0,0,0,0,17,17,17,17,17,0,0,0,17,17,17,
0,0,0,0,0,17,17,17,17,17,0,0,0,17,17,17,
0,0,0,0,0,0,17,17,17,17,0,0,0,17,17,17,
0,0,0,0,0,0,17,17,17,17,0,0,0,17,17,17,
0,0,0,0,0,0,17,17,17,17,0,0,0,17,17,17,
0,0,0,0,0,0,0,17,17,17,0,0,0,17,17,17,
0,0,0,0,0,0,0,17,17,17,0,0,0,0,17,17,
17,0,0,0,0,0,0,17,17,17,0,0,0,0,17,17,
17,0,0,0,0,0,0,0,17,17,0,0,0,0,17,17,
17,17,17,0,0,0,0,0,17,17,0,0,0,17,17,17,
17,17,17,17,0,0,0,0,17,17,0,0,0,17,17,17
</chunk>
   <chunk x="128" y="16" width="16" height="16">
0,0,0,0,0,0,0,0,0,0,0,0,0,0,0,0,
0,0,0,0,0,0,0,0,0,0,0,0,0,0,0,0,
0,0,0,0,0,0,0,0,0,0,0,0,0,0,0,0,
17,17,17,0,0,0,0,0,0,0,0,0,0,0,0,0,
17,17,17,0,0,0,0,0,0,0,0,0,0,0,0,0,
17,17,17,0,0,0,0,0,0,0,0,0,0,0,0,0,
17,17,17,0,0,0,0,0,0,0,0,0,0,0,0,0,
17,17,17,0,0,0,0,0,0,0,0,0,0,0,0,0,
17,17,17,0,0,0,0,0,0,0,0,0,0,0,0,0,
17,17,17,0,0,0,0,0,0,0,0,0,0,0,0,0,
17,17,17,0,0,0,0,0,0,0,0,0,0,0,0,0,
17,17,17,0,0,0,0,0,0,0,0,0,0,0,0,0,
17,17,17,0,0,0,0,0,0,0,0,0,0,0,0,0,
17,17,17,0,0,0,0,0,0,0,0,0,0,0,0,0,
17,17,17,0,0,0,0,0,0,0,0,0,0,0,0,0,
0,0,0,0,0,0,0,0,0,0,0,0,0,0,0,0
</chunk>
   <chunk x="-80" y="32" width="16" height="16">
0,0,0,0,0,0,0,0,0,0,0,0,0,0,0,0,
0,0,0,0,0,0,0,0,0,0,0,0,0,0,0,0,
0,0,0,0,0,0,0,0,0,0,0,0,0,0,0,0,
0,17,17,17,17,0,0,0,0,0,0,0,0,0,0,0,
0,17,17,17,17,0,0,0,0,0,0,0,0,0,0,0,
0,17,17,17,17,0,0,0,0,0,0,0,0,0,0,0,
0,17,17,17,17,0,0,0,0,0,0,0,0,0,0,0,
0,17,17,17,17,0,0,0,0,0,0,0,0,0,0,0,
0,17,17,17,17,0,0,0,0,0,0,0,0,0,0,0,
0,17,17,17,17,17,17,0,0,0,0,0,0,0,0,0,
0,17,17,17,17,17,17,17,17,0,0,0,0,0,0,0,
0,17,17,17,17,17,17,17,17,17,17,0,0,0,0,0,
0,17,17,17,17,17,17,17,17,17,17,17,17,0,0,0,
0,17,17,17,17,17,17,17,17,17,17,17,17,17,0,0,
0,17,17,17,17,17,17,17,17,17,17,17,17,17,0,0,
0,17,17,17,17,17,17,17,17,17,17,17,17,17,0,0
</chunk>
   <chunk x="-64" y="32" width="16" height="16">
0,0,0,0,0,0,0,0,0,0,0,0,0,0,0,0,
0,0,0,0,0,0,0,0,0,0,0,0,0,0,0,0,
0,0,0,0,0,0,0,0,0,0,0,0,0,0,0,0,
0,0,0,0,0,0,0,0,0,0,0,0,0,0,0,0,
0,0,0,0,0,0,0,0,0,0,0,0,0,0,0,0,
0,0,0,0,0,0,0,0,0,0,0,0,0,0,0,0,
0,0,0,0,0,0,0,0,0,0,0,0,0,0,0,0,
0,0,0,0,0,0,0,0,0,0,0,0,0,0,0,0,
0,0,0,0,0,0,0,0,0,0,0,0,0,0,0,0,
0,0,0,0,0,0,0,0,0,17,17,17,17,17,17,17,
0,0,0,0,0,17,17,17,17,17,17,17,17,17,17,17,
0,0,0,17,17,17,17,17,17,17,17,17,17,17,17,17,
0,0,17,17,17,17,17,17,17,17,17,17,17,17,17,17,
0,0,17,17,17,17,17,17,17,17,17,17,17,17,17,17,
0,0,0,17,17,17,17,17,17,17,17,17,17,17,17,17,
0,0,0,0,17,17,17,17,17,17,17,17,17,17,17,17
</chunk>
   <chunk x="-48" y="32" width="16" height="16">
0,0,0,0,0,0,0,0,0,0,0,0,0,0,0,0,
0,0,0,0,0,0,0,0,0,0,0,0,0,0,0,0,
0,0,0,0,0,0,0,0,0,0,0,0,0,0,0,0,
0,0,0,0,0,0,0,0,0,0,0,0,0,0,0,17,
0,0,0,0,0,0,0,0,0,0,0,0,0,0,0,17,
0,0,0,0,0,0,0,0,0,0,0,0,0,0,17,17,
0,0,0,0,0,0,0,0,0,0,17,17,17,17,17,17,
0,0,0,0,0,0,0,0,17,17,17,17,17,17,17,17,
0,0,0,0,0,0,0,0,17,17,17,17,17,17,17,17,
17,17,17,17,17,17,17,17,17,17,17,17,17,17,17,17,
17,17,17,17,17,17,17,17,17,17,17,17,17,17,17,17,
17,17,17,17,17,17,17,17,17,17,17,17,17,17,17,17,
17,17,17,17,17,17,17,17,17,17,17,17,17,17,17,17,
17,17,17,17,17,17,17,17,17,17,17,17,17,17,17,17,
17,17,17,17,17,17,17,17,17,17,17,17,17,17,17,17,
17,17,17,17,17,17,17,17,17,17,17,17,17,0,0,0
</chunk>
   <chunk x="-32" y="32" width="16" height="16">
0,0,17,17,17,17,17,17,17,17,17,17,17,17,17,0,
0,17,17,17,17,17,17,17,17,17,17,17,17,17,17,0,
17,17,17,17,17,17,17,17,17,17,17,17,17,17,0,0,
17,17,17,17,17,17,17,17,17,17,17,17,17,17,17,0,
17,17,17,17,17,17,17,17,17,17,17,17,17,17,17,0,
17,17,17,17,17,17,17,17,17,17,17,17,17,17,0,0,
17,17,17,17,17,17,17,17,17,17,17,17,17,17,17,0,
17,17,17,17,17,17,17,17,17,17,17,17,17,17,17,0,
17,17,17,17,17,17,17,17,17,17,17,17,17,17,17,0,
17,17,17,17,17,17,17,17,17,17,17,17,17,17,17,17,
17,17,17,17,17,17,17,17,17,0,0,0,17,17,17,17,
17,17,17,17,17,17,17,0,0,0,0,0,0,0,17,17,
17,17,17,17,17,17,0,0,0,0,0,0,0,0,0,0,
17,17,17,17,17,17,0,0,0,0,0,0,0,0,0,0,
17,17,17,0,0,0,0,0,0,0,0,0,0,0,0,0,
0,0,0,0,0,0,0,0,0,0,0,0,0,0,0,0
</chunk>
   <chunk x="-16" y="32" width="16" height="16">
0,17,17,17,17,17,17,17,0,0,0,0,17,17,17,0,
0,17,17,17,17,17,17,17,17,0,0,0,17,17,17,17,
0,17,17,17,17,17,17,17,17,0,0,0,17,17,17,17,
0,17,17,17,17,17,17,17,17,17,0,0,0,0,17,17,
0,17,0,0,0,17,17,17,17,17,0,0,0,0,0,0,
0,0,0,0,0,0,0,0,0,17,17,0,0,0,0,0,
0,0,0,0,0,0,0,0,0,0,17,17,17,0,0,0,
0,0,0,0,0,0,0,0,0,0,0,0,17,17,17,0,
0,0,0,0,0,0,0,0,0,0,0,0,0,0,17,17,
17,17,17,17,17,17,17,17,17,0,0,0,0,0,0,17,
17,17,17,17,17,17,17,17,17,17,17,0,0,0,0,17,
17,17,17,17,17,17,17,17,17,17,17,17,0,0,0,17,
0,0,0,17,17,17,17,17,17,17,17,17,0,0,0,17,
0,0,0,0,17,17,17,17,17,17,17,0,0,0,0,17,
0,0,0,0,0,0,0,0,0,0,0,0,0,0,0,17,
0,0,0,0,0,0,0,0,0,0,0,17,17,17,17,17
</chunk>
   <chunk x="0" y="32" width="16" height="16">
0,0,0,0,17,17,0,0,0,0,0,0,0,0,0,0,
17,0,0,0,0,0,0,0,0,0,0,0,0,0,0,0,
17,17,0,0,0,0,0,0,0,0,0,0,0,0,0,0,
17,17,0,0,0,0,0,0,0,0,0,0,17,17,17,17,
17,17,17,0,0,0,0,0,0,0,0,0,17,17,17,17,
0,17,17,17,0,0,0,0,0,0,0,0,0,0,17,17,
0,0,0,17,17,0,0,0,0,0,0,0,0,0,0,17,
0,0,0,17,17,17,0,0,0,0,0,0,0,0,0,0,
0,0,0,0,17,17,17,0,0,0,0,0,0,0,0,0,
17,0,0,0,17,17,17,17,0,0,0,0,0,0,0,0,
17,0,0,0,0,17,17,17,17,0,0,0,0,0,0,0,
17,0,0,0,0,17,17,17,17,17,0,0,0,0,0,0,
17,0,0,0,0,0,0,17,17,17,17,17,17,0,0,0,
17,0,0,0,0,0,0,0,17,17,17,17,17,17,0,0,
17,0,0,0,0,0,0,0,0,17,17,17,17,17,17,0,
17,0,0,0,0,0,0,0,0,0,17,17,17,17,17,0
</chunk>
   <chunk x="16" y="32" width="16" height="16">
17,17,17,0,0,0,0,0,0,0,0,0,0,0,0,0,
0,0,0,0,0,0,0,0,0,0,0,0,0,0,0,0,
0,0,0,0,0,0,0,0,0,0,0,0,0,0,0,0,
0,0,0,0,0,0,0,0,0,0,0,0,0,0,0,0,
17,17,17,0,0,0,0,0,0,0,0,0,0,0,0,0,
17,17,17,17,17,17,17,0,0,0,0,0,0,0,0,0,
17,17,17,17,17,17,17,17,0,0,0,0,0,0,0,0,
17,17,17,17,17,17,17,17,17,0,0,0,0,0,0,0,
0,0,0,17,17,17,17,17,17,17,0,0,0,0,0,0,
0,0,0,0,0,17,17,17,17,17,0,0,0,0,0,0,
0,0,0,0,0,0,17,17,17,0,0,0,0,0,0,0,
0,0,0,0,0,0,0,0,0,0,0,0,0,0,0,0,
0,0,0,0,0,0,0,0,0,0,0,0,0,0,17,17,
0,0,0,0,0,0,0,0,0,0,0,17,17,17,17,17,
0,0,0,0,0,0,0,0,0,0,17,17,17,17,17,17,
0,0,0,0,0,0,0,0,0,0,17,17,17,17,17,17
</chunk>
   <chunk x="32" y="32" width="16" height="16">
0,17,0,0,0,0,0,0,0,0,17,17,0,0,0,0,
0,17,17,0,0,0,0,0,0,0,0,0,0,0,0,0,
0,17,17,0,0,0,0,0,0,0,0,0,0,0,0,0,
0,17,0,0,0,0,0,0,0,0,0,0,0,0,0,0,
0,0,0,0,0,0,0,0,0,0,0,0,0,0,0,0,
0,0,0,0,0,0,0,0,0,0,0,0,0,0,0,0,
0,0,0,0,0,0,0,0,0,0,0,0,0,0,0,0,
0,0,0,0,0,0,0,0,0,0,0,0,0,0,0,17,
0,0,0,0,0,0,0,0,0,0,0,0,0,0,17,17,
0,0,0,0,0,0,0,0,0,0,0,0,0,17,17,17,
0,0,0,0,0,0,0,0,0,0,0,0,17,17,17,17,
0,0,0,0,0,0,0,0,0,0,0,17,17,17,17,17,
17,17,0,0,0,0,0,0,0,0,17,17,17,17,17,17,
17,17,17,17,17,17,17,17,17,17,17,17,17,17,17,17,
17,17,17,17,17,17,17,17,17,17,17,17,17,17,17,17,
17,17,17,17,17,17,17,17,17,17,17,17,17,17,17,17
</chunk>
   <chunk x="48" y="32" width="16" height="16">
0,0,0,0,0,0,17,17,17,17,17,17,17,17,17,17,
0,0,0,0,0,17,17,17,17,17,17,17,17,17,17,17,
0,0,0,0,17,17,17,17,17,17,17,17,17,17,17,17,
0,0,0,17,17,17,17,17,17,17,17,17,17,17,17,17,
0,0,17,17,17,17,17,17,17,17,17,17,17,17,17,17,
0,17,17,17,17,17,17,17,17,17,17,17,17,17,17,17,
17,17,17,17,17,17,17,17,17,17,17,17,17,17,17,17,
17,17,17,17,17,17,17,17,17,17,17,17,17,17,17,17,
17,17,17,17,17,17,17,17,17,17,17,17,17,17,17,17,
17,17,17,17,17,17,17,17,17,17,17,17,17,17,17,17,
17,17,17,17,17,17,17,17,17,17,17,17,17,17,17,17,
17,17,17,17,17,17,17,17,17,17,17,17,17,17,17,17,
17,17,17,17,17,17,17,17,17,17,17,17,17,17,17,17,
17,17,17,17,17,17,17,17,17,17,17,17,17,17,17,17,
17,17,17,17,17,17,17,17,17,17,17,17,17,17,17,17,
17,17,17,17,17,17,17,17,17,17,17,17,17,17,17,17
</chunk>
   <chunk x="64" y="32" width="16" height="16">
17,17,17,17,17,17,17,17,17,17,17,17,17,17,17,17,
17,17,17,17,17,17,17,17,17,17,17,17,17,17,17,17,
17,17,17,17,17,17,17,17,17,17,17,17,17,17,17,17,
17,17,17,17,17,17,17,17,17,17,17,17,17,17,17,17,
17,17,17,17,17,17,17,17,17,17,17,17,17,17,17,17,
17,17,17,17,17,17,17,17,17,17,17,17,17,17,17,17,
17,17,17,17,17,17,17,17,17,17,17,17,17,17,17,17,
17,17,17,17,17,17,17,17,17,17,17,17,17,17,17,17,
17,17,17,17,17,17,17,17,17,17,17,17,17,17,17,17,
17,17,17,17,17,17,17,17,17,17,17,17,17,17,17,17,
17,17,17,17,17,17,17,17,17,17,17,17,17,17,17,17,
17,17,17,17,17,17,17,17,17,17,17,17,17,17,17,17,
17,17,17,17,17,17,17,17,17,17,17,17,17,17,17,17,
17,17,17,17,17,17,17,17,17,17,17,17,17,17,17,17,
17,17,17,17,17,17,17,17,17,17,17,17,17,17,17,17,
17,17,17,17,17,17,17,17,17,17,17,17,17,17,17,17
</chunk>
   <chunk x="80" y="32" width="16" height="16">
17,17,17,17,0,0,0,0,0,0,0,0,0,0,0,0,
17,17,17,17,0,0,0,0,0,0,0,0,0,0,0,0,
17,17,17,17,0,0,0,0,0,0,0,0,0,0,17,17,
17,17,17,17,0,0,0,0,0,0,0,0,17,17,17,17,
17,17,17,17,0,0,0,0,0,0,17,17,17,17,17,17,
17,17,17,17,0,0,0,0,0,17,17,17,17,17,17,17,
17,17,17,17,0,0,0,0,17,17,17,17,17,17,0,0,
17,17,17,17,0,0,0,17,17,17,17,0,0,0,0,0,
17,17,17,17,17,17,17,17,17,17,0,0,0,0,0,0,
17,17,17,17,17,17,17,17,0,0,0,0,0,0,0,0,
17,17,17,17,17,0,0,0,0,0,0,0,0,0,0,0,
17,17,17,17,17,0,0,0,0,0,0,0,0,0,0,0,
17,17,17,17,17,0,0,0,0,0,0,0,0,0,0,0,
17,17,17,17,17,0,0,0,0,0,0,0,0,0,0,0,
17,17,17,17,17,0,0,0,0,0,0,0,0,0,0,0,
17,17,17,17,17,0,0,0,0,0,0,0,0,0,0,0
</chunk>
   <chunk x="96" y="32" width="16" height="16">
0,0,17,0,0,0,0,0,0,17,17,17,17,17,17,17,
17,17,17,17,0,0,0,0,0,0,17,17,17,17,17,17,
17,17,17,17,17,0,0,0,0,0,0,0,17,17,17,17,
17,17,17,17,17,17,0,0,0,0,0,0,0,0,0,0,
17,17,17,17,17,17,17,17,0,0,0,0,0,0,0,0,
17,17,17,17,17,17,17,17,17,17,0,0,0,0,0,0,
0,0,0,17,17,17,17,17,17,17,17,17,17,17,17,17,
0,0,0,0,17,17,17,17,17,17,17,17,17,17,17,17,
0,0,0,0,0,17,17,17,17,17,17,17,17,17,17,17,
0,0,0,0,0,0,17,17,17,17,17,17,17,17,17,17,
0,0,0,0,0,0,0,17,17,17,17,17,17,17,17,17,
0,0,0,0,0,0,0,17,17,17,17,17,17,17,17,17,
0,0,0,0,0,0,0,0,17,17,17,17,17,17,17,17,
0,0,0,0,0,0,0,0,17,17,17,17,17,17,17,17,
0,0,0,0,0,0,0,0,17,17,17,17,17,17,17,17,
0,0,0,0,0,0,0,0,0,17,17,17,17,17,17,17
</chunk>
   <chunk x="112" y="32" width="16" height="16">
17,17,17,17,0,0,0,17,17,17,0,0,0,17,17,17,
17,17,17,17,0,0,17,17,17,17,0,0,0,17,17,17,
17,17,0,0,0,0,17,17,17,17,0,0,0,17,17,17,
0,0,0,0,0,0,0,17,17,17,17,17,17,17,17,17,
0,0,0,0,0,0,0,17,17,17,17,17,17,17,17,17,
0,0,0,0,0,0,17,17,17,17,17,17,17,17,17,17,
17,17,17,17,17,17,17,17,17,17,17,17,17,17,17,17,
17,17,17,17,17,17,17,17,17,17,17,17,17,17,17,17,
17,17,17,17,17,17,17,17,17,17,17,17,17,17,17,17,
17,17,17,17,17,17,17,17,17,17,17,17,17,17,17,17,
17,17,17,17,17,17,17,17,17,17,17,17,17,17,17,0,
17,17,17,17,17,17,17,17,17,17,17,17,0,0,0,0,
17,17,17,17,17,17,17,17,17,17,17,17,0,0,0,0,
17,17,17,17,17,17,17,17,17,17,17,17,17,0,0,0,
17,17,17,17,17,17,17,17,17,17,17,17,17,0,0,0,
17,17,17,17,17,17,17,17,17,17,17,17,17,17,0,0
</chunk>
   <chunk x="128" y="32" width="16" height="16">
0,0,0,0,0,0,0,0,0,0,0,0,0,0,0,0,
17,0,0,0,0,0,0,0,0,0,0,0,0,0,0,0,
17,0,0,0,0,0,0,0,0,0,0,0,0,0,0,0,
17,17,0,0,0,0,0,0,0,0,0,0,0,0,0,0,
17,17,17,0,0,0,0,0,0,0,0,0,0,0,0,0,
17,17,0,0,0,0,0,0,0,0,0,0,0,0,0,0,
17,0,0,0,0,0,0,0,0,0,0,0,0,0,0,0,
17,0,0,0,0,0,0,0,0,0,0,0,0,0,0,0,
17,0,0,0,0,0,0,0,0,0,0,0,0,0,0,0,
0,0,0,0,0,0,0,0,0,0,0,0,0,0,0,0,
0,0,0,0,0,0,0,0,0,0,0,0,0,0,0,0,
0,0,0,0,0,0,0,0,0,0,0,0,0,0,0,0,
0,0,0,0,0,0,0,0,0,0,0,0,0,0,0,0,
0,0,0,0,0,0,0,0,0,0,0,0,0,0,0,0,
0,0,0,0,0,0,0,0,0,0,0,0,0,0,0,0,
0,0,0,0,0,0,0,0,0,0,0,0,0,0,0,0
</chunk>
   <chunk x="-80" y="48" width="16" height="16">
0,17,17,17,17,17,17,17,17,17,17,17,17,17,0,0,
0,17,17,17,17,17,17,17,17,17,17,17,17,17,0,0,
0,17,17,17,17,17,17,17,17,17,17,17,17,17,0,0,
0,17,17,17,17,17,17,17,17,17,17,17,17,17,17,17,
0,17,17,17,17,17,17,17,17,17,17,17,17,17,17,17,
0,17,17,17,17,17,17,17,17,17,17,17,17,17,17,17,
0,17,17,17,17,17,17,17,17,17,17,17,17,17,17,17,
0,17,17,17,17,17,17,17,17,17,17,17,17,17,17,17,
0,17,17,17,17,17,17,17,17,17,17,17,17,17,17,17,
0,17,17,17,17,17,17,17,17,17,17,17,17,17,17,17,
0,0,0,17,17,17,17,17,17,17,17,17,17,17,17,17,
0,0,0,0,0,17,17,17,17,17,17,17,17,17,17,17,
0,0,0,0,0,0,0,0,17,17,17,17,17,17,17,17,
0,0,0,0,0,0,0,0,0,0,0,0,0,0,0,0,
0,0,0,0,0,0,0,0,0,0,0,0,0,0,0,0,
0,0,0,0,0,0,0,0,0,0,0,0,0,0,0,0
</chunk>
   <chunk x="-64" y="48" width="16" height="16">
0,0,0,0,0,17,17,17,17,17,17,17,17,17,17,17,
0,0,0,0,0,0,17,17,17,17,17,17,17,17,17,17,
0,0,0,0,0,0,0,0,0,0,0,0,0,0,0,0,
17,0,0,0,0,0,0,0,0,0,0,0,0,0,0,0,
17,0,0,0,0,0,0,0,0,0,0,0,0,0,0,0,
17,17,17,17,17,17,0,0,0,0,0,0,0,0,0,0,
17,17,17,17,17,17,17,17,17,0,0,0,0,0,0,0,
17,17,17,17,17,17,17,17,17,17,17,17,17,17,17,17,
17,17,17,17,17,17,17,17,17,17,17,17,17,17,17,17,
17,17,17,17,17,17,17,17,17,17,17,17,17,17,17,17,
17,17,17,17,17,17,17,17,17,17,17,17,17,17,17,17,
17,17,17,17,17,17,17,17,17,17,17,17,17,17,17,17,
17,17,17,17,17,17,17,17,17,17,17,17,17,17,17,17,
17,17,17,17,17,17,17,17,17,17,17,17,17,17,17,17,
0,0,17,17,17,17,17,17,17,17,17,17,17,17,17,17,
0,0,0,0,0,0,0,0,17,17,17,17,17,17,17,17
</chunk>
   <chunk x="-48" y="48" width="16" height="16">
17,17,17,17,17,17,17,17,17,17,0,0,0,0,0,0,
17,0,0,0,0,0,0,0,0,0,0,0,0,0,0,0,
0,0,0,0,0,0,0,0,0,0,0,0,0,0,0,0,
0,0,0,0,0,0,0,0,0,0,0,0,0,0,0,0,
0,0,0,0,0,0,0,0,0,0,0,0,0,0,0,0,
0,0,0,0,17,17,0,0,0,0,0,0,0,0,0,0,
0,0,0,0,17,17,17,0,0,0,0,0,0,0,17,0,
17,17,17,17,17,17,17,17,0,0,0,0,0,0,17,17,
17,17,17,17,17,17,17,17,17,17,17,17,17,17,17,17,
17,17,17,17,17,17,17,17,17,17,17,17,17,17,17,17,
17,17,17,17,17,17,17,17,17,17,17,17,17,17,17,17,
17,17,17,17,17,17,17,17,17,17,17,17,17,17,17,17,
17,17,17,17,17,17,17,17,17,17,17,17,17,17,17,17,
17,17,17,17,17,17,17,17,17,17,17,17,17,17,17,17,
17,17,17,17,17,17,17,17,17,17,17,17,17,17,17,17,
17,17,17,17,17,17,17,17,17,17,17,17,17,17,17,17
</chunk>
   <chunk x="-32" y="48" width="16" height="16">
0,0,0,0,0,0,0,0,0,0,0,0,0,0,0,0,
0,0,0,0,0,0,0,0,0,0,0,0,0,0,0,0,
0,0,0,0,0,0,0,0,0,0,0,0,0,0,0,0,
0,0,0,0,0,17,17,17,0,0,0,0,0,0,0,0,
0,0,0,0,0,17,17,17,0,0,0,0,0,0,0,0,
0,0,0,0,0,17,17,17,0,0,0,0,0,0,0,0,
0,0,0,0,0,17,17,17,0,0,0,0,0,0,0,0,
17,17,17,17,17,17,17,17,17,0,0,0,0,0,0,0,
17,17,17,17,17,17,17,17,17,17,17,17,0,0,0,17,
17,17,17,17,17,17,17,17,17,17,17,17,17,17,17,17,
17,17,17,17,17,17,17,17,17,17,17,17,17,17,17,17,
17,17,17,17,17,17,17,17,17,17,17,17,17,17,17,17,
17,17,17,17,17,17,17,17,17,17,17,17,17,17,17,17,
17,17,17,17,17,17,17,17,17,17,17,17,17,17,17,17,
17,17,17,17,17,17,17,17,17,17,17,17,17,17,17,17,
17,17,17,17,17,17,17,17,17,17,17,17,17,17,17,17
</chunk>
   <chunk x="-16" y="48" width="16" height="16">
0,0,0,0,0,0,0,0,0,0,0,17,17,17,17,17,
0,0,0,0,0,0,0,0,0,0,0,17,17,17,17,17,
0,0,0,0,0,0,0,0,0,0,0,17,17,17,17,17,
0,0,0,0,0,0,0,0,0,0,0,17,17,17,17,17,
0,0,0,17,17,17,17,17,17,17,17,17,17,17,17,17,
0,0,17,17,17,17,17,17,17,17,17,17,17,17,17,17,
17,17,17,17,17,17,17,17,17,17,17,17,17,17,17,17,
17,17,17,17,17,17,17,17,17,17,17,17,17,17,17,17,
17,17,17,17,17,17,17,17,17,17,17,17,17,17,17,17,
17,17,17,17,17,17,17,17,17,17,17,17,17,17,17,17,
17,17,17,17,17,17,17,17,17,17,17,17,17,17,17,17,
17,17,17,17,17,17,17,17,17,17,17,17,17,17,17,17,
17,17,17,17,17,17,17,17,17,17,17,17,17,17,17,17,
17,17,17,17,17,17,17,17,17,17,17,17,17,17,17,17,
17,17,17,17,17,17,17,17,17,17,17,17,17,17,17,17,
17,17,17,17,17,17,17,17,17,17,17,17,17,17,17,17
</chunk>
   <chunk x="0" y="48" width="16" height="16">
17,0,0,0,0,0,0,0,0,0,0,17,17,0,0,0,
17,0,0,0,0,0,0,0,0,0,0,0,0,0,0,0,
17,0,0,0,0,0,0,0,0,0,0,0,0,0,0,0,
17,0,0,0,0,0,0,0,0,0,0,0,0,0,0,0,
17,0,0,0,0,0,0,0,0,0,0,0,0,0,17,17,
17,0,0,0,0,0,0,0,0,0,0,0,0,17,17,17,
17,0,0,0,0,0,0,0,0,0,0,0,17,17,17,17,
17,0,0,0,0,0,0,0,0,0,0,17,17,17,17,17,
17,0,0,0,0,0,0,0,0,0,17,17,17,17,17,17,
17,0,0,0,0,0,0,0,0,17,17,17,17,17,17,17,
17,0,0,0,0,0,0,0,0,17,17,17,17,17,17,17,
17,17,17,17,17,17,17,17,17,17,17,17,17,17,17,17,
17,17,17,17,17,17,17,17,17,17,17,17,17,17,17,17,
17,17,17,17,17,17,17,17,17,17,17,17,17,17,17,17,
17,17,17,17,17,17,17,17,17,17,17,17,17,17,17,17,
17,17,17,17,17,17,17,17,17,17,17,17,17,17,17,17
</chunk>
   <chunk x="16" y="48" width="16" height="16">
0,0,0,0,0,0,0,0,0,0,0,17,17,17,17,17,
0,0,0,0,0,0,0,0,0,0,0,0,0,17,17,17,
0,0,17,17,0,0,0,0,0,0,0,0,0,0,0,17,
17,17,17,17,17,0,0,0,0,0,0,0,0,0,0,17,
17,17,17,17,17,17,0,0,0,0,0,0,0,0,0,17,
17,17,17,17,17,17,17,0,0,0,0,0,0,0,17,17,
17,17,17,17,17,17,17,17,17,17,0,0,0,17,17,17,
17,17,17,17,17,17,17,17,17,17,17,17,17,17,17,17,
17,17,17,17,17,17,17,17,17,17,17,17,17,17,17,17,
17,17,17,17,17,17,17,17,17,17,17,17,17,17,17,17,
17,17,17,17,17,17,17,17,17,17,17,17,17,17,17,17,
17,17,17,17,17,17,17,17,17,17,17,17,17,17,17,17,
17,17,17,17,17,17,17,17,17,17,17,17,17,17,17,17,
17,17,17,17,17,17,17,17,17,17,17,17,17,17,17,17,
17,17,17,17,17,17,17,17,17,17,17,17,17,17,17,17,
17,17,17,17,17,17,17,17,17,17,17,17,17,17,17,17
</chunk>
   <chunk x="32" y="48" width="16" height="16">
17,17,17,17,17,17,17,17,17,17,17,17,17,17,17,17,
17,17,17,17,17,17,17,17,17,17,17,17,17,17,17,17,
17,17,17,17,17,17,17,17,17,17,17,17,17,17,17,17,
17,17,17,17,17,17,17,17,17,17,17,17,17,17,17,17,
17,17,17,17,17,17,17,17,17,17,17,17,17,17,17,17,
17,17,17,17,17,17,17,17,17,17,17,17,17,17,17,17,
17,17,17,17,17,17,17,17,17,17,17,17,17,17,17,17,
17,17,17,17,17,17,17,17,17,17,17,17,17,17,17,17,
17,17,17,17,17,17,17,17,17,17,17,17,17,17,17,17,
17,17,17,17,17,17,17,17,17,17,17,17,17,17,17,17,
17,17,17,17,17,17,17,17,17,17,17,17,17,17,17,17,
17,17,17,17,17,17,17,17,17,17,17,17,17,17,17,17,
17,17,17,17,17,17,17,17,17,17,17,17,17,17,17,17,
17,17,17,17,17,17,17,17,17,17,17,17,17,17,17,17,
17,17,17,17,17,17,17,17,17,17,17,17,17,17,17,17,
17,17,17,17,17,17,17,17,17,17,17,17,17,17,17,17
</chunk>
   <chunk x="48" y="48" width="16" height="16">
17,17,17,17,17,17,17,17,17,17,17,17,17,17,17,17,
17,17,17,17,17,17,17,17,17,17,17,17,17,17,17,17,
17,17,17,17,17,17,17,17,17,17,17,17,17,17,17,17,
17,17,17,17,17,17,17,17,17,17,17,17,17,17,17,17,
17,17,17,17,17,17,17,17,17,17,17,17,17,17,17,17,
17,17,17,17,17,17,17,17,17,17,17,17,17,17,17,17,
17,17,17,17,17,17,17,17,17,17,17,17,17,17,17,17,
17,17,17,17,17,17,17,17,17,17,17,17,17,17,17,17,
17,17,17,17,17,17,17,17,17,17,17,17,17,17,17,17,
17,17,17,17,17,17,17,17,17,17,17,17,17,17,17,17,
17,17,17,17,17,17,17,17,17,17,17,17,17,17,17,17,
17,17,17,17,17,17,17,17,17,17,17,17,17,17,17,17,
17,17,17,17,17,17,17,17,17,17,17,17,17,17,17,17,
17,17,17,17,17,17,17,17,17,17,17,17,17,17,17,17,
17,17,17,17,17,17,17,17,17,17,17,17,17,17,17,17,
17,17,17,17,17,17,17,17,17,17,17,17,17,17,17,17
</chunk>
   <chunk x="64" y="48" width="16" height="16">
17,17,17,17,17,17,17,17,17,17,17,17,17,17,17,17,
17,17,17,17,17,17,17,17,17,17,17,17,17,17,17,17,
17,17,17,17,17,17,17,17,17,17,17,17,17,17,17,17,
17,17,17,17,17,17,17,17,17,17,17,17,17,17,17,17,
17,17,17,17,17,17,17,17,17,17,17,17,17,17,17,17,
17,17,17,17,17,17,17,17,17,17,17,17,17,17,17,17,
17,17,17,17,17,17,17,17,17,17,17,17,17,17,17,17,
17,17,17,17,17,17,17,17,17,17,17,17,17,17,17,17,
17,17,17,17,17,17,17,17,17,17,17,17,17,17,17,17,
17,17,17,17,17,17,17,17,17,17,17,17,17,17,17,17,
17,17,17,17,17,17,17,17,17,17,17,17,17,17,17,17,
17,17,17,17,17,17,17,17,17,17,17,17,17,17,17,17,
17,17,17,17,17,17,17,17,17,17,17,17,17,17,17,17,
17,17,17,17,17,17,17,17,17,17,17,17,17,17,17,17,
17,17,17,17,17,17,17,17,17,17,17,17,17,17,17,17,
17,17,17,17,17,17,17,17,17,17,17,17,17,17,17,17
</chunk>
   <chunk x="80" y="48" width="16" height="16">
17,17,17,17,17,0,0,0,0,0,0,0,0,0,0,0,
17,17,17,17,17,0,0,0,0,0,0,0,0,0,0,0,
17,17,17,17,17,0,0,0,0,0,0,0,0,0,0,0,
17,17,17,17,17,17,17,0,0,0,0,0,0,0,0,0,
17,17,17,17,17,17,17,0,0,0,0,0,0,0,0,0,
17,17,17,17,17,17,17,0,0,0,0,0,0,0,0,0,
17,17,17,17,17,17,17,0,0,0,0,0,0,0,0,0,
17,17,17,17,17,17,17,0,0,0,0,0,0,0,0,0,
17,17,17,17,17,17,17,0,0,0,0,0,0,0,0,0,
17,17,17,17,17,17,17,0,0,0,0,0,0,0,0,0,
17,17,17,17,17,17,17,0,0,0,0,0,0,0,17,17,
17,17,17,17,17,17,17,0,0,0,0,0,0,17,17,0,
17,17,17,17,17,17,17,0,0,0,0,0,0,0,0,0,
17,17,17,17,17,17,17,0,0,0,0,0,0,0,0,0,
17,17,17,17,17,17,17,0,0,0,0,0,0,0,0,0,
17,17,17,17,17,17,17,0,0,0,0,0,0,0,0,0
</chunk>
   <chunk x="96" y="48" width="16" height="16">
0,0,0,0,0,0,0,0,0,17,17,17,17,17,17,17,
0,0,0,0,0,0,0,0,0,0,17,17,17,17,17,17,
0,0,0,0,0,0,0,0,0,0,17,17,17,17,17,17,
0,0,0,0,0,0,0,0,0,0,0,17,17,17,17,17,
0,0,0,0,0,0,0,0,0,0,0,0,17,17,17,17,
0,0,0,0,0,0,0,0,0,0,0,0,17,17,17,17,
0,0,0,0,0,0,0,0,0,0,0,0,0,17,17,17,
0,0,0,0,0,0,0,0,0,0,0,0,0,0,17,17,
0,0,0,0,0,0,0,0,0,0,0,0,0,0,17,17,
0,0,0,0,0,0,0,0,0,0,0,0,0,0,0,17,
17,17,17,17,17,17,0,0,0,0,0,0,0,0,0,17,
0,0,0,0,0,17,0,0,0,0,0,0,0,0,0,0,
0,0,0,0,0,0,0,0,0,0,0,0,0,0,0,0,
0,0,0,0,0,0,0,0,0,0,0,0,0,0,0,0,
0,0,0,0,0,0,0,0,0,0,0,0,0,0,0,0,
0,0,0,0,0,0,0,0,0,0,0,0,0,0,0,0
</chunk>
   <chunk x="112" y="48" width="16" height="16">
17,17,17,17,17,17,17,17,17,17,17,17,17,17,0,0,
17,17,17,17,17,17,17,17,17,17,17,17,17,17,17,0,
17,17,17,17,17,17,17,17,17,17,17,17,17,17,17,0,
17,17,17,17,17,17,17,17,17,17,17,17,17,17,17,17,
17,17,17,17,17,17,17,17,17,17,17,17,17,17,17,17,
17,17,17,17,17,17,17,17,17,17,17,17,17,17,17,17,
17,17,17,17,17,17,17,17,17,17,17,17,17,17,17,17,
17,17,17,17,17,17,17,17,17,17,17,17,17,17,17,17,
17,17,17,17,17,17,17,17,17,17,17,17,17,17,17,17,
17,17,17,17,17,17,17,17,17,17,17,17,17,17,17,17,
17,17,17,17,17,17,17,17,17,17,17,17,17,17,17,17,
17,17,17,17,17,17,17,17,17,17,17,17,17,17,17,17,
0,17,17,17,17,17,17,17,17,17,17,17,17,17,17,17,
0,17,17,17,17,17,17,17,17,17,17,17,17,17,17,17,
0,0,17,17,17,17,17,17,17,17,17,17,17,17,17,17,
0,0,0,17,17,17,17,17,17,17,17,17,17,17,17,17
</chunk>
   <chunk x="128" y="48" width="16" height="16">
0,0,0,0,0,0,0,0,0,0,0,0,0,0,0,0,
0,0,0,0,0,0,0,0,0,0,0,0,0,0,0,0,
0,0,0,0,0,0,0,0,0,0,0,0,0,0,0,0,
0,0,0,0,0,0,0,0,0,0,0,0,0,0,0,0,
0,0,0,0,0,0,0,0,0,0,0,0,0,0,0,0,
17,0,0,0,0,0,0,0,0,0,0,0,0,0,0,0,
17,0,0,0,0,0,0,0,0,0,0,0,0,0,0,0,
17,0,0,0,0,0,0,0,0,0,0,0,0,0,0,0,
17,17,0,0,0,0,0,0,0,0,0,0,0,0,0,0,
17,17,0,0,0,0,0,0,0,0,0,0,0,0,0,0,
17,17,0,0,0,0,0,0,0,0,0,0,0,0,0,0,
17,17,17,0,0,0,0,0,0,0,0,0,0,0,0,0,
17,17,17,0,0,0,0,0,0,0,0,0,0,0,0,0,
17,17,17,0,0,0,0,0,0,0,0,0,0,0,0,0,
17,17,17,17,0,0,0,0,0,0,0,0,0,0,0,0,
17,17,17,17,0,0,0,0,0,0,0,0,0,0,0,0
</chunk>
   <chunk x="-64" y="64" width="16" height="16">
0,0,0,0,0,0,0,0,17,17,17,17,17,17,17,17,
0,0,0,0,0,0,0,0,17,17,17,17,17,17,17,17,
0,0,0,0,0,0,0,0,0,17,17,17,17,17,17,17,
0,0,0,0,0,0,0,0,0,17,17,17,17,17,17,17,
0,0,0,0,0,0,0,0,0,17,17,17,17,17,17,17,
0,0,0,0,0,0,0,0,0,17,17,17,17,17,17,17,
0,0,0,0,0,0,0,0,17,17,17,17,17,17,17,17,
0,0,0,0,0,0,0,0,17,17,17,17,17,17,17,17,
0,0,0,0,0,0,0,0,17,17,17,17,17,17,17,17,
0,0,0,0,0,0,0,0,0,0,0,0,0,0,0,0,
0,0,0,0,0,0,0,0,0,0,0,0,0,0,0,0,
0,0,0,0,0,0,0,0,0,0,0,0,0,0,0,0,
0,0,0,0,0,0,0,0,0,0,0,0,0,0,0,0,
0,0,0,0,0,0,0,0,0,0,0,0,0,0,0,0,
0,0,0,0,0,0,0,0,0,0,0,0,0,0,0,0,
0,0,0,0,0,0,0,0,0,0,0,0,0,0,0,0
</chunk>
   <chunk x="-48" y="64" width="16" height="16">
17,17,17,17,17,17,17,17,17,17,17,17,17,17,17,17,
17,17,17,17,17,17,17,17,17,17,17,17,17,17,17,17,
17,17,17,17,17,17,17,17,17,17,17,17,17,17,17,17,
17,17,17,17,17,17,17,17,17,17,17,17,17,17,17,17,
17,17,17,17,17,17,17,17,17,17,17,17,17,17,17,17,
17,17,17,17,17,17,17,17,17,17,17,17,17,17,17,17,
17,17,17,17,17,17,17,17,17,17,17,17,17,17,17,17,
17,17,17,17,17,17,17,17,17,17,17,17,17,17,17,17,
17,17,17,17,17,17,17,17,17,17,17,17,17,17,17,17,
0,0,0,0,0,0,0,0,0,0,0,0,0,0,0,0,
0,0,0,0,0,0,0,0,0,0,0,0,0,0,0,0,
0,0,0,0,0,0,0,0,0,0,0,0,0,0,0,0,
0,0,0,0,0,0,0,0,0,0,0,0,0,0,0,0,
0,0,0,0,0,0,0,0,0,0,0,0,0,0,0,0,
0,0,0,0,0,0,0,0,0,0,0,0,0,0,0,0,
0,0,0,0,0,0,0,0,0,0,0,0,0,0,0,0
</chunk>
   <chunk x="-32" y="64" width="16" height="16">
17,17,17,17,17,17,17,17,17,17,17,17,17,17,17,17,
17,17,17,17,17,17,17,17,17,17,17,17,17,17,17,17,
17,17,17,17,17,17,17,17,17,17,17,17,17,17,17,17,
17,17,17,17,17,17,17,17,17,17,17,17,17,17,17,17,
17,17,17,17,17,17,17,17,17,17,17,17,17,17,17,17,
17,17,17,17,17,17,17,17,17,17,17,17,17,17,17,17,
17,17,17,17,17,17,17,17,17,17,17,17,17,17,17,17,
17,17,17,17,17,17,17,17,17,17,17,17,17,17,17,17,
17,17,17,17,17,17,17,17,17,17,17,17,17,17,17,17,
0,0,0,0,0,0,0,0,0,0,0,0,0,0,0,0,
0,0,0,0,0,0,0,0,0,0,0,0,0,0,0,0,
0,0,0,0,0,0,0,0,0,0,0,0,0,0,0,0,
0,0,0,0,0,0,0,0,0,0,0,0,0,0,0,0,
0,0,0,0,0,0,0,0,0,0,0,0,0,0,0,0,
0,0,0,0,0,0,0,0,0,0,0,0,0,0,0,0,
0,0,0,0,0,0,0,0,0,0,0,0,0,0,0,0
</chunk>
   <chunk x="-16" y="64" width="16" height="16">
17,17,17,17,17,17,17,17,17,17,17,17,17,17,17,17,
17,17,17,17,17,17,17,17,17,17,17,17,17,17,17,17,
17,17,17,17,17,17,17,17,17,17,17,17,17,17,17,17,
17,17,17,17,17,17,17,17,17,17,17,17,17,17,17,17,
17,17,17,17,17,17,17,17,17,17,17,17,17,17,17,17,
17,17,17,17,17,17,17,17,17,17,17,17,17,17,17,17,
17,17,17,17,17,17,17,17,17,17,17,17,17,17,17,17,
17,17,17,17,17,17,17,17,17,17,17,17,17,17,17,17,
17,17,17,17,17,17,17,17,17,17,17,17,17,17,17,17,
0,0,0,0,0,0,0,0,0,0,0,0,0,0,0,0,
0,0,0,0,0,0,0,0,0,0,0,0,0,0,0,0,
0,0,0,0,0,0,0,0,0,0,0,0,0,0,0,0,
0,0,0,0,0,0,0,0,0,0,0,0,0,0,0,0,
0,0,0,0,0,0,0,0,0,0,0,0,0,0,0,0,
0,0,0,0,0,0,0,0,0,0,0,0,0,0,0,0,
0,0,0,0,0,0,0,0,0,0,0,0,0,0,0,0
</chunk>
   <chunk x="0" y="64" width="16" height="16">
17,17,17,17,17,17,17,17,17,17,17,17,17,17,17,17,
17,17,17,17,17,17,17,17,17,17,17,17,17,17,17,17,
17,17,17,17,17,17,17,17,17,17,17,17,17,17,17,17,
17,17,17,17,17,17,17,17,17,17,17,17,17,17,17,17,
17,17,17,17,17,17,17,17,17,17,17,17,17,17,17,17,
17,17,17,17,17,17,17,17,17,17,17,17,17,17,17,17,
17,17,17,17,17,17,17,17,17,17,17,17,17,17,17,17,
17,17,17,17,17,17,17,17,17,17,17,17,17,17,17,17,
17,17,17,17,17,17,17,17,17,17,17,17,17,17,17,17,
0,0,0,0,0,0,0,0,0,0,0,0,0,0,0,0,
0,0,0,0,0,0,0,0,0,0,0,0,0,0,0,0,
0,0,0,0,0,0,0,0,0,0,0,0,0,0,0,0,
0,0,0,0,0,0,0,0,0,0,0,0,0,0,0,0,
0,0,0,0,0,0,0,0,0,0,0,0,0,0,0,0,
0,0,0,0,0,0,0,0,0,0,0,0,0,0,0,0,
0,0,0,0,0,0,0,0,0,0,0,0,0,0,0,0
</chunk>
   <chunk x="16" y="64" width="16" height="16">
17,17,17,17,17,17,17,17,17,17,17,17,17,17,17,17,
17,17,17,17,17,17,17,17,17,17,17,17,17,17,17,17,
17,17,17,17,17,17,17,17,17,17,17,17,17,17,17,17,
17,17,17,17,17,17,17,17,17,17,17,17,17,17,17,17,
17,17,17,17,17,17,17,17,17,17,17,17,17,17,17,17,
17,17,17,17,17,17,17,17,17,17,17,17,17,17,17,17,
17,17,17,17,17,17,17,17,17,17,17,17,17,17,17,17,
17,17,17,17,17,17,17,17,17,17,17,17,17,17,17,17,
17,17,17,17,17,17,17,17,17,17,17,17,17,17,17,17,
0,0,0,0,0,0,0,0,0,0,0,0,0,0,0,0,
0,0,0,0,0,0,0,0,0,0,0,0,0,0,0,0,
0,0,0,0,0,0,0,0,0,0,0,0,0,0,0,0,
0,0,0,0,0,0,0,0,0,0,0,0,0,0,0,0,
0,0,0,0,0,0,0,0,0,0,0,0,0,0,0,0,
0,0,0,0,0,0,0,0,0,0,0,0,0,0,0,0,
0,0,0,0,0,0,0,0,0,0,0,0,0,0,0,0
</chunk>
   <chunk x="32" y="64" width="16" height="16">
17,17,17,17,17,17,17,17,17,17,17,17,17,17,17,17,
17,17,17,17,17,17,17,17,17,17,17,17,17,17,17,17,
17,17,17,17,17,17,17,17,17,17,17,17,17,17,17,17,
17,17,17,17,17,17,17,17,17,17,17,17,17,17,17,17,
17,17,17,17,17,17,17,17,17,17,17,17,17,17,17,17,
17,17,17,17,17,17,17,17,17,17,17,17,17,17,17,17,
17,17,17,17,17,17,17,17,17,17,17,17,17,17,17,17,
17,17,17,17,17,17,17,17,17,17,17,17,17,17,17,17,
17,17,17,17,17,17,17,17,17,17,17,17,17,17,17,17,
0,0,0,0,0,0,0,0,0,0,0,0,0,0,0,0,
0,0,0,0,0,0,0,0,0,0,0,0,0,0,0,0,
0,0,0,0,0,0,0,0,0,0,0,0,0,0,0,0,
0,0,0,0,0,0,0,0,0,0,0,0,0,0,0,0,
0,0,0,0,0,0,0,0,0,0,0,0,0,0,0,0,
0,0,0,0,0,0,0,0,0,0,0,0,0,0,0,0,
0,0,0,0,0,0,0,0,0,0,0,0,0,0,0,0
</chunk>
   <chunk x="48" y="64" width="16" height="16">
17,17,17,17,17,17,17,17,17,17,17,17,17,17,17,17,
17,17,17,17,17,17,17,17,17,17,17,17,17,17,17,17,
17,17,17,17,17,17,17,17,17,17,17,17,17,17,17,17,
17,17,17,17,17,17,17,17,17,17,17,17,17,17,17,17,
17,17,17,17,17,17,17,17,17,17,17,17,17,17,17,17,
17,17,17,17,17,17,17,17,17,17,17,17,17,17,17,17,
17,17,17,17,17,17,17,17,17,17,17,17,17,17,17,17,
17,17,17,17,17,17,17,17,17,17,17,17,17,17,17,17,
17,17,17,17,17,17,17,17,17,17,17,17,17,17,17,17,
0,0,0,0,0,0,0,0,0,17,17,17,17,17,17,17,
0,0,0,0,0,0,0,0,0,0,0,0,0,0,0,0,
0,0,0,0,0,0,0,0,0,0,0,0,0,0,0,0,
0,0,0,0,0,0,0,0,0,0,0,0,0,0,0,0,
0,0,0,0,0,0,0,0,0,0,0,0,0,0,0,0,
0,0,0,0,0,0,0,0,0,0,0,0,0,0,0,0,
0,0,0,0,0,0,0,0,0,0,0,0,0,0,0,0
</chunk>
   <chunk x="64" y="64" width="16" height="16">
17,17,17,17,17,17,17,17,17,17,17,17,17,17,17,17,
17,17,17,17,17,17,17,17,17,17,17,17,17,17,17,17,
17,17,17,17,17,17,17,17,17,17,17,17,17,17,17,17,
17,17,17,17,17,17,17,17,17,17,17,17,17,17,17,17,
17,17,17,17,17,17,17,17,17,17,17,17,17,17,17,17,
17,17,17,17,17,17,17,17,17,17,17,17,17,17,17,17,
17,17,17,17,17,17,17,17,17,17,17,17,17,17,17,17,
17,17,17,17,17,17,17,17,17,17,17,17,17,17,17,17,
17,17,17,17,17,17,17,17,17,17,17,17,17,17,17,17,
17,17,17,17,17,17,17,17,17,17,17,17,17,17,17,17,
0,0,0,0,0,0,0,0,0,0,0,0,0,0,0,0,
0,0,0,0,0,0,0,0,0,0,0,0,0,0,0,0,
0,0,0,0,0,0,0,0,0,0,0,0,0,0,0,0,
0,0,0,0,0,0,0,0,0,0,0,0,0,0,0,0,
0,0,0,0,0,0,0,0,0,0,0,0,0,0,0,0,
0,0,0,0,0,0,0,0,0,0,0,0,0,0,0,0
</chunk>
   <chunk x="80" y="64" width="16" height="16">
17,17,17,17,17,17,17,0,0,0,0,0,0,0,0,0,
17,17,17,17,17,17,17,0,0,0,0,0,0,0,0,0,
17,17,17,17,17,17,17,0,0,0,0,0,0,0,0,0,
17,17,17,17,17,17,17,0,0,0,0,0,0,0,0,0,
17,17,17,17,17,17,17,0,0,0,0,0,0,0,0,0,
17,17,17,17,17,17,17,0,0,0,0,0,0,0,0,0,
17,17,17,17,17,17,17,0,0,0,0,0,0,0,0,0,
17,17,17,17,17,17,17,0,0,0,0,0,0,0,0,0,
17,17,17,17,17,17,17,0,0,0,0,0,0,0,0,0,
17,17,17,17,17,17,17,0,0,0,0,0,0,0,0,0,
0,0,0,0,0,0,0,0,0,0,0,0,0,0,0,0,
0,0,0,0,0,0,0,0,0,0,0,0,0,0,0,0,
0,0,0,0,0,0,0,0,0,0,0,0,0,0,0,0,
0,0,0,0,0,0,0,0,0,0,0,0,0,0,0,0,
0,0,0,0,0,0,0,0,0,0,0,0,0,0,0,0,
0,0,0,0,0,0,0,0,0,0,0,0,0,0,0,0
</chunk>
   <chunk x="96" y="64" width="16" height="16">
0,0,0,0,0,0,0,0,0,0,0,0,0,0,0,0,
0,0,0,0,0,0,0,0,0,0,0,0,0,0,0,0,
0,0,0,0,0,0,0,0,0,0,0,0,0,0,0,0,
0,0,0,0,0,0,0,0,0,0,0,0,0,0,0,0,
0,0,0,0,0,0,0,0,0,0,0,0,0,0,0,0,
0,0,0,0,0,0,0,0,0,0,0,0,0,0,0,0,
0,0,0,0,0,0,0,0,0,0,0,0,0,0,0,0,
17,17,17,17,17,17,17,17,0,0,0,0,0,0,0,0,
0,0,0,0,0,0,0,0,0,0,0,0,0,0,0,0,
0,0,0,0,0,0,0,0,0,0,0,0,0,0,0,0,
0,0,0,0,0,0,0,0,0,0,0,0,0,0,0,0,
0,0,0,0,0,0,0,0,0,0,0,0,0,0,0,0,
0,0,0,0,0,0,0,0,0,0,0,0,0,0,0,0,
0,0,0,0,0,0,0,0,0,0,0,0,0,0,0,0,
0,0,0,0,0,0,0,0,0,0,0,0,0,0,0,0,
0,0,0,0,0,0,0,0,0,0,0,0,0,0,0,0
</chunk>
   <chunk x="112" y="64" width="16" height="16">
0,0,0,0,17,17,17,17,17,17,17,17,17,17,17,17,
0,0,0,0,17,17,17,17,17,17,17,17,17,17,17,17,
0,0,0,0,0,17,17,17,17,17,17,17,17,17,17,17,
0,0,0,0,0,17,17,17,17,17,17,17,17,17,17,17,
0,0,0,0,0,0,17,17,17,17,17,17,17,17,17,17,
0,0,0,0,0,0,17,17,17,17,17,17,17,17,17,17,
0,0,0,0,0,0,0,17,17,17,17,17,17,17,17,17,
0,0,0,0,0,0,0,0,17,17,17,17,17,17,17,17,
0,0,0,0,0,0,0,0,0,0,0,0,0,0,0,0,
0,0,0,0,0,0,0,0,0,0,0,0,0,0,0,0,
0,0,0,0,0,0,0,0,0,0,0,0,0,0,0,0,
0,0,0,0,0,0,0,0,0,0,0,0,0,0,0,0,
0,0,0,0,0,0,0,0,0,0,0,0,0,0,0,0,
0,0,0,0,0,0,0,0,0,0,0,0,0,0,0,0,
0,0,0,0,0,0,0,0,0,0,0,0,0,0,0,0,
0,0,0,0,0,0,0,0,0,0,0,0,0,0,0,0
</chunk>
   <chunk x="128" y="64" width="16" height="16">
17,17,17,17,0,0,0,0,0,0,0,0,0,0,0,0,
17,17,17,17,0,0,0,0,0,0,0,0,0,0,0,0,
17,17,17,17,0,0,0,0,0,0,0,0,0,0,0,0,
17,17,17,17,0,0,0,0,0,0,0,0,0,0,0,0,
17,17,17,17,0,0,0,0,0,0,0,0,0,0,0,0,
17,17,17,17,17,0,0,0,0,0,0,0,0,0,0,0,
17,17,17,17,17,17,0,0,0,0,0,0,0,0,0,0,
17,17,17,17,17,17,0,0,0,0,0,0,0,0,0,0,
0,0,0,0,0,0,0,0,0,0,0,0,0,0,0,0,
0,0,0,0,0,0,0,0,0,0,0,0,0,0,0,0,
0,0,0,0,0,0,0,0,0,0,0,0,0,0,0,0,
0,0,0,0,0,0,0,0,0,0,0,0,0,0,0,0,
0,0,0,0,0,0,0,0,0,0,0,0,0,0,0,0,
0,0,0,0,0,0,0,0,0,0,0,0,0,0,0,0,
0,0,0,0,0,0,0,0,0,0,0,0,0,0,0,0,
0,0,0,0,0,0,0,0,0,0,0,0,0,0,0,0
</chunk>
  </data>
 </layer>
 <layer id="8" name="temp" width="20" height="30">
  <data encoding="csv">
   <chunk x="96" y="-80" width="16" height="16">
0,0,0,0,0,0,0,0,0,0,0,0,0,0,0,0,
0,0,0,0,0,0,0,0,0,0,0,0,0,0,0,0,
0,0,0,0,0,0,0,0,0,0,0,0,0,0,0,0,
0,0,0,0,0,0,0,0,0,0,0,0,0,0,0,0,
0,0,0,0,0,0,0,0,0,0,0,0,0,0,0,0,
0,0,0,0,0,0,0,0,0,0,0,0,0,0,0,0,
0,0,0,0,0,0,0,0,0,0,0,0,0,0,0,0,
0,0,0,0,0,0,0,0,0,0,0,0,0,0,0,0,
0,0,0,0,0,0,0,0,0,0,0,0,0,0,0,0,
0,0,0,0,0,0,0,0,0,0,0,0,0,0,0,0,
0,0,0,0,0,0,0,0,0,0,0,0,0,0,0,0,
0,0,0,0,0,0,0,0,0,0,0,17,17,0,0,0,
0,0,0,0,0,0,0,0,0,0,0,17,17,0,0,0,
0,0,0,0,0,0,0,0,0,0,0,17,17,0,0,0,
0,0,0,0,0,0,0,0,0,0,0,17,17,0,0,0,
0,0,0,0,0,0,0,0,0,0,0,17,17,0,0,0
</chunk>
   <chunk x="128" y="-80" width="16" height="16">
0,0,0,0,0,0,0,0,0,0,0,0,0,0,0,0,
0,0,0,0,0,0,0,0,0,0,0,0,0,0,0,0,
0,0,0,0,0,0,0,0,0,0,0,17,17,17,0,0,
0,0,0,0,0,0,0,0,0,0,0,17,17,17,0,0,
0,0,0,0,0,0,0,0,0,0,0,17,17,17,0,0,
0,0,0,0,0,0,0,0,0,0,0,17,17,17,0,0,
0,0,0,0,0,0,0,0,0,0,0,17,17,17,0,0,
0,0,0,0,0,0,0,0,0,0,17,17,17,17,0,0,
0,0,0,0,0,0,0,0,0,0,17,17,17,17,0,0,
0,0,0,0,0,0,0,0,0,17,17,17,17,17,0,0,
0,0,0,0,0,0,0,0,0,17,17,17,17,17,0,0,
0,0,0,0,0,0,0,0,0,17,17,17,17,17,0,0,
0,0,0,0,0,0,0,0,17,17,17,17,17,17,0,0,
0,0,0,0,0,0,0,0,17,17,17,17,17,17,0,0,
0,0,0,0,0,0,0,17,17,17,17,17,17,17,0,0,
0,0,0,0,0,0,0,17,17,17,17,17,17,17,0,0
</chunk>
   <chunk x="96" y="-64" width="16" height="16">
0,0,0,0,0,0,0,0,0,0,0,17,17,17,17,11,
0,0,0,0,0,0,0,0,0,0,0,17,17,17,17,17,
0,0,0,0,0,0,0,0,0,0,0,17,17,17,17,17,
0,0,0,0,0,0,0,0,0,0,0,17,17,17,17,17,
0,0,0,0,0,0,0,0,0,0,0,17,17,17,17,17,
0,0,0,0,0,0,0,0,0,0,0,20,17,17,17,17,
0,0,0,0,0,0,0,0,0,0,0,0,20,17,17,17,
0,0,0,0,0,0,0,0,0,0,0,0,0,20,17,17,
0,0,0,0,0,0,0,0,0,0,0,0,0,0,0,37,
0,0,0,0,0,0,0,0,0,0,0,0,0,0,0,0,
0,0,0,0,0,0,0,0,0,0,0,0,0,0,0,0,
0,0,0,0,0,0,0,0,0,0,0,0,0,0,0,0,
0,0,0,0,0,0,0,0,0,0,0,0,0,0,0,0,
0,0,0,0,0,0,0,0,0,0,0,0,0,0,0,0,
0,0,0,0,0,0,0,0,0,0,0,0,0,0,0,0,
0,0,0,0,0,0,0,0,0,0,0,0,0,0,0,0
</chunk>
   <chunk x="112" y="-64" width="16" height="16">
0,0,0,0,0,0,0,0,0,0,0,0,0,0,0,0,
11,0,0,0,0,0,0,0,0,0,0,0,0,0,0,0,
17,11,0,0,0,0,0,0,0,0,0,0,0,0,0,0,
17,17,29,30,0,0,0,0,0,0,0,0,0,0,17,17,
17,17,17,17,29,30,0,0,0,0,0,0,0,0,17,17,
17,17,17,17,17,17,17,11,0,0,0,0,0,0,17,17,
17,17,17,17,17,17,17,17,0,0,0,0,0,0,17,17,
17,17,17,17,17,17,17,17,0,0,0,0,0,0,17,39,
38,17,17,17,17,17,17,17,0,0,0,0,0,0,0,0,
0,0,37,38,17,17,39,40,0,0,0,0,0,0,0,0,
0,0,0,0,0,0,0,0,0,0,0,0,0,0,0,0,
0,0,0,0,0,0,0,0,0,0,0,0,0,0,0,0,
0,0,0,0,0,0,0,0,0,0,0,0,0,0,0,0,
0,0,0,0,0,0,0,0,0,0,0,0,0,0,0,0,
0,0,0,0,0,0,0,0,0,0,0,0,0,0,0,0,
0,0,0,0,0,0,0,0,0,0,0,0,0,0,0,0
</chunk>
   <chunk x="128" y="-64" width="16" height="16">
0,0,0,0,0,17,17,17,17,17,17,39,40,0,0,0,
0,0,0,0,0,17,17,17,17,17,17,0,0,0,0,0,
0,0,27,28,17,17,17,17,17,17,17,0,0,0,0,0,
17,17,17,17,17,17,17,17,17,17,21,0,0,0,0,0,
17,17,17,17,17,17,17,17,17,21,0,0,0,0,0,0,
17,17,17,17,17,17,17,17,21,0,0,0,0,0,0,0,
17,17,17,17,17,39,40,0,0,0,0,0,0,0,0,0,
40,0,0,0,0,0,0,0,0,0,0,0,0,0,0,0,
0,0,0,0,0,0,0,0,0,0,0,0,0,0,0,0,
0,0,0,0,0,0,0,0,0,0,0,0,0,0,0,0,
0,0,0,0,0,0,0,0,0,0,0,0,0,0,0,0,
0,0,0,0,0,0,0,0,0,0,0,0,0,0,0,0,
0,0,0,0,0,0,0,0,0,0,0,0,0,0,0,0,
0,0,0,0,0,0,0,0,0,0,0,0,0,0,0,0,
0,0,0,0,0,0,0,0,0,0,0,0,0,0,0,0,
0,0,0,0,0,0,0,0,0,0,0,0,0,0,0,0
</chunk>
   <chunk x="208" y="-48" width="16" height="16">
0,0,0,0,0,0,0,0,0,0,0,0,0,0,0,0,
0,0,0,0,0,0,0,0,0,0,0,0,0,0,0,0,
0,0,0,0,0,0,0,0,0,0,0,0,0,0,0,0,
0,0,0,0,0,0,0,0,0,0,0,0,0,0,0,0,
0,0,0,0,0,0,0,0,0,0,0,0,0,0,0,0,
0,0,0,0,0,0,0,0,0,0,0,0,0,0,0,0,
0,0,0,0,0,0,0,0,0,0,0,0,0,0,0,0,
0,0,0,0,0,0,0,0,0,0,0,0,0,0,0,0,
0,0,0,0,0,0,0,0,0,0,0,0,0,0,0,0,
0,0,0,0,0,0,0,0,0,0,0,0,0,0,0,0,
0,0,0,0,0,0,0,0,0,0,0,0,0,0,0,0,
0,0,0,0,0,0,0,0,0,0,0,0,0,0,0,0,
0,0,0,0,0,0,0,0,0,0,0,0,0,0,0,0,
0,0,0,0,0,0,17,17,17,17,29,30,0,0,0,27,
0,0,0,0,0,0,17,17,17,17,17,17,17,17,17,17,
0,0,0,0,0,0,0,0,37,38,17,17,17,17,17,17
</chunk>
   <chunk x="224" y="-48" width="16" height="16">
0,0,0,0,0,0,0,0,0,0,0,0,0,0,0,0,
0,0,0,0,0,0,0,0,0,0,0,0,0,0,0,0,
0,0,0,0,0,0,0,0,0,0,0,0,0,0,0,0,
0,0,0,0,0,0,0,0,0,0,0,0,0,0,0,0,
0,0,0,0,0,0,0,0,0,0,0,0,0,0,0,0,
0,0,0,0,0,0,0,0,0,0,0,0,0,0,0,0,
0,0,0,0,0,0,0,0,0,0,0,0,0,0,0,0,
0,0,0,0,0,0,0,0,0,0,0,0,0,0,0,0,
0,0,0,0,0,0,0,0,0,0,0,0,0,0,0,0,
0,0,0,0,0,0,0,0,0,0,0,0,0,0,0,17,
0,0,0,0,0,0,0,0,0,0,0,0,0,0,0,17,
0,0,0,0,27,28,17,17,0,0,0,0,0,0,0,17,
0,27,28,17,17,17,17,17,0,0,0,0,0,0,0,0,
28,17,17,17,17,17,17,0,0,0,0,0,0,0,0,17,
17,17,17,17,0,17,17,0,0,0,0,0,0,0,0,17,
17,17,17,0,0,17,17,17,0,0,0,0,0,0,0,17
</chunk>
   <chunk x="240" y="-48" width="16" height="16">
0,0,0,0,0,0,0,0,0,0,0,0,0,0,0,0,
0,0,0,0,0,0,0,0,0,0,0,0,0,0,0,0,
0,0,0,0,0,0,0,0,0,0,0,0,0,0,0,0,
0,0,0,0,0,0,0,0,0,0,0,0,0,0,0,0,
0,0,0,0,0,0,0,0,0,0,0,0,0,0,0,0,
0,0,0,0,0,0,0,0,0,0,0,0,0,0,0,0,
0,0,0,0,0,0,0,0,0,0,0,0,0,0,0,0,
0,0,0,0,0,0,0,0,0,0,0,0,0,0,0,0,
0,0,0,0,0,0,0,0,0,0,0,0,0,0,0,0,
17,11,0,0,0,0,0,0,0,0,0,0,0,0,0,0,
17,17,0,0,0,0,0,0,0,0,0,0,0,0,0,0,
17,17,0,0,0,0,0,0,0,0,0,0,0,0,0,0,
17,17,0,0,0,0,0,0,0,0,0,0,0,0,0,0,
17,17,17,0,0,0,0,0,0,0,0,0,0,0,0,0,
17,17,17,0,17,0,0,0,0,0,0,0,0,0,0,0,
17,17,17,17,0,0,0,0,0,0,0,0,0,0,0,0
</chunk>
   <chunk x="176" y="-32" width="16" height="16">
0,0,0,0,0,0,0,0,0,0,0,0,0,0,0,0,
0,0,0,0,0,0,0,0,0,0,0,0,0,0,0,0,
0,0,0,0,0,0,0,0,0,0,0,0,0,0,0,0,
0,0,0,0,0,0,0,0,0,0,0,0,0,0,0,0,
0,0,0,0,0,0,0,0,0,0,0,0,0,0,0,0,
0,0,0,0,0,0,0,0,0,0,0,0,0,0,0,0,
0,0,0,0,0,0,0,0,0,0,0,0,0,0,0,0,
0,0,0,0,0,0,0,0,0,0,0,0,0,0,0,0,
0,0,0,0,0,0,0,0,0,0,0,0,0,0,0,0,
0,0,0,0,0,0,0,0,0,0,0,0,0,0,0,0,
0,0,0,0,0,0,0,0,0,0,0,0,0,0,0,0,
0,0,0,0,0,0,0,0,0,0,0,0,0,0,0,0,
0,0,0,0,0,0,0,0,0,0,0,0,0,0,0,0,
0,0,0,0,0,0,0,0,0,0,0,0,0,0,0,0,
0,0,0,0,0,0,0,0,0,27,28,17,17,17,0,0,
0,0,0,0,0,0,0,0,0,17,17,17,17,17,0,0
</chunk>
   <chunk x="192" y="-32" width="16" height="16">
0,0,0,17,17,17,0,0,0,0,0,0,0,0,0,0,
0,0,0,17,17,21,0,0,0,0,0,0,0,0,0,0,
0,0,0,0,0,0,0,0,0,0,0,0,0,0,0,0,
0,0,0,0,0,0,0,0,0,0,0,0,0,0,0,0,
0,0,0,0,0,0,0,0,0,0,0,0,0,0,0,0,
0,0,0,0,0,0,0,17,17,17,17,17,17,17,17,0,
0,0,0,0,0,0,0,0,0,0,0,0,0,0,0,0,
0,0,0,0,0,0,0,0,0,0,0,0,0,0,0,0,
0,0,0,0,0,0,0,0,0,0,0,0,0,0,0,0,
0,0,0,0,0,0,0,0,0,0,0,0,0,0,0,0,
0,0,0,0,0,0,0,0,0,0,0,0,0,0,0,0,
0,0,0,0,0,0,0,0,0,0,0,0,0,0,0,0,
0,0,0,0,0,0,0,0,27,28,17,17,17,0,0,0,
0,0,0,17,0,0,0,0,17,17,17,17,17,0,0,0,
0,0,0,17,0,0,0,0,17,17,17,17,21,0,0,0,
0,0,17,17,17,0,0,0,17,17,39,40,0,0,0,0
</chunk>
   <chunk x="208" y="-32" width="16" height="16">
0,0,0,0,0,0,0,0,0,0,37,38,17,17,17,17,
0,0,0,0,0,0,0,0,0,0,0,0,17,17,17,17,
0,0,0,0,0,0,0,0,0,0,0,0,17,17,17,17,
0,0,0,0,0,0,0,0,0,0,0,0,0,0,0,0,
0,0,0,0,0,0,0,0,0,0,0,0,0,0,0,0,
0,0,0,0,0,0,0,0,0,0,0,0,0,0,0,0,
0,0,0,0,0,0,0,0,0,0,0,0,0,0,0,0,
0,0,0,0,0,0,0,0,0,0,0,0,0,0,0,0,
0,17,17,29,30,0,0,0,0,0,0,0,0,0,0,0,
0,17,17,17,17,17,17,17,17,17,17,17,17,17,17,17,
17,17,17,17,17,17,17,17,17,17,17,17,17,17,17,17,
17,17,17,17,17,17,17,17,17,17,17,17,17,17,17,17,
17,17,17,17,17,17,17,17,17,17,17,17,17,17,17,17,
17,17,17,17,17,17,17,17,17,17,17,17,17,39,40,17,
17,17,17,17,17,17,17,17,17,17,17,39,40,0,0,17,
17,17,17,17,17,17,17,17,17,17,21,0,0,0,0,17
</chunk>
   <chunk x="224" y="-32" width="16" height="16">
17,17,17,0,0,17,17,17,0,0,0,0,0,0,0,0,
39,40,0,0,0,17,17,17,0,0,0,0,0,0,0,17,
0,0,0,0,0,17,17,0,0,0,0,0,0,0,0,17,
0,0,0,0,0,20,17,17,0,0,0,0,0,0,0,0,
0,0,0,0,0,0,20,17,0,0,0,0,0,0,0,0,
0,0,0,0,0,0,0,0,0,0,0,0,0,0,0,0,
0,0,0,0,0,0,0,0,0,0,0,0,0,0,0,0,
0,0,0,0,0,0,0,0,0,0,0,0,0,0,0,0,
0,0,0,0,0,0,0,0,0,0,0,0,0,0,0,0,
17,17,17,17,17,17,17,17,17,17,17,17,17,17,17,17,
17,17,17,17,17,17,17,17,17,17,17,17,17,17,17,17,
17,17,17,17,17,17,17,17,17,17,17,17,17,17,17,17,
17,17,17,17,17,17,17,17,17,17,17,17,17,17,17,17,
17,17,17,17,17,17,17,17,17,17,17,17,17,17,17,17,
17,17,17,17,17,17,17,17,17,17,17,17,17,17,17,17,
17,17,17,17,17,17,17,17,17,17,17,17,17,17,17,17
</chunk>
   <chunk x="240" y="-32" width="16" height="16">
17,17,17,17,0,0,0,0,0,0,0,0,0,0,0,0,
17,17,17,17,0,0,0,0,0,0,0,0,0,0,0,0,
17,17,17,17,17,0,0,0,0,0,0,0,0,0,0,0,
37,38,17,17,17,0,0,0,0,0,0,0,0,0,0,0,
0,0,20,17,17,0,0,0,0,0,0,0,0,0,0,0,
0,0,0,17,17,0,0,0,0,0,0,0,0,0,0,0,
0,0,0,17,17,0,0,0,0,0,0,0,0,0,0,0,
0,0,0,20,17,0,0,0,0,0,0,0,0,0,0,0,
0,0,0,0,17,17,0,0,0,0,0,0,0,0,0,0,
17,11,0,0,17,17,0,0,0,0,0,0,0,0,0,0,
17,17,17,17,17,17,0,0,0,0,0,0,0,0,0,0,
17,17,17,17,17,17,0,0,0,0,0,0,0,0,0,0,
17,17,17,17,17,17,17,0,0,0,0,0,0,0,0,0,
17,17,17,17,17,17,17,0,0,0,0,0,0,0,0,0,
17,17,17,17,17,17,17,0,0,0,0,0,0,0,0,0,
17,17,17,17,17,17,17,0,0,0,0,0,0,0,0,0
</chunk>
   <chunk x="0" y="-16" width="16" height="16">
0,0,0,0,0,0,0,0,0,0,0,0,0,0,0,0,
0,0,0,0,0,0,0,0,0,0,0,0,0,0,0,0,
0,0,0,0,0,0,0,0,0,0,0,0,0,0,0,0,
0,0,0,0,0,0,0,0,0,0,0,0,0,0,0,0,
0,0,0,0,0,0,0,0,0,0,0,0,0,0,0,0,
0,0,0,0,0,0,0,0,0,0,0,0,0,0,0,0,
0,0,0,0,0,0,0,0,0,0,0,0,0,0,0,0,
0,0,0,0,0,0,0,0,0,0,0,0,0,0,0,17,
0,0,0,0,0,0,0,0,0,0,0,0,0,0,0,17,
0,0,0,0,0,0,0,0,0,0,0,0,0,0,0,17,
0,0,0,0,0,0,0,0,0,0,0,0,0,0,0,17,
0,0,0,0,0,0,0,0,0,0,0,0,0,0,0,17,
0,0,0,0,0,0,0,0,0,0,0,0,0,0,0,17,
0,0,0,0,0,0,0,0,0,0,0,0,0,0,0,37,
0,0,0,0,0,0,0,0,0,0,0,0,0,0,0,0,
0,0,0,27,28,17,17,17,17,29,30,0,0,0,0,0
</chunk>
   <chunk x="16" y="-16" width="16" height="16">
0,0,0,0,0,0,0,0,0,0,0,0,0,0,0,0,
0,0,0,0,0,0,0,0,0,0,0,0,0,0,0,0,
0,0,0,0,0,0,0,0,0,0,0,0,0,0,0,0,
0,0,0,0,0,0,0,0,0,0,0,0,0,0,0,0,
0,0,0,0,0,0,0,0,0,0,0,0,0,0,0,0,
0,0,0,0,0,0,0,0,0,0,0,0,0,0,0,0,
0,0,0,0,0,0,0,0,0,0,0,0,0,0,0,0,
17,17,0,0,0,0,0,0,0,0,17,17,17,17,0,0,
17,17,0,0,0,0,0,0,0,0,17,17,17,17,0,0,
17,17,0,0,0,0,0,0,0,0,17,17,17,17,0,0,
17,17,0,0,0,0,0,0,0,0,17,17,17,17,0,0,
17,17,0,0,27,28,17,11,0,0,17,17,17,17,0,0,
17,17,17,17,17,17,17,17,17,17,17,17,17,17,0,0,
38,17,17,17,17,17,17,17,17,17,17,17,17,21,0,0,
0,20,17,17,17,17,17,17,17,17,17,17,17,0,0,0,
0,0,0,0,0,0,0,0,0,0,0,0,0,0,0,0
</chunk>
   <chunk x="64" y="-16" width="16" height="16">
0,0,0,0,0,0,0,0,0,0,0,0,0,0,0,0,
0,0,0,0,0,0,0,0,0,0,0,0,0,0,0,0,
0,0,0,0,0,0,0,0,0,0,0,0,0,0,0,0,
0,0,0,0,0,0,0,0,0,0,0,0,0,0,0,0,
0,0,0,0,0,0,0,0,0,0,0,0,0,0,0,0,
0,0,0,0,0,0,0,0,0,0,0,0,0,0,0,0,
0,0,0,0,0,0,0,0,0,0,0,0,0,0,0,0,
0,0,0,0,0,0,0,0,0,0,0,0,0,0,0,0,
0,0,0,0,0,0,0,0,0,0,0,0,0,0,0,0,
0,0,0,0,0,0,0,0,0,0,0,0,0,0,0,0,
0,0,0,0,0,0,0,0,0,0,0,0,0,0,0,0,
0,0,0,0,0,0,0,0,0,0,0,0,0,0,0,0,
0,0,0,0,0,0,0,0,0,0,0,0,0,0,0,0,
0,0,0,0,0,0,0,0,0,0,0,0,0,0,0,0,
0,0,0,0,0,0,0,0,27,28,17,17,17,17,0,0,
27,28,17,17,17,17,17,17,17,17,17,17,17,17,0,0
</chunk>
   <chunk x="144" y="-16" width="16" height="16">
0,0,0,0,0,0,0,0,0,0,0,0,0,0,0,0,
0,0,0,0,0,0,0,0,0,0,0,0,0,0,0,0,
0,0,0,0,0,0,0,0,0,0,0,0,0,0,0,0,
0,0,0,0,0,0,0,0,0,0,0,0,0,0,0,0,
0,0,0,0,0,0,0,0,0,0,0,0,0,0,0,0,
0,0,0,0,0,0,0,0,0,0,0,0,0,0,0,0,
0,0,0,0,0,0,0,0,0,0,0,0,0,0,0,0,
0,0,0,0,0,10,17,11,0,0,0,0,0,27,28,17,
0,0,0,0,0,17,17,17,29,30,0,0,0,17,17,17,
0,0,0,0,0,17,17,17,17,17,17,0,0,0,37,38,
0,0,0,0,0,20,17,17,17,17,21,0,0,0,0,0,
0,0,0,0,0,0,20,17,17,21,0,0,0,0,0,0,
0,0,0,0,0,0,0,0,0,0,0,0,0,10,17,17,
0,0,0,0,0,0,0,0,0,0,0,0,10,17,17,17,
0,0,0,0,0,0,0,0,0,0,0,0,17,17,0,17,
0,0,0,0,0,0,0,0,0,0,0,0,0,0,0,17
</chunk>
   <chunk x="160" y="-16" width="16" height="16">
0,0,0,0,0,0,0,0,0,0,0,0,0,0,0,0,
0,0,0,0,0,0,0,0,0,0,0,0,0,0,0,0,
0,0,0,0,0,0,0,0,0,0,0,0,0,0,0,0,
0,0,0,0,0,0,0,0,0,0,0,0,0,0,0,0,
0,0,0,0,0,0,0,0,0,0,0,0,0,0,0,0,
0,0,0,0,0,0,0,0,0,0,0,0,0,0,0,0,
0,0,0,0,0,0,27,28,17,17,17,17,17,29,30,0,
17,29,30,0,0,0,17,17,17,17,17,17,17,17,17,17,
17,17,17,0,0,0,0,37,38,17,17,17,17,17,17,17,
17,39,40,0,0,0,0,0,0,0,0,0,37,38,17,17,
0,0,0,0,0,0,0,0,0,0,0,0,0,0,0,0,
0,0,27,28,17,17,17,17,0,0,0,0,0,0,0,0,
0,0,17,17,17,17,17,21,0,0,0,0,0,0,0,0,
17,17,17,17,17,39,40,0,0,0,0,0,0,0,0,0,
17,17,17,17,17,0,0,0,0,0,0,0,0,0,0,0,
17,17,17,17,17,0,0,0,0,0,0,0,0,0,0,0
</chunk>
   <chunk x="176" y="-16" width="16" height="16">
0,0,0,0,0,0,0,0,0,0,0,0,0,0,0,0,
0,0,27,28,17,17,17,0,0,0,0,0,0,0,0,0,
0,0,17,17,17,17,21,0,0,0,0,0,0,0,0,0,
0,0,17,17,39,40,0,0,0,0,0,0,0,0,0,0,
0,0,0,0,0,0,0,0,0,0,0,0,0,0,0,0,
0,0,0,0,0,0,0,0,0,0,0,0,0,0,0,0,
0,0,0,0,0,0,0,0,0,0,0,0,0,0,0,0,
17,17,29,30,0,0,0,0,0,0,0,0,0,0,0,0,
17,17,17,17,17,17,11,0,0,0,0,0,0,0,0,0,
17,17,17,17,17,17,17,0,0,0,0,0,0,0,0,0,
37,38,17,17,17,39,40,0,0,0,0,0,0,0,0,0,
0,0,0,0,0,0,0,0,0,0,0,0,0,0,0,0,
0,0,0,0,0,0,0,0,0,0,0,0,0,0,0,0,
0,0,0,0,0,0,0,0,0,0,0,0,0,0,0,0,
0,0,0,0,0,0,0,0,0,0,0,0,0,0,0,0,
0,0,0,0,0,0,0,0,0,0,0,0,0,0,0,0
</chunk>
   <chunk x="192" y="-16" width="16" height="16">
0,0,20,17,21,0,0,0,0,0,0,0,0,0,0,0,
0,0,0,17,0,0,0,0,0,0,0,0,0,0,0,0,
0,0,0,17,0,0,0,0,0,0,0,0,0,0,0,0,
0,0,0,17,0,0,0,0,0,0,0,0,0,0,0,0,
0,0,0,17,0,0,0,0,0,0,0,0,0,0,0,0,
0,0,0,0,0,0,0,0,0,0,0,0,0,0,0,0,
0,0,0,0,0,0,0,0,0,0,0,0,0,0,0,0,
0,0,0,0,0,0,0,0,0,0,0,0,0,0,0,0,
0,0,0,0,0,0,0,0,0,0,0,0,0,0,0,0,
0,0,0,0,0,0,0,0,0,0,0,0,0,0,0,0,
0,0,0,0,0,0,0,0,0,0,0,0,0,0,0,0,
0,0,0,0,0,0,0,0,0,0,0,0,0,0,0,0,
0,0,0,0,0,0,0,0,0,0,0,0,0,0,0,0,
0,0,0,0,0,0,0,0,0,0,0,0,0,0,0,0,
0,0,0,0,0,0,0,0,0,0,0,0,0,0,0,0,
0,0,0,0,0,0,0,0,0,0,0,0,0,0,0,0
</chunk>
   <chunk x="208" y="-16" width="16" height="16">
0,0,0,0,0,0,0,0,0,0,0,0,0,0,0,17,
0,0,0,0,0,0,0,0,0,0,0,0,0,0,0,20,
0,0,0,0,0,0,0,0,0,0,0,0,0,0,0,0,
0,0,0,0,0,0,0,0,0,0,0,0,0,0,0,0,
0,0,0,0,0,0,0,0,0,0,0,0,0,0,0,0,
0,0,0,0,0,0,0,0,0,0,0,0,0,0,0,0,
0,0,0,0,0,0,0,0,0,0,0,0,0,0,0,0,
0,0,0,0,0,0,0,0,0,0,0,0,0,0,0,0,
0,0,0,0,0,0,0,0,0,0,0,0,0,0,0,0,
0,0,0,0,0,0,0,0,0,0,0,0,0,0,0,0,
0,0,0,0,0,0,0,0,0,0,0,0,0,0,0,0,
0,0,0,0,0,0,0,0,0,0,0,0,0,0,0,0,
0,0,0,0,0,0,0,0,0,0,0,0,0,0,0,0,
0,0,0,0,0,0,0,0,0,0,0,0,0,0,0,0,
0,0,0,0,0,0,0,0,0,0,0,0,0,0,0,0,
0,0,0,0,0,0,0,0,0,0,0,0,0,0,0,0
</chunk>
   <chunk x="224" y="-16" width="16" height="16">
17,17,17,17,17,17,17,17,17,17,17,17,17,17,17,17,
17,17,17,17,17,17,17,17,17,17,17,17,17,17,17,17,
37,38,17,17,17,17,17,17,17,17,17,17,17,17,17,17,
0,0,20,17,17,17,17,17,17,17,17,17,17,17,17,17,
0,0,0,0,0,0,0,0,0,0,0,0,0,0,0,0,
0,0,0,0,0,0,0,0,0,0,0,0,0,0,0,0,
0,0,0,0,0,0,0,0,0,0,0,0,0,0,0,0,
0,0,0,0,0,0,0,0,0,0,0,0,0,0,0,0,
0,0,0,0,0,0,0,0,0,0,0,0,0,0,0,0,
0,0,0,0,0,0,0,0,0,0,0,0,0,0,0,0,
0,0,0,0,0,0,0,0,0,0,0,0,0,0,0,0,
0,0,0,0,0,0,0,0,0,0,0,0,0,0,0,0,
0,0,0,0,0,0,0,0,0,0,0,0,0,0,0,0,
0,0,0,0,0,0,0,0,0,0,0,0,0,0,0,0,
0,0,0,0,0,0,0,0,0,0,0,0,0,0,0,0,
0,0,0,0,0,0,0,0,0,0,0,0,0,0,0,0
</chunk>
   <chunk x="240" y="-16" width="16" height="16">
17,17,17,17,17,17,21,0,0,0,0,0,0,0,0,0,
17,17,17,17,17,17,0,0,0,0,0,0,0,0,0,0,
17,17,17,17,17,17,0,0,0,0,0,0,0,0,0,0,
17,17,17,17,39,40,0,0,0,0,0,0,0,0,0,0,
0,0,0,0,0,0,0,0,0,0,0,0,0,0,0,0,
0,0,0,0,0,0,0,0,0,0,0,0,0,0,0,0,
0,0,0,0,0,0,0,0,0,0,0,0,0,0,0,0,
0,0,0,0,0,0,0,0,0,0,0,0,0,0,0,0,
0,0,0,0,0,0,0,0,0,0,0,0,0,0,0,0,
0,0,0,0,0,0,0,0,0,0,0,0,0,0,0,0,
0,0,0,0,0,0,0,0,0,0,0,0,0,0,0,0,
0,0,0,0,0,0,0,0,0,0,0,0,0,0,0,0,
0,0,0,0,0,0,0,0,0,0,0,0,0,0,0,0,
0,0,0,0,0,0,0,0,0,0,0,0,0,0,0,0,
0,0,0,0,0,0,0,0,0,0,0,0,0,0,0,0,
0,0,0,0,0,0,0,0,0,0,0,0,0,0,0,0
</chunk>
   <chunk x="-32" y="0" width="16" height="16">
0,0,0,0,0,0,0,0,0,0,0,0,0,0,0,0,
0,0,0,0,0,0,0,0,0,0,0,0,0,0,0,0,
0,0,0,0,0,0,0,0,0,0,0,0,0,0,0,0,
0,0,0,0,0,0,0,10,17,17,17,17,0,0,0,0,
0,0,0,0,0,0,0,17,17,17,17,17,0,0,0,0,
0,0,0,0,0,0,0,17,17,17,17,17,0,0,0,0,
0,0,0,0,0,0,0,17,17,17,17,0,0,0,0,0,
0,0,0,0,0,0,0,17,17,17,17,17,0,0,0,0,
0,0,0,0,0,0,17,17,17,17,17,17,0,0,0,0,
0,0,0,0,0,0,17,17,17,17,17,17,0,0,0,0,
0,0,0,0,0,0,17,17,17,17,17,0,0,0,0,0,
0,0,0,0,0,0,17,17,17,17,17,17,0,0,0,0,
0,0,0,0,0,0,17,17,17,17,17,17,0,0,0,0,
0,0,0,0,0,0,17,17,17,17,17,0,0,0,0,0,
0,0,0,0,0,0,17,17,17,17,17,0,0,0,0,0,
0,0,0,0,0,0,17,17,17,17,17,17,17,17,17,17
</chunk>
   <chunk x="-16" y="0" width="16" height="16">
0,0,0,0,0,0,0,0,0,0,0,27,28,17,17,17,
0,0,0,17,17,11,0,0,17,17,17,17,17,17,17,17,
0,0,0,17,17,17,0,0,17,17,17,17,17,17,17,17,
0,0,0,17,17,17,0,0,17,17,17,17,17,17,17,17,
0,0,0,0,17,17,0,0,17,17,17,17,17,17,17,17,
0,0,0,17,17,17,17,0,17,17,17,17,17,17,17,17,
0,0,0,17,17,17,17,0,17,17,17,17,17,17,17,17,
0,0,0,17,17,17,17,17,17,17,17,17,17,17,17,17,
0,0,0,0,17,17,17,17,17,17,17,17,17,17,17,17,
0,0,0,17,17,17,17,39,40,37,38,17,17,17,17,17,
0,0,0,17,17,17,21,0,0,0,0,0,37,38,17,17,
0,0,0,0,0,0,0,0,0,0,0,0,0,0,17,17,
0,0,0,0,0,0,0,10,17,0,0,0,0,0,17,21,
0,0,0,0,0,0,0,17,17,0,0,0,0,0,17,0,
0,0,0,0,0,0,0,17,17,0,0,0,0,0,0,0,
17,17,17,17,17,17,17,17,17,0,0,0,0,0,0,0
</chunk>
   <chunk x="0" y="0" width="16" height="16">
17,17,17,17,17,17,17,17,17,17,17,29,30,0,0,0,
17,17,17,17,17,17,17,17,17,17,17,17,17,29,30,0,
17,17,17,17,17,17,17,17,17,17,17,17,17,17,17,29,
17,17,17,17,17,17,17,17,17,17,17,17,17,17,17,17,
17,17,17,17,17,17,17,17,17,17,17,17,17,17,17,17,
17,17,17,17,17,17,17,39,40,0,0,0,0,0,0,0,
17,17,17,39,40,0,0,0,0,0,0,0,0,0,0,0,
17,17,21,0,0,0,0,0,0,0,0,0,0,0,0,0,
17,21,0,0,0,0,0,0,0,0,0,0,0,0,0,0,
21,0,0,0,0,0,0,0,0,0,0,0,0,0,0,0,
0,0,0,0,0,0,0,0,0,0,0,0,0,0,0,0,
0,0,0,0,0,0,0,0,0,0,0,0,0,0,0,0,
0,0,0,0,0,0,0,0,0,0,0,0,0,0,0,0,
0,0,0,0,0,0,0,0,0,0,0,0,0,0,0,0,
0,0,0,0,0,0,0,0,0,0,0,0,0,0,0,0,
0,0,0,0,0,0,0,0,0,0,0,0,0,0,0,0
</chunk>
   <chunk x="16" y="0" width="16" height="16">
0,0,0,0,0,0,0,0,0,0,0,0,0,0,10,17,
0,0,0,0,0,0,0,0,0,0,0,0,0,10,17,17,
30,0,0,0,0,0,0,0,0,0,0,0,10,17,17,17,
17,29,30,0,0,0,0,0,0,0,27,28,17,17,17,17,
17,17,17,0,0,0,0,0,27,28,17,17,17,17,17,17,
0,0,0,0,0,0,27,28,17,17,17,17,17,17,17,17,
0,0,0,0,27,28,17,17,17,17,17,17,17,17,17,17,
0,0,27,28,17,17,17,17,17,17,17,17,17,17,17,17,
27,28,17,17,17,17,17,17,17,17,17,17,17,17,17,17,
17,17,17,17,17,17,17,17,17,17,17,17,17,17,17,17,
17,17,17,17,39,40,0,0,0,0,0,0,0,0,0,0,
17,17,17,21,0,0,0,0,0,0,0,0,0,0,0,0,
0,0,0,0,0,0,0,0,0,0,0,0,0,0,0,0,
0,0,0,0,0,0,0,0,0,0,0,0,0,0,0,0,
0,0,0,0,0,0,0,0,0,0,0,0,0,0,0,0,
0,0,0,0,0,0,0,0,0,0,0,0,0,0,0,0
</chunk>
   <chunk x="32" y="0" width="16" height="16">
0,0,0,0,0,0,0,0,0,0,0,0,0,0,0,0,
0,0,0,0,0,0,0,0,0,0,0,0,0,0,0,0,
0,0,0,0,0,0,0,0,0,0,0,0,0,0,0,0,
0,0,0,0,0,0,0,0,0,0,0,0,0,27,28,17,
0,0,0,0,0,0,0,0,0,27,28,17,17,17,17,17,
0,0,0,0,0,0,17,17,17,17,17,17,17,17,17,17,
0,0,0,0,0,0,17,17,17,17,17,17,17,17,17,17,
0,0,0,0,0,0,17,17,17,17,17,17,17,17,17,17,
0,0,0,0,0,0,17,17,17,17,17,17,17,17,17,17,
0,0,0,0,0,0,17,17,17,17,17,17,17,17,17,17,
0,0,0,0,0,0,17,17,17,17,17,17,17,17,17,17,
0,0,0,0,0,0,17,17,17,17,17,17,17,17,17,17,
0,0,0,0,0,0,17,17,17,17,17,17,17,17,17,39,
0,0,0,0,0,0,17,17,17,17,17,39,40,0,0,0,
0,0,0,0,0,0,17,17,17,17,17,0,0,0,0,0,
0,0,0,0,0,0,17,17,17,17,17,17,0,0,0,0
</chunk>
   <chunk x="48" y="0" width="16" height="16">
0,0,0,0,0,0,0,0,0,27,28,17,17,17,17,17,
0,0,0,0,27,28,17,17,17,17,17,17,17,17,17,17,
0,27,28,17,17,17,17,17,17,17,17,17,17,17,17,17,
17,17,17,17,17,17,17,17,17,17,17,17,17,17,17,17,
17,17,17,17,17,17,17,17,17,17,17,17,17,17,17,17,
17,17,17,17,17,17,17,17,17,17,17,17,17,17,17,17,
17,17,17,17,17,17,17,17,17,17,17,17,17,17,17,17,
17,17,17,17,17,17,17,17,17,17,17,17,17,17,17,17,
17,17,17,17,17,17,17,17,17,17,17,17,17,17,17,17,
17,17,17,17,17,17,17,17,17,17,17,17,17,17,17,17,
17,17,17,17,17,17,17,17,17,17,17,17,17,17,17,17,
17,39,40,0,0,0,0,0,0,0,0,0,0,0,0,0,
40,0,0,0,0,0,0,0,0,0,0,0,0,0,0,0,
0,0,0,0,0,0,0,0,0,0,0,0,0,0,0,0,
0,0,0,0,0,0,0,0,0,0,0,0,0,0,0,0,
0,0,0,0,0,0,0,0,0,0,0,0,0,0,0,0
</chunk>
   <chunk x="64" y="0" width="16" height="16">
17,17,17,17,17,17,17,17,17,17,17,17,17,17,0,0,
17,17,17,17,17,17,17,17,17,17,17,17,17,17,0,0,
17,17,17,17,17,17,17,17,17,17,17,17,17,17,0,0,
17,17,17,17,17,17,17,17,17,17,17,17,17,17,0,0,
17,17,17,17,17,17,17,17,17,17,17,17,17,17,0,0,
17,17,17,17,17,17,17,17,17,17,17,17,17,21,0,0,
17,17,17,17,17,17,17,17,17,17,17,39,40,0,0,10,
17,17,17,17,17,17,17,17,17,39,40,0,0,0,10,17,
17,17,17,17,17,17,17,17,21,0,0,0,0,10,17,17,
17,17,17,17,17,17,39,40,0,0,0,0,10,17,17,17,
17,17,17,39,40,0,0,0,0,0,0,10,17,17,17,17,
0,0,0,0,0,0,0,0,0,0,10,17,17,17,17,17,
0,0,0,0,0,0,0,0,0,10,17,17,17,17,17,17,
0,0,0,0,0,0,0,0,10,17,17,17,17,17,17,17,
0,0,0,0,0,0,0,10,17,17,17,17,17,17,17,17,
0,0,0,0,0,0,10,17,17,17,17,17,17,17,17,17
</chunk>
   <chunk x="80" y="0" width="16" height="16">
0,0,0,0,0,0,0,0,0,0,0,0,0,0,0,0,
0,0,0,0,0,0,0,0,0,0,0,0,0,0,0,0,
0,0,0,0,0,0,0,0,0,0,0,0,0,0,0,0,
0,0,0,0,0,0,0,0,0,0,0,0,0,0,0,0,
0,0,0,0,0,0,0,0,0,0,0,0,0,0,0,0,
0,0,0,0,0,0,0,0,0,0,0,0,0,0,0,0,
17,17,17,17,0,0,0,0,0,0,0,0,17,17,17,17,
17,17,17,17,0,0,0,0,0,0,0,0,17,17,17,17,
17,17,17,17,0,0,0,0,0,0,0,0,20,17,17,17,
17,17,17,17,0,0,0,0,0,0,0,0,0,17,17,17,
17,17,17,17,0,0,0,0,0,0,0,0,0,17,17,17,
17,17,17,17,0,0,0,0,0,0,0,0,0,17,17,17,
17,17,17,17,0,0,0,0,0,0,0,0,0,20,17,17,
17,17,17,17,0,0,0,0,0,0,0,0,0,0,17,17,
17,17,17,17,0,0,0,0,0,0,0,0,0,0,17,17,
17,17,17,17,0,0,0,0,0,0,0,0,0,0,17,17
</chunk>
   <chunk x="96" y="0" width="16" height="16">
0,0,0,0,0,0,0,0,0,0,0,0,0,0,0,0,
0,0,0,0,0,0,0,0,0,0,0,0,0,0,0,0,
0,0,0,0,0,0,0,0,0,0,0,0,0,0,0,0,
0,0,0,0,0,0,0,0,0,0,0,0,0,0,0,0,
0,0,0,0,0,0,0,0,0,0,0,0,0,0,0,0,
0,0,0,0,0,0,0,0,0,0,0,0,0,0,0,0,
17,17,17,29,30,0,0,0,0,0,0,0,0,0,0,0,
17,17,17,17,17,17,17,17,29,30,0,0,0,0,0,0,
17,17,17,17,17,17,17,17,17,17,11,0,0,0,0,0,
17,17,17,17,17,17,17,17,17,17,17,0,0,0,0,0,
17,17,17,17,17,17,17,17,17,17,17,0,0,0,0,0,
17,17,17,17,17,17,17,17,17,17,17,0,0,0,0,0,
17,17,17,17,17,17,17,17,17,17,17,0,0,0,0,0,
17,17,17,17,17,17,17,17,17,17,17,0,0,0,0,0,
17,17,17,17,17,17,17,17,17,17,17,0,0,0,0,0,
17,17,17,17,17,17,17,17,17,17,17,0,0,0,0,0
</chunk>
   <chunk x="112" y="0" width="16" height="16">
0,0,0,0,0,0,0,0,0,0,0,0,0,0,0,0,
0,0,0,0,0,0,0,0,0,0,0,0,0,0,0,0,
0,0,0,0,0,0,0,0,0,0,0,0,0,0,0,0,
0,0,0,0,0,0,0,0,0,0,0,0,0,0,0,0,
0,0,0,0,0,0,0,0,0,0,0,0,0,0,0,0,
0,0,0,0,0,0,0,0,0,0,0,0,0,0,0,0,
0,0,0,0,0,0,0,0,10,17,17,17,17,17,17,17,
0,0,0,0,0,0,0,0,17,17,17,17,17,17,17,17,
0,0,0,0,0,0,0,0,17,17,17,17,17,17,17,17,
0,0,0,0,0,0,0,17,17,17,17,17,17,17,17,17,
0,0,0,0,0,0,0,17,17,17,17,17,17,17,17,17,
0,0,0,0,0,0,17,17,17,17,17,17,17,17,17,17,
0,0,0,0,0,0,17,17,17,17,17,17,17,17,17,21,
0,0,0,0,0,17,17,17,17,17,17,17,17,17,17,0,
0,0,0,0,0,17,17,17,17,17,17,17,17,17,21,0,
0,0,0,0,0,17,17,17,17,17,17,17,17,17,0,0
</chunk>
   <chunk x="128" y="0" width="16" height="16">
0,0,0,0,0,0,0,0,0,0,0,0,0,0,0,0,
0,0,0,0,0,0,0,0,0,0,0,0,0,0,0,0,
0,0,0,0,0,0,0,0,0,0,0,0,0,0,0,0,
0,0,0,0,0,0,0,0,0,0,0,0,0,0,0,0,
0,0,0,0,0,0,0,0,0,0,0,0,0,0,0,0,
0,0,0,0,0,0,0,0,0,0,0,0,0,0,0,0,
17,17,17,17,11,0,0,0,0,0,0,0,0,0,0,0,
17,17,17,17,17,11,0,0,0,0,27,28,17,17,29,30,
17,17,17,17,17,17,0,0,0,0,17,17,17,17,17,17,
17,39,40,0,0,0,0,0,0,0,37,38,17,17,17,17,
21,0,0,0,0,0,0,0,0,0,0,0,37,38,17,17,
0,0,0,0,0,0,0,0,0,0,0,0,0,0,0,0,
0,0,0,0,0,0,0,0,0,0,0,0,0,0,0,0,
0,0,0,0,0,0,0,0,0,0,0,0,0,0,0,0,
0,0,0,0,0,0,0,0,0,0,0,0,0,0,0,0,
0,0,0,0,0,0,0,0,0,0,0,0,0,0,0,0
</chunk>
   <chunk x="144" y="0" width="16" height="16">
0,0,0,0,0,0,0,0,0,0,0,0,0,0,0,17,
0,0,0,0,0,0,0,0,0,0,0,17,17,17,17,17,
0,0,10,17,17,29,30,0,0,0,0,17,17,17,17,17,
0,0,17,17,17,17,17,0,0,10,17,17,17,17,17,39,
0,0,0,0,0,0,0,0,0,17,17,17,17,17,21,0,
0,0,0,0,0,0,0,0,0,17,17,17,17,17,0,0,
0,0,0,0,0,0,0,10,17,17,17,17,17,21,0,0,
0,0,0,0,0,27,28,17,17,17,17,17,21,0,0,0,
11,0,10,17,17,17,17,17,17,17,17,21,0,0,0,0,
17,17,17,17,17,17,17,17,17,17,17,0,0,0,0,0,
17,17,17,17,17,17,17,17,17,17,17,0,0,0,0,0,
0,0,0,0,0,0,37,38,17,17,17,0,0,0,0,0,
0,0,0,0,0,0,0,0,0,0,0,0,0,0,0,0,
0,0,0,0,0,0,0,0,0,0,0,0,0,0,0,0,
0,0,0,0,0,0,0,0,0,0,0,0,0,0,0,0,
0,0,0,0,0,0,0,0,0,0,0,0,0,0,0,0
</chunk>
   <chunk x="160" y="0" width="16" height="16">
17,17,17,17,21,0,0,0,0,0,0,0,0,0,0,0,
17,17,17,21,0,0,0,0,0,0,0,0,0,0,0,0,
17,39,40,0,0,0,0,0,0,0,0,0,0,0,0,0,
40,0,0,0,0,0,0,0,0,0,0,0,0,0,0,0,
0,0,0,0,0,0,0,0,0,0,0,0,0,0,0,0,
0,0,0,0,0,0,0,0,0,0,0,0,0,0,0,0,
0,0,0,0,0,0,0,0,0,0,0,0,0,0,0,0,
0,0,0,0,0,0,0,0,0,0,0,0,0,0,0,0,
0,0,0,0,0,0,0,0,0,0,0,0,0,0,0,0,
0,0,0,0,0,0,0,0,0,0,0,0,0,0,0,0,
0,0,0,0,0,0,0,0,0,0,0,0,0,0,0,0,
0,0,0,0,0,0,0,0,0,0,0,0,0,0,0,0,
0,0,0,0,0,0,0,0,0,0,0,0,0,0,0,0,
0,0,0,0,0,0,0,0,0,0,0,0,0,0,0,0,
0,0,0,0,0,0,0,0,0,0,0,0,0,0,0,0,
0,0,0,0,0,0,0,0,0,0,0,0,0,0,0,0
</chunk>
   <chunk x="-64" y="16" width="16" height="16">
0,0,0,0,0,0,0,0,0,0,0,0,0,0,0,0,
0,0,0,0,0,0,0,0,0,0,0,0,0,0,0,0,
0,0,0,0,0,0,0,0,0,0,0,0,0,0,0,0,
0,0,0,0,0,0,0,0,0,0,0,0,0,0,0,0,
0,0,0,0,0,0,0,0,0,0,0,0,0,0,0,0,
0,0,0,0,0,0,0,0,0,0,0,0,0,0,0,0,
0,0,0,0,0,0,0,0,0,0,0,17,17,29,30,0,
0,0,0,0,0,0,0,0,0,0,0,17,17,17,17,0,
0,0,0,0,0,0,0,0,0,0,0,17,17,17,17,0,
0,0,0,0,0,0,0,0,0,0,0,17,17,17,17,0,
0,0,0,0,0,0,0,0,0,0,0,17,17,17,17,0,
0,0,0,0,0,0,0,0,0,0,0,0,0,0,0,0,
0,0,0,0,0,0,0,0,0,0,0,0,0,0,0,0,
0,0,0,0,0,0,0,0,0,0,0,0,0,0,0,0,
0,0,0,0,0,0,0,0,0,0,0,0,0,0,0,0,
0,0,0,0,0,0,0,0,0,0,0,0,0,0,0,0
</chunk>
   <chunk x="-48" y="16" width="16" height="16">
0,0,0,0,0,0,0,0,0,0,0,0,0,0,0,0,
0,0,0,0,0,0,0,0,0,0,0,0,17,0,0,0,
0,0,0,0,0,0,0,0,0,0,0,0,0,0,0,0,
0,0,0,0,0,0,0,0,0,0,0,0,0,0,0,0,
0,0,0,0,0,0,0,0,0,0,0,0,0,0,0,0,
0,0,0,0,0,0,0,0,0,0,0,0,0,0,0,0,
0,0,27,28,17,0,0,17,29,30,0,0,0,17,17,17,
0,17,17,17,17,0,0,17,17,17,17,0,0,17,17,17,
0,17,17,17,17,0,0,17,17,17,17,0,0,17,17,17,
0,17,17,17,17,0,0,17,17,17,17,0,0,17,17,17,
0,17,17,17,17,0,0,17,17,17,17,0,0,0,37,38,
0,0,0,0,0,0,0,0,0,0,0,0,0,0,0,0,
0,0,0,0,0,0,0,0,0,0,0,0,0,0,0,0,
0,0,0,0,0,0,0,0,0,0,0,0,0,0,0,0,
0,0,0,0,0,0,0,0,0,0,0,0,0,0,0,0,
0,0,0,0,0,0,0,0,0,0,0,0,0,0,0,0
</chunk>
   <chunk x="-32" y="16" width="16" height="16">
0,0,0,0,0,0,17,17,17,17,17,17,17,17,17,17,
0,0,0,0,0,0,20,17,17,17,17,17,17,17,17,17,
0,0,0,0,0,0,0,20,17,17,17,17,17,17,17,17,
0,0,0,0,0,0,0,0,20,17,17,17,17,17,17,17,
0,0,0,0,0,0,0,0,0,17,17,17,17,17,17,17,
0,0,0,0,0,0,0,0,0,20,17,17,17,17,17,17,
17,0,0,17,17,17,17,0,0,0,20,17,17,17,17,17,
17,0,0,17,17,17,17,0,0,0,0,17,17,17,17,17,
17,0,0,17,17,17,17,0,0,0,0,17,17,17,17,17,
17,0,0,17,17,17,17,0,0,0,0,17,17,17,17,17,
17,0,0,17,39,40,0,0,0,0,0,17,17,17,17,17,
0,0,0,0,0,0,0,10,17,17,17,17,17,17,17,17,
0,0,0,0,0,27,28,17,17,17,17,17,17,17,0,0,
0,0,0,0,10,17,17,17,17,17,17,17,17,17,17,0,
0,0,0,10,17,17,17,17,17,17,17,17,17,17,17,0,
0,0,10,17,17,17,17,17,17,17,17,17,17,17,0,0
</chunk>
   <chunk x="-16" y="16" width="16" height="16">
17,17,17,17,17,17,17,17,17,17,17,17,29,30,0,0,
17,17,17,17,17,17,17,17,17,17,17,17,17,17,17,17,
17,17,17,17,17,17,17,17,17,17,17,17,17,17,17,17,
17,17,17,17,17,17,17,17,17,17,17,17,17,17,17,17,
17,17,17,17,17,17,17,17,17,17,17,17,17,17,17,17,
17,17,17,17,17,17,17,17,17,17,17,17,17,17,17,39,
17,17,17,17,17,17,17,17,17,17,17,17,17,17,17,0,
17,17,17,17,17,17,17,17,17,17,17,17,17,17,17,0,
17,17,17,17,17,17,17,17,17,17,17,17,17,17,17,0,
17,17,17,17,17,17,17,17,17,17,17,17,17,17,17,0,
17,17,17,17,39,40,20,17,17,17,17,17,17,17,17,0,
39,40,0,0,0,0,0,20,17,17,17,17,17,17,17,0,
0,0,0,0,0,0,0,0,20,17,17,17,17,17,17,0,
0,0,0,27,28,17,11,0,0,20,17,17,17,17,0,0,
0,17,17,17,17,17,17,11,0,0,17,17,17,17,0,0,
0,17,17,17,17,17,17,17,0,0,20,17,17,17,17,0
</chunk>
   <chunk x="0" y="16" width="16" height="16">
0,0,0,0,0,0,0,0,0,0,0,0,0,0,0,0,
17,29,30,0,0,0,0,0,0,0,0,0,0,0,0,0,
17,17,17,29,30,0,0,0,0,0,0,0,0,0,0,0,
17,17,17,17,17,0,0,0,0,0,0,0,0,0,0,0,
17,17,0,17,21,0,0,0,0,0,0,0,0,0,0,0,
40,0,0,0,0,0,0,0,0,0,0,0,0,0,0,0,
0,0,0,0,0,0,0,0,0,0,0,0,0,0,0,0,
0,0,0,0,0,0,0,0,0,0,10,17,17,17,17,0,
0,0,0,0,0,0,0,0,0,10,17,17,17,17,17,0,
0,0,0,0,0,0,0,0,10,17,17,17,17,17,21,0,
0,0,0,0,0,0,0,10,17,17,17,17,17,21,0,0,
0,0,0,0,0,0,10,17,17,17,17,17,21,0,0,0,
0,0,0,0,0,10,17,17,17,17,17,21,0,0,0,0,
0,0,0,0,10,17,17,17,17,39,40,0,0,0,0,0,
0,0,0,10,17,17,17,17,21,0,0,0,0,0,0,10,
0,0,0,17,17,17,17,21,0,0,0,0,0,0,0,17
</chunk>
   <chunk x="16" y="16" width="16" height="16">
0,0,0,0,0,0,0,0,0,0,0,0,0,0,0,0,
0,0,0,0,0,0,0,0,0,0,0,0,0,0,0,0,
0,0,0,0,0,0,0,0,0,0,0,0,0,0,0,0,
0,0,0,0,0,0,0,0,0,0,0,0,0,0,0,0,
0,0,0,0,0,0,0,0,0,0,0,0,0,0,0,0,
0,0,0,0,0,0,0,0,0,0,0,0,0,0,0,0,
0,0,0,0,0,0,0,10,17,17,17,17,17,17,17,17,
0,0,0,0,0,0,10,17,17,17,17,17,17,17,17,17,
0,0,0,0,0,10,17,17,17,17,17,39,40,0,0,0,
0,0,0,0,10,17,17,17,17,17,21,0,0,0,0,0,
0,0,0,10,17,17,17,17,17,21,0,0,0,0,0,0,
0,0,10,17,17,17,17,17,21,0,0,0,0,0,0,0,
0,10,17,17,17,17,17,21,0,0,0,0,0,0,0,0,
10,17,17,17,17,17,21,0,0,0,0,0,0,0,0,0,
17,17,17,17,17,21,0,0,0,0,0,0,0,0,0,0,
17,17,17,17,21,0,0,0,0,0,0,0,0,0,0,0
</chunk>
   <chunk x="32" y="16" width="16" height="16">
0,0,0,0,0,0,17,17,17,17,17,17,0,0,0,0,
0,0,0,0,0,0,20,17,17,17,17,17,17,11,0,0,
0,0,0,0,0,0,0,20,17,17,17,17,17,17,0,0,
0,0,0,0,0,0,0,0,20,17,17,17,17,17,0,0,
0,0,0,0,0,0,0,0,0,0,17,17,17,17,0,0,
0,0,0,0,0,0,0,0,0,0,17,17,17,17,0,0,
17,17,0,0,17,17,17,17,17,17,17,17,17,17,0,0,
17,17,0,0,17,17,17,17,17,17,17,17,17,17,0,0,
0,0,0,0,0,0,0,0,37,38,17,17,39,40,0,0,
0,17,17,0,0,0,0,0,0,0,17,17,0,0,0,0,
0,17,17,0,0,0,0,0,0,0,0,17,0,0,0,0,
0,17,17,0,0,0,0,0,0,0,17,17,0,0,0,0,
0,17,0,0,0,0,0,0,0,0,17,17,0,0,0,0,
0,17,17,0,0,0,0,0,0,0,17,17,0,0,0,0,
0,17,17,0,0,0,0,0,0,0,0,17,0,0,0,0,
0,17,17,0,0,0,0,0,0,0,17,17,0,0,0,0
</chunk>
   <chunk x="48" y="16" width="16" height="16">
0,0,0,0,0,0,0,0,0,0,0,0,0,0,0,0,
0,0,0,0,0,0,0,0,0,0,0,0,0,0,0,0,
0,0,0,0,0,0,0,0,0,0,0,0,0,0,0,0,
0,0,0,0,0,0,0,0,0,0,0,0,0,0,0,0,
0,0,0,0,0,0,0,0,0,0,0,0,0,0,0,0,
0,0,0,0,0,0,0,0,0,0,0,0,0,0,0,0,
0,0,0,0,0,0,0,0,0,0,0,0,0,0,0,10,
0,0,0,0,0,0,0,0,0,0,0,0,0,0,10,17,
0,0,0,0,0,0,0,0,0,0,0,0,0,10,17,17,
0,0,0,0,0,0,0,0,0,0,0,0,10,17,17,17,
0,0,0,0,0,0,0,0,0,0,0,10,17,17,17,17,
0,0,0,0,0,0,0,0,0,0,10,17,17,17,17,17,
0,0,0,0,0,0,0,0,0,10,17,17,17,17,17,17,
0,0,0,0,0,0,0,0,10,17,17,17,17,17,17,17,
0,0,0,0,0,0,0,10,17,17,17,17,17,17,17,17,
0,0,0,0,0,0,10,17,17,17,17,17,17,17,17,17
</chunk>
   <chunk x="64" y="16" width="16" height="16">
0,0,0,0,0,10,17,17,17,17,17,17,17,17,17,17,
0,0,0,0,10,17,17,17,17,17,17,17,17,17,17,17,
0,0,0,10,17,17,17,17,17,17,17,17,17,17,17,17,
0,0,10,17,17,17,17,17,17,17,17,17,17,17,17,17,
0,10,17,17,17,17,17,17,17,17,17,17,17,17,17,17,
10,17,17,17,17,17,17,17,17,17,17,17,17,17,17,17,
17,17,17,17,17,17,17,17,17,17,17,17,17,17,17,17,
17,17,17,17,17,17,17,17,17,17,17,17,17,17,17,17,
17,17,17,17,17,17,17,17,17,17,17,17,17,17,17,17,
17,17,17,17,17,17,17,17,17,17,17,17,17,17,17,17,
17,17,17,17,17,17,17,17,17,17,17,17,17,17,17,17,
17,17,17,17,17,17,17,17,17,17,17,17,17,17,17,17,
17,17,17,17,17,17,17,17,17,17,17,17,17,17,17,17,
17,17,17,17,17,17,17,17,17,17,17,17,17,17,17,17,
17,17,17,17,17,17,17,17,17,17,17,17,17,17,17,17,
17,17,17,17,17,17,17,17,17,17,17,17,17,17,17,17
</chunk>
   <chunk x="80" y="16" width="16" height="16">
17,17,17,17,0,0,0,0,0,0,0,0,0,0,20,17,
17,17,17,17,0,0,0,0,0,0,0,0,0,0,0,17,
17,17,17,17,0,0,0,0,0,0,0,0,0,0,0,17,
17,17,17,17,0,0,0,0,0,0,0,0,0,0,0,17,
17,17,17,17,0,0,0,0,0,0,0,0,0,0,0,20,
17,17,17,17,0,0,0,0,0,0,0,0,0,0,0,0,
17,17,17,17,0,0,0,0,0,0,0,0,0,0,0,0,
17,17,17,17,0,0,0,0,0,0,0,0,0,0,0,0,
17,17,17,17,0,0,0,0,0,0,0,0,0,0,0,0,
17,17,17,17,0,0,0,0,0,0,0,0,0,0,0,0,
17,17,17,17,0,0,0,0,0,0,0,0,0,0,0,0,
17,17,17,17,0,0,0,0,0,0,0,0,0,0,0,0,
17,17,17,17,0,0,0,0,0,0,0,0,0,0,0,0,
17,17,17,17,0,0,0,0,0,0,0,0,0,0,0,0,
17,17,17,17,0,0,0,0,0,0,0,0,0,0,0,0,
17,17,17,17,0,0,0,0,0,0,0,0,0,0,0,0
</chunk>
   <chunk x="96" y="16" width="16" height="16">
17,17,17,17,17,17,17,17,17,17,17,17,0,0,0,0,
17,17,17,17,17,17,17,17,17,17,17,17,0,0,0,0,
17,17,17,17,17,17,17,17,17,17,17,17,0,0,0,0,
17,17,17,17,17,17,17,17,17,17,17,17,17,0,0,0,
17,17,17,17,17,17,17,17,17,17,17,17,17,0,0,0,
17,17,17,17,17,17,17,17,17,17,17,17,17,17,0,0,
17,17,17,17,17,17,17,17,17,17,17,17,17,17,0,0,
20,17,17,17,17,17,17,17,17,17,17,17,17,17,0,0,
0,17,17,17,17,17,17,17,17,17,17,17,17,17,17,0,
0,20,17,17,17,17,17,17,17,17,17,17,17,17,17,0,
0,0,17,17,17,17,17,17,17,17,17,17,17,17,17,17,
0,0,17,17,17,17,17,17,17,17,17,17,17,17,17,17,
0,0,20,17,17,17,17,17,17,17,17,17,17,17,17,17,
0,0,0,20,17,17,17,17,17,17,17,17,17,17,17,17,
0,0,0,0,20,17,17,17,17,17,17,17,17,17,17,17,
0,0,0,0,0,37,38,17,17,17,17,17,17,17,17,17
</chunk>
   <chunk x="112" y="16" width="16" height="16">
0,0,0,10,17,17,17,17,17,17,17,17,17,17,0,0,
0,0,0,17,17,17,17,17,17,17,39,40,20,17,0,0,
0,0,0,20,17,17,17,17,0,0,0,0,0,17,17,29,
0,0,0,0,17,17,17,17,17,17,0,0,0,17,17,17,
0,0,0,0,20,17,17,17,17,17,0,0,0,17,17,17,
0,0,0,0,0,17,17,17,17,17,0,0,0,17,17,17,
0,0,0,0,0,17,17,17,17,17,0,0,0,17,17,17,
0,0,0,0,0,20,17,17,17,17,0,0,0,17,17,17,
0,0,0,0,0,0,17,17,17,17,0,0,0,17,17,17,
0,0,0,0,0,0,17,17,17,17,0,0,0,17,17,17,
0,0,0,0,0,0,20,17,17,17,0,0,0,17,17,17,
0,0,0,0,0,0,0,17,17,17,0,0,0,20,17,17,
17,0,0,0,0,0,0,17,17,17,0,0,0,0,17,17,
17,0,0,0,0,0,0,20,17,17,0,0,0,0,17,17,
17,17,17,11,0,0,0,0,17,17,0,0,0,17,17,17,
17,17,17,17,0,0,0,0,17,17,0,0,0,17,17,17
</chunk>
   <chunk x="128" y="16" width="16" height="16">
0,0,0,0,0,0,0,0,0,0,0,0,0,0,0,0,
0,0,0,0,0,0,0,0,0,0,0,0,0,0,0,0,
30,0,0,0,0,0,0,0,0,0,0,0,0,0,0,0,
17,17,17,0,0,0,0,0,0,0,0,0,0,0,0,0,
17,17,17,0,0,0,0,0,0,0,0,0,0,0,0,0,
17,17,17,0,0,0,0,0,0,0,0,0,0,0,0,0,
17,17,17,0,0,0,0,0,0,0,0,0,0,0,0,0,
17,17,17,0,0,0,0,0,0,0,0,0,0,0,0,0,
17,17,17,0,0,0,0,0,0,0,0,0,0,0,0,0,
17,17,17,0,0,0,0,0,0,0,0,0,0,0,0,0,
17,17,17,0,0,0,0,0,0,0,0,0,0,0,0,0,
17,17,17,0,0,0,0,0,0,0,0,0,0,0,0,0,
17,17,17,0,0,0,0,0,0,0,0,0,0,0,0,0,
17,17,17,0,0,0,0,0,0,0,0,0,0,0,0,0,
17,17,17,0,0,0,0,0,0,0,0,0,0,0,0,0,
39,40,0,0,0,0,0,0,0,0,0,0,0,0,0,0
</chunk>
   <chunk x="-80" y="32" width="16" height="16">
0,0,0,0,0,0,0,0,0,0,0,0,0,0,0,0,
0,0,0,0,0,0,0,0,0,0,0,0,0,0,0,0,
0,0,0,0,0,0,0,0,0,0,0,0,0,0,0,0,
0,17,17,17,17,0,0,0,0,0,0,0,0,0,0,0,
0,17,17,17,17,0,0,0,0,0,0,0,0,0,0,0,
0,17,17,17,17,0,0,0,0,0,0,0,0,0,0,0,
0,17,17,17,17,0,0,0,0,0,0,0,0,0,0,0,
0,17,17,17,17,0,0,0,0,0,0,0,0,0,0,0,
0,17,17,17,17,0,0,0,0,0,0,0,0,0,0,0,
0,17,17,17,17,17,17,29,30,0,0,0,0,0,0,0,
0,17,17,17,17,17,17,17,17,29,30,0,0,0,0,0,
0,17,17,17,17,17,17,17,17,17,17,29,30,0,0,0,
0,17,17,17,17,17,17,17,17,17,17,17,17,11,0,0,
0,17,17,17,17,17,17,17,17,17,17,17,17,17,0,0,
0,17,17,17,17,17,17,17,17,17,17,17,17,17,0,0,
0,17,17,17,17,17,17,17,17,17,17,17,17,17,0,0
</chunk>
   <chunk x="-64" y="32" width="16" height="16">
0,0,0,0,0,0,0,0,0,0,0,0,0,0,0,0,
0,0,0,0,0,0,0,0,0,0,0,0,0,0,0,0,
0,0,0,0,0,0,0,0,0,0,0,0,0,0,0,0,
0,0,0,0,0,0,0,0,0,0,0,0,0,0,0,0,
0,0,0,0,0,0,0,0,0,0,0,0,0,0,0,0,
0,0,0,0,0,0,0,0,0,0,0,0,0,0,0,0,
0,0,0,0,0,0,0,0,0,0,0,0,0,0,0,0,
0,0,0,0,0,0,0,0,0,0,0,0,0,0,0,0,
0,0,0,0,0,0,0,0,0,0,0,0,0,0,0,0,
0,0,0,0,0,0,0,27,28,17,17,17,17,17,17,17,
0,0,0,27,28,17,17,17,17,17,17,17,17,17,17,17,
0,0,10,17,17,17,17,17,17,17,17,17,17,17,17,17,
0,0,17,17,17,17,17,17,17,17,17,17,17,17,17,17,
0,0,17,17,17,17,17,17,17,17,17,17,17,17,17,17,
0,0,20,17,17,17,17,17,17,17,17,17,17,17,17,17,
0,0,0,20,17,17,17,17,17,17,17,17,17,17,17,17
</chunk>
   <chunk x="-48" y="32" width="16" height="16">
0,0,0,0,0,0,0,0,0,0,0,0,0,0,0,0,
0,0,0,0,0,0,0,0,0,0,0,0,0,0,0,0,
0,0,0,0,0,0,0,0,0,0,0,0,0,0,0,10,
0,0,0,0,0,0,0,0,0,0,0,0,0,0,0,17,
0,0,0,0,0,0,0,0,0,0,0,0,0,0,0,17,
0,0,0,0,0,0,0,0,0,0,0,0,27,28,17,17,
0,0,0,0,0,0,0,0,27,28,17,17,17,17,17,17,
0,0,0,0,0,0,0,0,17,17,17,17,17,17,17,17,
0,0,0,0,0,0,0,0,17,17,17,17,17,17,17,17,
17,17,17,17,17,17,17,17,17,17,17,17,17,17,17,17,
17,17,17,17,17,17,17,17,17,17,17,17,17,17,17,17,
17,17,17,17,17,17,17,17,17,17,17,17,17,17,17,17,
17,17,17,17,17,17,17,17,17,17,17,17,17,17,17,17,
17,17,17,17,17,17,17,17,17,17,17,17,17,17,17,17,
17,17,17,17,17,17,17,17,17,17,17,17,17,17,17,17,
17,17,17,17,17,17,17,17,17,17,17,17,17,39,40,0
</chunk>
   <chunk x="-32" y="32" width="16" height="16">
0,10,17,17,17,17,17,17,17,17,17,17,17,17,17,0,
10,17,17,17,17,17,17,17,17,17,17,17,17,17,17,0,
17,17,17,17,17,17,17,17,17,17,17,17,17,17,0,0,
17,17,17,17,17,17,17,17,17,17,17,17,17,17,17,0,
17,17,17,17,17,17,17,17,17,17,17,17,17,17,17,0,
17,17,17,17,17,17,17,17,17,17,17,17,17,17,0,0,
17,17,17,17,17,17,17,17,17,17,17,17,17,17,17,0,
17,17,17,17,17,17,17,17,17,17,17,17,17,17,17,0,
17,17,17,17,17,17,17,17,17,17,17,17,17,17,17,0,
17,17,17,17,17,17,17,17,17,17,17,17,17,17,17,17,
17,17,17,17,17,17,17,17,17,39,40,20,17,17,17,17,
17,17,17,17,17,17,17,39,40,0,0,0,37,38,17,17,
17,17,17,17,17,17,21,0,0,0,0,0,0,0,0,0,
17,17,17,17,17,17,0,0,0,0,0,0,0,0,0,0,
17,17,17,39,40,0,0,0,0,0,0,0,0,0,0,0,
0,0,0,0,0,0,0,0,0,0,0,0,0,0,0,0
</chunk>
   <chunk x="-16" y="32" width="16" height="16">
0,17,17,17,17,17,17,17,0,0,0,20,17,17,17,0,
0,17,17,17,17,17,17,17,17,0,0,0,17,17,17,17,
0,17,17,17,17,17,17,17,17,0,0,0,17,17,17,17,
0,17,17,17,17,17,17,17,17,17,0,0,37,38,17,17,
0,17,39,40,20,17,17,17,17,17,0,0,0,0,37,38,
0,0,0,0,0,0,0,37,38,17,17,29,30,0,0,0,
0,0,0,0,0,0,0,0,0,20,17,17,17,29,30,0,
0,0,0,0,0,0,0,0,0,0,37,38,17,17,17,11,
0,0,0,0,0,0,0,0,0,0,0,0,37,38,17,17,
17,17,17,17,17,17,17,17,17,29,30,0,0,0,20,17,
17,17,17,17,17,17,17,17,17,17,17,11,0,0,0,17,
17,17,17,17,17,17,17,17,17,17,17,17,0,0,0,17,
0,37,38,17,17,17,17,17,17,17,17,17,0,0,0,17,
0,0,0,20,17,17,17,17,17,17,17,0,0,0,0,17,
0,0,0,0,0,0,0,0,0,0,0,0,0,0,0,17,
0,0,0,0,0,0,0,0,0,0,0,17,17,17,17,17
</chunk>
   <chunk x="0" y="32" width="16" height="16">
0,0,0,20,17,17,21,0,0,0,0,0,0,0,0,20,
17,11,0,0,0,0,0,0,0,0,0,0,0,0,0,0,
17,17,0,0,0,0,0,0,0,0,0,0,0,0,0,0,
17,17,0,0,0,0,0,0,0,0,0,0,17,17,17,17,
17,17,17,11,0,0,0,0,0,0,0,0,17,17,17,17,
20,17,17,17,11,0,0,0,0,0,0,0,37,38,17,17,
0,37,38,17,17,11,0,0,0,0,0,0,0,0,20,17,
0,0,0,17,17,17,11,0,0,0,0,0,0,0,0,20,
11,0,0,20,17,17,17,11,0,0,0,0,0,0,0,0,
17,0,0,0,17,17,17,17,11,0,0,0,0,0,0,0,
17,0,0,0,20,17,17,17,17,11,0,0,0,0,0,0,
17,0,0,0,0,17,17,17,17,17,29,30,0,0,0,0,
17,0,0,0,0,37,38,17,17,17,17,17,17,11,0,0,
17,0,0,0,0,0,0,20,17,17,17,17,17,17,11,0,
17,0,0,0,0,0,0,0,20,17,17,17,17,17,17,0,
17,0,0,0,0,0,0,0,0,20,17,17,17,17,17,0
</chunk>
   <chunk x="16" y="32" width="16" height="16">
17,17,17,21,0,0,0,0,0,0,0,0,0,0,0,0,
0,0,0,0,0,0,0,0,0,0,0,0,0,0,0,0,
0,0,0,0,0,0,0,0,0,0,0,0,0,0,0,0,
29,30,0,0,0,0,0,0,0,0,0,0,0,0,0,0,
17,17,17,29,30,0,0,0,0,0,0,0,0,0,0,0,
17,17,17,17,17,17,17,11,0,0,0,0,0,0,0,0,
17,17,17,17,17,17,17,17,11,0,0,0,0,0,0,0,
17,17,17,17,17,17,17,17,17,11,0,0,0,0,0,0,
0,37,38,17,17,17,17,17,17,17,0,0,0,0,0,0,
0,0,0,37,38,17,17,17,17,17,0,0,0,0,0,0,
0,0,0,0,0,20,17,17,17,21,0,0,0,0,0,0,
0,0,0,0,0,0,0,0,0,0,0,0,0,0,0,0,
0,0,0,0,0,0,0,0,0,0,0,0,27,28,17,17,
0,0,0,0,0,0,0,0,0,0,10,17,17,17,17,17,
0,0,0,0,0,0,0,0,0,0,17,17,17,17,17,17,
0,0,0,0,0,0,0,0,0,0,17,17,17,17,17,17
</chunk>
   <chunk x="32" y="32" width="16" height="16">
0,17,0,0,0,0,0,0,0,0,17,17,0,0,0,0,
0,17,17,0,0,0,0,0,0,0,0,0,0,0,0,0,
0,17,17,0,0,0,0,0,0,0,0,0,0,0,0,0,
0,17,21,0,0,0,0,0,0,0,0,0,0,0,0,0,
0,0,0,0,0,0,0,0,0,0,0,0,0,0,0,0,
0,0,0,0,0,0,0,0,0,0,0,0,0,0,0,0,
0,0,0,0,0,0,0,0,0,0,0,0,0,0,0,10,
0,0,0,0,0,0,0,0,0,0,0,0,0,0,10,17,
0,0,0,0,0,0,0,0,0,0,0,0,0,10,17,17,
0,0,0,0,0,0,0,0,0,0,0,0,10,17,17,17,
0,0,0,0,0,0,0,0,0,0,0,10,17,17,17,17,
0,0,0,0,0,0,0,0,0,0,10,17,17,17,17,17,
17,17,29,30,0,0,0,0,27,28,17,17,17,17,17,17,
17,17,17,17,17,17,17,17,17,17,17,17,17,17,17,17,
17,17,17,17,17,17,17,17,17,17,17,17,17,17,17,17,
17,17,17,17,17,17,17,17,17,17,17,17,17,17,17,17
</chunk>
   <chunk x="48" y="32" width="16" height="16">
0,0,0,0,0,10,17,17,17,17,17,17,17,17,17,17,
0,0,0,0,10,17,17,17,17,17,17,17,17,17,17,17,
0,0,0,10,17,17,17,17,17,17,17,17,17,17,17,17,
0,0,10,17,17,17,17,17,17,17,17,17,17,17,17,17,
0,10,17,17,17,17,17,17,17,17,17,17,17,17,17,17,
10,17,17,17,17,17,17,17,17,17,17,17,17,17,17,17,
17,17,17,17,17,17,17,17,17,17,17,17,17,17,17,17,
17,17,17,17,17,17,17,17,17,17,17,17,17,17,17,17,
17,17,17,17,17,17,17,17,17,17,17,17,17,17,17,17,
17,17,17,17,17,17,17,17,17,17,17,17,17,17,17,17,
17,17,17,17,17,17,17,17,17,17,17,17,17,17,17,17,
17,17,17,17,17,17,17,17,17,17,17,17,17,17,17,17,
17,17,17,17,17,17,17,17,17,17,17,17,17,17,17,17,
17,17,17,17,17,17,17,17,17,17,17,17,17,17,17,17,
17,17,17,17,17,17,17,17,17,17,17,17,17,17,17,17,
17,17,17,17,17,17,17,17,17,17,17,17,17,17,17,17
</chunk>
   <chunk x="64" y="32" width="16" height="16">
17,17,17,17,17,17,17,17,17,17,17,17,17,17,17,17,
17,17,17,17,17,17,17,17,17,17,17,17,17,17,17,17,
17,17,17,17,17,17,17,17,17,17,17,17,17,17,17,17,
17,17,17,17,17,17,17,17,17,17,17,17,17,17,17,17,
17,17,17,17,17,17,17,17,17,17,17,17,17,17,17,17,
17,17,17,17,17,17,17,17,17,17,17,17,17,17,17,17,
17,17,17,17,17,17,17,17,17,17,17,17,17,17,17,17,
17,17,17,17,17,17,17,17,17,17,17,17,17,17,17,17,
17,17,17,17,17,17,17,17,17,17,17,17,17,17,17,17,
17,17,17,17,17,17,17,17,17,17,17,17,17,17,17,17,
17,17,17,17,17,17,17,17,17,17,17,17,17,17,17,17,
17,17,17,17,17,17,17,17,17,17,17,17,17,17,17,17,
17,17,17,17,17,17,17,17,17,17,17,17,17,17,17,17,
17,17,17,17,17,17,17,17,17,17,17,17,17,17,17,17,
17,17,17,17,17,17,17,17,17,17,17,17,17,17,17,17,
17,17,17,17,17,17,17,17,17,17,17,17,17,17,17,17
</chunk>
   <chunk x="80" y="32" width="16" height="16">
17,17,17,17,0,0,0,0,0,0,0,0,0,0,0,0,
17,17,17,17,0,0,0,0,0,0,0,0,0,0,27,28,
17,17,17,17,0,0,0,0,0,0,0,0,27,28,17,17,
17,17,17,17,0,0,0,0,0,0,27,28,17,17,17,17,
17,17,17,17,0,0,0,0,0,10,17,17,17,17,17,17,
17,17,17,17,0,0,0,0,10,17,17,17,17,17,17,17,
17,17,17,17,0,0,0,10,17,17,17,17,17,17,39,40,
17,17,17,17,0,0,10,17,17,17,17,39,40,0,0,0,
17,17,17,17,17,17,17,17,17,17,21,0,0,0,0,0,
17,17,17,17,17,17,17,17,39,40,0,0,0,0,0,0,
17,17,17,17,17,39,40,0,0,0,0,0,0,0,0,0,
17,17,17,17,17,0,0,0,0,0,0,0,0,0,0,0,
17,17,17,17,17,0,0,0,0,0,0,0,0,0,0,0,
17,17,17,17,17,0,0,0,0,0,0,0,0,0,0,0,
17,17,17,17,17,0,0,0,0,0,0,0,0,0,0,0,
17,17,17,17,17,0,0,0,0,0,0,0,0,0,0,0
</chunk>
   <chunk x="96" y="32" width="16" height="16">
27,28,17,11,0,0,0,37,38,17,17,17,17,17,17,17,
17,17,17,17,11,0,0,0,0,20,17,17,17,17,17,17,
17,17,17,17,17,11,0,0,0,0,37,38,17,17,17,17,
17,17,17,17,17,17,29,30,0,0,0,0,0,0,0,0,
17,17,17,17,17,17,17,17,29,30,0,0,0,0,0,0,
17,17,17,17,17,17,17,17,17,17,29,30,0,0,0,0,
0,37,38,17,17,17,17,17,17,17,17,17,17,17,17,17,
0,0,0,20,17,17,17,17,17,17,17,17,17,17,17,17,
0,0,0,0,20,17,17,17,17,17,17,17,17,17,17,17,
0,0,0,0,0,20,17,17,17,17,17,17,17,17,17,17,
0,0,0,0,0,0,20,17,17,17,17,17,17,17,17,17,
0,0,0,0,0,0,0,17,17,17,17,17,17,17,17,17,
0,0,0,0,0,0,0,20,17,17,17,17,17,17,17,17,
0,0,0,0,0,0,0,0,17,17,17,17,17,17,17,17,
0,0,0,0,0,0,0,0,17,17,17,17,17,17,17,17,
0,0,0,0,0,0,0,0,20,17,17,17,17,17,17,17
</chunk>
   <chunk x="112" y="32" width="16" height="16">
17,17,17,17,0,0,10,17,17,17,0,0,0,17,17,17,
17,17,17,17,0,0,17,17,17,17,0,0,0,17,17,17,
17,17,39,40,0,0,17,17,17,17,0,0,0,17,17,17,
0,0,0,0,0,0,0,17,17,17,17,17,17,17,17,17,
0,0,0,0,0,0,0,17,17,17,17,17,17,17,17,17,
0,0,0,0,27,28,17,17,17,17,17,17,17,17,17,17,
17,17,17,17,17,17,17,17,17,17,17,17,17,17,17,17,
17,17,17,17,17,17,17,17,17,17,17,17,17,17,17,17,
17,17,17,17,17,17,17,17,17,17,17,17,17,17,17,17,
17,17,17,17,17,17,17,17,17,17,17,17,17,17,17,17,
17,17,17,17,17,17,17,17,17,17,17,17,17,17,17,21,
17,17,17,17,17,17,17,17,17,17,17,17,39,40,0,0,
17,17,17,17,17,17,17,17,17,17,17,17,0,0,0,0,
17,17,17,17,17,17,17,17,17,17,17,17,17,0,0,0,
17,17,17,17,17,17,17,17,17,17,17,17,17,0,0,0,
17,17,17,17,17,17,17,17,17,17,17,17,17,17,0,0
</chunk>
   <chunk x="128" y="32" width="16" height="16">
0,0,0,0,0,0,0,0,0,0,0,0,0,0,0,0,
17,0,0,0,0,0,0,0,0,0,0,0,0,0,0,0,
17,0,0,0,0,0,0,0,0,0,0,0,0,0,0,0,
17,17,11,0,0,0,0,0,0,0,0,0,0,0,0,0,
17,17,17,0,0,0,0,0,0,0,0,0,0,0,0,0,
17,17,21,0,0,0,0,0,0,0,0,0,0,0,0,0,
17,21,0,0,0,0,0,0,0,0,0,0,0,0,0,0,
17,0,0,0,0,0,0,0,0,0,0,0,0,0,0,0,
17,0,0,0,0,0,0,0,0,0,0,0,0,0,0,0,
21,0,0,0,0,0,0,0,0,0,0,0,0,0,0,0,
0,0,0,0,0,0,0,0,0,0,0,0,0,0,0,0,
0,0,0,0,0,0,0,0,0,0,0,0,0,0,0,0,
0,0,0,0,0,0,0,0,0,0,0,0,0,0,0,0,
0,0,0,0,0,0,0,0,0,0,0,0,0,0,0,0,
0,0,0,0,0,0,0,0,0,0,0,0,0,0,0,0,
0,0,0,0,0,0,0,0,0,0,0,0,0,0,0,0
</chunk>
   <chunk x="-80" y="48" width="16" height="16">
0,17,17,17,17,17,17,17,17,17,17,17,17,17,0,0,
0,17,17,17,17,17,17,17,17,17,17,17,17,17,0,0,
0,17,17,17,17,17,17,17,17,17,17,17,17,17,0,0,
0,17,17,17,17,17,17,17,17,17,17,17,17,17,17,17,
0,17,17,17,17,17,17,17,17,17,17,17,17,17,17,17,
0,17,17,17,17,17,17,17,17,17,17,17,17,17,17,17,
0,17,17,17,17,17,17,17,17,17,17,17,17,17,17,17,
0,17,17,17,17,17,17,17,17,17,17,17,17,17,17,17,
0,17,17,17,17,17,17,17,17,17,17,17,17,17,17,17,
0,17,17,17,17,17,17,17,17,17,17,17,17,17,17,17,
0,37,38,17,17,17,17,17,17,17,17,17,17,17,17,17,
0,0,0,37,38,17,17,17,17,17,17,17,17,17,17,17,
0,0,0,0,0,0,37,38,17,17,17,17,17,17,17,17,
0,0,0,0,0,0,0,0,0,0,0,0,0,0,37,38,
0,0,0,0,0,0,0,0,0,0,0,0,0,0,0,0,
0,0,0,0,0,0,0,0,0,0,0,0,0,0,0,0
</chunk>
   <chunk x="-64" y="48" width="16" height="16">
0,0,0,0,20,17,17,17,17,17,17,17,17,17,17,17,
0,0,0,0,0,20,17,17,17,17,17,17,17,17,17,17,
0,0,0,0,0,0,0,0,0,0,0,0,0,0,0,0,
17,0,0,0,0,0,0,0,0,0,0,0,0,0,0,0,
17,0,0,0,0,0,0,0,0,0,0,0,0,0,0,0,
17,17,17,17,17,17,29,30,0,0,0,0,0,0,0,0,
17,17,17,17,17,17,17,17,17,29,30,0,0,0,0,0,
17,17,17,17,17,17,17,17,17,17,17,17,17,17,17,17,
17,17,17,17,17,17,17,17,17,17,17,17,17,17,17,17,
17,17,17,17,17,17,17,17,17,17,17,17,17,17,17,17,
17,17,17,17,17,17,17,17,17,17,17,17,17,17,17,17,
17,17,17,17,17,17,17,17,17,17,17,17,17,17,17,17,
17,17,17,17,17,17,17,17,17,17,17,17,17,17,17,17,
17,17,17,17,17,17,17,17,17,17,17,17,17,17,17,17,
37,38,17,17,17,17,17,17,17,17,17,17,17,17,17,17,
0,0,0,0,0,0,37,38,17,17,17,17,17,17,17,17
</chunk>
   <chunk x="-48" y="48" width="16" height="16">
17,17,17,17,17,17,17,17,17,17,39,40,0,0,0,0,
17,39,40,0,0,0,0,0,0,0,0,0,0,0,0,0,
0,0,0,0,0,0,0,0,0,0,0,0,0,0,0,0,
0,0,0,0,0,0,0,0,0,0,0,0,0,0,0,0,
0,0,0,0,0,0,0,0,0,0,0,0,0,0,0,0,
0,0,0,0,17,17,11,0,0,0,0,0,0,0,0,0,
0,0,0,0,17,17,17,11,0,0,0,0,0,0,17,29,
17,17,17,17,17,17,17,17,29,30,0,0,0,0,17,17,
17,17,17,17,17,17,17,17,17,17,17,17,17,17,17,17,
17,17,17,17,17,17,17,17,17,17,17,17,17,17,17,17,
17,17,17,17,17,17,17,17,17,17,17,17,17,17,17,17,
17,17,17,17,17,17,17,17,17,17,17,17,17,17,17,17,
17,17,17,17,17,17,17,17,17,17,17,17,17,17,17,17,
17,17,17,17,17,17,17,17,17,17,17,17,17,17,17,17,
17,17,17,17,17,17,17,17,17,17,17,17,17,17,17,17,
17,17,17,17,17,17,17,17,17,17,17,17,17,17,17,17
</chunk>
   <chunk x="-32" y="48" width="16" height="16">
0,0,0,0,0,0,0,0,0,0,0,0,0,0,0,0,
0,0,0,0,0,0,0,0,0,0,0,0,0,0,0,0,
0,0,0,0,0,0,0,0,0,0,0,0,0,0,0,0,
0,0,0,0,0,17,17,17,0,0,0,0,0,0,0,0,
0,0,0,0,0,17,17,17,0,0,0,0,0,0,0,0,
0,0,0,0,0,17,17,17,0,0,0,0,0,0,0,0,
30,0,0,0,0,17,17,17,0,0,0,0,0,0,0,0,
17,17,17,17,17,17,17,17,17,29,30,0,0,0,0,0,
17,17,17,17,17,17,17,17,17,17,17,17,11,0,10,17,
17,17,17,17,17,17,17,17,17,17,17,17,17,17,17,17,
17,17,17,17,17,17,17,17,17,17,17,17,17,17,17,17,
17,17,17,17,17,17,17,17,17,17,17,17,17,17,17,17,
17,17,17,17,17,17,17,17,17,17,17,17,17,17,17,17,
17,17,17,17,17,17,17,17,17,17,17,17,17,17,17,17,
17,17,17,17,17,17,17,17,17,17,17,17,17,17,17,17,
17,17,17,17,17,17,17,17,17,17,17,17,17,17,17,17
</chunk>
   <chunk x="-16" y="48" width="16" height="16">
0,0,0,0,0,0,0,0,0,0,0,17,17,17,17,17,
0,0,0,0,0,0,0,0,0,0,0,17,17,17,17,17,
0,0,0,0,0,0,0,0,0,0,0,17,17,17,17,17,
0,0,0,0,0,0,0,0,0,0,0,17,17,17,17,17,
0,0,10,17,17,17,17,17,17,17,17,17,17,17,17,17,
27,28,17,17,17,17,17,17,17,17,17,17,17,17,17,17,
17,17,17,17,17,17,17,17,17,17,17,17,17,17,17,17,
17,17,17,17,17,17,17,17,17,17,17,17,17,17,17,17,
17,17,17,17,17,17,17,17,17,17,17,17,17,17,17,17,
17,17,17,17,17,17,17,17,17,17,17,17,17,17,17,17,
17,17,17,17,17,17,17,17,17,17,17,17,17,17,17,17,
17,17,17,17,17,17,17,17,17,17,17,17,17,17,17,17,
17,17,17,17,17,17,17,17,17,17,17,17,17,17,17,17,
17,17,17,17,17,17,17,17,17,17,17,17,17,17,17,17,
17,17,17,17,17,17,17,17,17,17,17,17,17,17,17,17,
17,17,17,17,17,17,17,17,17,17,17,17,17,17,17,17
</chunk>
   <chunk x="0" y="48" width="16" height="16">
17,0,0,0,0,0,0,0,0,0,20,17,17,39,40,0,
17,0,0,0,0,0,0,0,0,0,0,0,0,0,0,0,
17,0,0,0,0,0,0,0,0,0,0,0,0,0,0,0,
17,0,0,0,0,0,0,0,0,0,0,0,0,0,27,28,
17,0,0,0,0,0,0,0,0,0,0,0,0,10,17,17,
17,0,0,0,0,0,0,0,0,0,0,0,10,17,17,17,
17,0,0,0,0,0,0,0,0,0,0,10,17,17,17,17,
17,0,0,0,0,0,0,0,0,0,10,17,17,17,17,17,
17,0,0,0,0,0,0,0,0,10,17,17,17,17,17,17,
17,0,0,0,0,0,0,0,0,17,17,17,17,17,17,17,
17,0,0,0,0,0,0,0,0,17,17,17,17,17,17,17,
17,17,17,17,17,17,17,17,17,17,17,17,17,17,17,17,
17,17,17,17,17,17,17,17,17,17,17,17,17,17,17,17,
17,17,17,17,17,17,17,17,17,17,17,17,17,17,17,17,
17,17,17,17,17,17,17,17,17,17,17,17,17,17,17,17,
17,17,17,17,17,17,17,17,17,17,17,17,17,17,17,17
</chunk>
   <chunk x="16" y="48" width="16" height="16">
0,0,0,0,0,0,0,0,0,0,20,17,17,17,17,17,
0,0,0,0,0,0,0,0,0,0,0,37,38,17,17,17,
27,28,17,17,11,0,0,0,0,0,0,0,0,37,38,17,
17,17,17,17,17,11,0,0,0,0,0,0,0,0,0,17,
17,17,17,17,17,17,11,0,0,0,0,0,0,0,0,17,
17,17,17,17,17,17,17,29,30,0,0,0,0,10,17,17,
17,17,17,17,17,17,17,17,17,17,11,0,10,17,17,17,
17,17,17,17,17,17,17,17,17,17,17,17,17,17,17,17,
17,17,17,17,17,17,17,17,17,17,17,17,17,17,17,17,
17,17,17,17,17,17,17,17,17,17,17,17,17,17,17,17,
17,17,17,17,17,17,17,17,17,17,17,17,17,17,17,17,
17,17,17,17,17,17,17,17,17,17,17,17,17,17,17,17,
17,17,17,17,17,17,17,17,17,17,17,17,17,17,17,17,
17,17,17,17,17,17,17,17,17,17,17,17,17,17,17,17,
17,17,17,17,17,17,17,17,17,17,17,17,17,17,17,17,
17,17,17,17,17,17,17,17,17,17,17,17,17,17,17,17
</chunk>
   <chunk x="32" y="48" width="16" height="16">
17,17,17,17,17,17,17,17,17,17,17,17,17,17,17,17,
17,17,17,17,17,17,17,17,17,17,17,17,17,17,17,17,
17,17,17,17,17,17,17,17,17,17,17,17,17,17,17,17,
17,17,17,17,17,17,17,17,17,17,17,17,17,17,17,17,
17,17,17,17,17,17,17,17,17,17,17,17,17,17,17,17,
17,17,17,17,17,17,17,17,17,17,17,17,17,17,17,17,
17,17,17,17,17,17,17,17,17,17,17,17,17,17,17,17,
17,17,17,17,17,17,17,17,17,17,17,17,17,17,17,17,
17,17,17,17,17,17,17,17,17,17,17,17,17,17,17,17,
17,17,17,17,17,17,17,17,17,17,17,17,17,17,17,17,
17,17,17,17,17,17,17,17,17,17,17,17,17,17,17,17,
17,17,17,17,17,17,17,17,17,17,17,17,17,17,17,17,
17,17,17,17,17,17,17,17,17,17,17,17,17,17,17,17,
17,17,17,17,17,17,17,17,17,17,17,17,17,17,17,17,
17,17,17,17,17,17,17,17,17,17,17,17,17,17,17,17,
17,17,17,17,17,17,17,17,17,17,17,17,17,17,17,17
</chunk>
   <chunk x="48" y="48" width="16" height="16">
17,17,17,17,17,17,17,17,17,17,17,17,17,17,17,17,
17,17,17,17,17,17,17,17,17,17,17,17,17,17,17,17,
17,17,17,17,17,17,17,17,17,17,17,17,17,17,17,17,
17,17,17,17,17,17,17,17,17,17,17,17,17,17,17,17,
17,17,17,17,17,17,17,17,17,17,17,17,17,17,17,17,
17,17,17,17,17,17,17,17,17,17,17,17,17,17,17,17,
17,17,17,17,17,17,17,17,17,17,17,17,17,17,17,17,
17,17,17,17,17,17,17,17,17,17,17,17,17,17,17,17,
17,17,17,17,17,17,17,17,17,17,17,17,17,17,17,17,
17,17,17,17,17,17,17,17,17,17,17,17,17,17,17,17,
17,17,17,17,17,17,17,17,17,17,17,17,17,17,17,17,
17,17,17,17,17,17,17,17,17,17,17,17,17,17,17,17,
17,17,17,17,17,17,17,17,17,17,17,17,17,17,17,17,
17,17,17,17,17,17,17,17,17,17,17,17,17,17,17,17,
17,17,17,17,17,17,17,17,17,17,17,17,17,17,17,17,
17,17,17,17,17,17,17,17,17,17,17,17,17,17,17,17
</chunk>
   <chunk x="64" y="48" width="16" height="16">
17,17,17,17,17,17,17,17,17,17,17,17,17,17,17,17,
17,17,17,17,17,17,17,17,17,17,17,17,17,17,17,17,
17,17,17,17,17,17,17,17,17,17,17,17,17,17,17,17,
17,17,17,17,17,17,17,17,17,17,17,17,17,17,17,17,
17,17,17,17,17,17,17,17,17,17,17,17,17,17,17,17,
17,17,17,17,17,17,17,17,17,17,17,17,17,17,17,17,
17,17,17,17,17,17,17,17,17,17,17,17,17,17,17,17,
17,17,17,17,17,17,17,17,17,17,17,17,17,17,17,17,
17,17,17,17,17,17,17,17,17,17,17,17,17,17,17,17,
17,17,17,17,17,17,17,17,17,17,17,17,17,17,17,17,
17,17,17,17,17,17,17,17,17,17,17,17,17,17,17,17,
17,17,17,17,17,17,17,17,17,17,17,17,17,17,17,17,
17,17,17,17,17,17,17,17,17,17,17,17,17,17,17,17,
17,17,17,17,17,17,17,17,17,17,17,17,17,17,17,17,
17,17,17,17,17,17,17,17,17,17,17,17,17,17,17,17,
17,17,17,17,17,17,17,17,17,17,17,17,17,17,17,17
</chunk>
   <chunk x="80" y="48" width="16" height="16">
17,17,17,17,17,0,0,0,0,0,0,0,0,0,0,0,
17,17,17,17,17,0,0,0,0,0,0,0,0,0,0,0,
17,17,17,17,17,0,0,0,0,0,0,0,0,0,0,0,
17,17,17,17,17,17,17,0,0,0,0,0,0,0,0,0,
17,17,17,17,17,17,17,0,0,0,0,0,0,0,0,0,
17,17,17,17,17,17,17,0,0,0,0,0,0,0,0,0,
17,17,17,17,17,17,17,0,0,0,0,0,0,0,0,0,
17,17,17,17,17,17,17,0,0,0,0,0,0,0,0,0,
17,17,17,17,17,17,17,0,0,0,0,0,0,0,0,0,
17,17,17,17,17,17,17,0,0,0,0,0,0,0,0,0,
17,17,17,17,17,17,17,0,0,0,0,0,0,10,17,17,
17,17,17,17,17,17,17,0,0,0,0,0,0,17,17,39,
17,17,17,17,17,17,17,0,0,0,0,0,0,0,0,0,
17,17,17,17,17,17,17,0,0,0,0,0,0,0,0,0,
17,17,17,17,17,17,17,0,0,0,0,0,0,0,0,0,
17,17,17,17,17,17,17,0,0,0,0,0,0,0,0,0
</chunk>
   <chunk x="96" y="48" width="16" height="16">
0,0,0,0,0,0,0,0,0,17,17,17,17,17,17,17,
0,0,0,0,0,0,0,0,0,20,17,17,17,17,17,17,
0,0,0,0,0,0,0,0,0,0,17,17,17,17,17,17,
0,0,0,0,0,0,0,0,0,0,20,17,17,17,17,17,
0,0,0,0,0,0,0,0,0,0,0,20,17,17,17,17,
0,0,0,0,0,0,0,0,0,0,0,0,17,17,17,17,
0,0,0,0,0,0,0,0,0,0,0,0,20,17,17,17,
0,0,0,0,0,0,0,0,0,0,0,0,0,20,17,17,
0,0,0,0,0,0,0,0,0,0,0,0,0,0,17,17,
0,0,0,0,0,0,0,0,0,0,0,0,0,0,20,17,
17,17,17,17,17,17,0,0,0,0,0,0,0,0,0,17,
40,0,0,37,38,17,0,0,0,0,0,0,0,0,0,20,
0,0,0,0,0,0,0,0,0,0,0,0,0,0,0,0,
0,0,0,0,0,0,0,0,0,0,0,0,0,0,0,0,
0,0,0,0,0,0,0,0,0,0,0,0,0,0,0,0,
0,0,0,0,0,0,0,0,0,0,0,0,0,0,0,0
</chunk>
   <chunk x="112" y="48" width="16" height="16">
17,17,17,17,17,17,17,17,17,17,17,17,17,17,0,0,
17,17,17,17,17,17,17,17,17,17,17,17,17,17,17,0,
17,17,17,17,17,17,17,17,17,17,17,17,17,17,17,0,
17,17,17,17,17,17,17,17,17,17,17,17,17,17,17,17,
17,17,17,17,17,17,17,17,17,17,17,17,17,17,17,17,
17,17,17,17,17,17,17,17,17,17,17,17,17,17,17,17,
17,17,17,17,17,17,17,17,17,17,17,17,17,17,17,17,
17,17,17,17,17,17,17,17,17,17,17,17,17,17,17,17,
17,17,17,17,17,17,17,17,17,17,17,17,17,17,17,17,
17,17,17,17,17,17,17,17,17,17,17,17,17,17,17,17,
17,17,17,17,17,17,17,17,17,17,17,17,17,17,17,17,
17,17,17,17,17,17,17,17,17,17,17,17,17,17,17,17,
20,17,17,17,17,17,17,17,17,17,17,17,17,17,17,17,
0,17,17,17,17,17,17,17,17,17,17,17,17,17,17,17,
0,20,17,17,17,17,17,17,17,17,17,17,17,17,17,17,
0,0,20,17,17,17,17,17,17,17,17,17,17,17,17,17
</chunk>
   <chunk x="128" y="48" width="16" height="16">
0,0,0,0,0,0,0,0,0,0,0,0,0,0,0,0,
0,0,0,0,0,0,0,0,0,0,0,0,0,0,0,0,
0,0,0,0,0,0,0,0,0,0,0,0,0,0,0,0,
0,0,0,0,0,0,0,0,0,0,0,0,0,0,0,0,
0,0,0,0,0,0,0,0,0,0,0,0,0,0,0,0,
17,0,0,0,0,0,0,0,0,0,0,0,0,0,0,0,
17,0,0,0,0,0,0,0,0,0,0,0,0,0,0,0,
17,0,0,0,0,0,0,0,0,0,0,0,0,0,0,0,
17,17,0,0,0,0,0,0,0,0,0,0,0,0,0,0,
17,17,0,0,0,0,0,0,0,0,0,0,0,0,0,0,
17,17,0,0,0,0,0,0,0,0,0,0,0,0,0,0,
17,17,17,0,0,0,0,0,0,0,0,0,0,0,0,0,
17,17,17,0,0,0,0,0,0,0,0,0,0,0,0,0,
17,17,17,0,0,0,0,0,0,0,0,0,0,0,0,0,
17,17,17,17,0,0,0,0,0,0,0,0,0,0,0,0,
17,17,17,17,0,0,0,0,0,0,0,0,0,0,0,0
</chunk>
   <chunk x="-64" y="64" width="16" height="16">
0,0,0,0,0,0,0,0,17,17,17,17,17,17,17,17,
0,0,0,0,0,0,0,0,17,17,17,17,17,17,17,17,
0,0,0,0,0,0,0,0,20,17,17,17,17,17,17,17,
0,0,0,0,0,0,0,0,0,17,17,17,17,17,17,17,
0,0,0,0,0,0,0,0,0,17,17,17,17,17,17,17,
0,0,0,0,0,0,0,0,0,17,17,17,17,17,17,17,
0,0,0,0,0,0,0,0,17,17,17,17,17,17,17,17,
0,0,0,0,0,0,0,0,17,17,17,17,17,17,17,17,
0,0,0,0,0,0,0,0,17,17,17,17,17,17,17,17,
0,0,0,0,0,0,0,0,0,0,0,0,0,0,0,0,
0,0,0,0,0,0,0,0,0,0,0,0,0,0,0,0,
0,0,0,0,0,0,0,0,0,0,0,0,0,0,0,0,
0,0,0,0,0,0,0,0,0,0,0,0,0,0,0,0,
0,0,0,0,0,0,0,0,0,0,0,0,0,0,0,0,
0,0,0,0,0,0,0,0,0,0,0,0,0,0,0,0,
0,0,0,0,0,0,0,0,0,0,0,0,0,0,0,0
</chunk>
   <chunk x="-48" y="64" width="16" height="16">
17,17,17,17,17,17,17,17,17,17,17,17,17,17,17,17,
17,17,17,17,17,17,17,17,17,17,17,17,17,17,17,17,
17,17,17,17,17,17,17,17,17,17,17,17,17,17,17,17,
17,17,17,17,17,17,17,17,17,17,17,17,17,17,17,17,
17,17,17,17,17,17,17,17,17,17,17,17,17,17,17,17,
17,17,17,17,17,17,17,17,17,17,17,17,17,17,17,17,
17,17,17,17,17,17,17,17,17,17,17,17,17,17,17,17,
17,17,17,17,17,17,17,17,17,17,17,17,17,17,17,17,
17,17,17,17,17,17,17,17,17,17,17,17,17,17,17,17,
0,0,0,0,0,0,0,0,0,0,0,0,0,0,0,0,
0,0,0,0,0,0,0,0,0,0,0,0,0,0,0,0,
0,0,0,0,0,0,0,0,0,0,0,0,0,0,0,0,
0,0,0,0,0,0,0,0,0,0,0,0,0,0,0,0,
0,0,0,0,0,0,0,0,0,0,0,0,0,0,0,0,
0,0,0,0,0,0,0,0,0,0,0,0,0,0,0,0,
0,0,0,0,0,0,0,0,0,0,0,0,0,0,0,0
</chunk>
   <chunk x="-32" y="64" width="16" height="16">
17,17,17,17,17,17,17,17,17,17,17,17,17,17,17,17,
17,17,17,17,17,17,17,17,17,17,17,17,17,17,17,17,
17,17,17,17,17,17,17,17,17,17,17,17,17,17,17,17,
17,17,17,17,17,17,17,17,17,17,17,17,17,17,17,17,
17,17,17,17,17,17,17,17,17,17,17,17,17,17,17,17,
17,17,17,17,17,17,17,17,17,17,17,17,17,17,17,17,
17,17,17,17,17,17,17,17,17,17,17,17,17,17,17,17,
17,17,17,17,17,17,17,17,17,17,17,17,17,17,17,17,
17,17,17,17,17,17,17,17,17,17,17,17,17,17,17,17,
0,0,0,0,0,0,0,0,0,0,0,0,0,0,0,0,
0,0,0,0,0,0,0,0,0,0,0,0,0,0,0,0,
0,0,0,0,0,0,0,0,0,0,0,0,0,0,0,0,
0,0,0,0,0,0,0,0,0,0,0,0,0,0,0,0,
0,0,0,0,0,0,0,0,0,0,0,0,0,0,0,0,
0,0,0,0,0,0,0,0,0,0,0,0,0,0,0,0,
0,0,0,0,0,0,0,0,0,0,0,0,0,0,0,0
</chunk>
   <chunk x="-16" y="64" width="16" height="16">
17,17,17,17,17,17,17,17,17,17,17,17,17,17,17,17,
17,17,17,17,17,17,17,17,17,17,17,17,17,17,17,17,
17,17,17,17,17,17,17,17,17,17,17,17,17,17,17,17,
17,17,17,17,17,17,17,17,17,17,17,17,17,17,17,17,
17,17,17,17,17,17,17,17,17,17,17,17,17,17,17,17,
17,17,17,17,17,17,17,17,17,17,17,17,17,17,17,17,
17,17,17,17,17,17,17,17,17,17,17,17,17,17,17,17,
17,17,17,17,17,17,17,17,17,17,17,17,17,17,17,17,
17,17,17,17,17,17,17,17,17,17,17,17,17,17,17,17,
0,0,0,0,0,0,0,0,0,0,0,0,0,0,0,0,
0,0,0,0,0,0,0,0,0,0,0,0,0,0,0,0,
0,0,0,0,0,0,0,0,0,0,0,0,0,0,0,0,
0,0,0,0,0,0,0,0,0,0,0,0,0,0,0,0,
0,0,0,0,0,0,0,0,0,0,0,0,0,0,0,0,
0,0,0,0,0,0,0,0,0,0,0,0,0,0,0,0,
0,0,0,0,0,0,0,0,0,0,0,0,0,0,0,0
</chunk>
   <chunk x="0" y="64" width="16" height="16">
17,17,17,17,17,17,17,17,17,17,17,17,17,17,17,17,
17,17,17,17,17,17,17,17,17,17,17,17,17,17,17,17,
17,17,17,17,17,17,17,17,17,17,17,17,17,17,17,17,
17,17,17,17,17,17,17,17,17,17,17,17,17,17,17,17,
17,17,17,17,17,17,17,17,17,17,17,17,17,17,17,17,
17,17,17,17,17,17,17,17,17,17,17,17,17,17,17,17,
17,17,17,17,17,17,17,17,17,17,17,17,17,17,17,17,
17,17,17,17,17,17,17,17,17,17,17,17,17,17,17,17,
17,17,17,17,17,17,17,17,17,17,17,17,17,17,17,17,
0,0,0,0,0,0,0,0,0,0,0,0,0,0,0,0,
0,0,0,0,0,0,0,0,0,0,0,0,0,0,0,0,
0,0,0,0,0,0,0,0,0,0,0,0,0,0,0,0,
0,0,0,0,0,0,0,0,0,0,0,0,0,0,0,0,
0,0,0,0,0,0,0,0,0,0,0,0,0,0,0,0,
0,0,0,0,0,0,0,0,0,0,0,0,0,0,0,0,
0,0,0,0,0,0,0,0,0,0,0,0,0,0,0,0
</chunk>
   <chunk x="16" y="64" width="16" height="16">
17,17,17,17,17,17,17,17,17,17,17,17,17,17,17,17,
17,17,17,17,17,17,17,17,17,17,17,17,17,17,17,17,
17,17,17,17,17,17,17,17,17,17,17,17,17,17,17,17,
17,17,17,17,17,17,17,17,17,17,17,17,17,17,17,17,
17,17,17,17,17,17,17,17,17,17,17,17,17,17,17,17,
17,17,17,17,17,17,17,17,17,17,17,17,17,17,17,17,
17,17,17,17,17,17,17,17,17,17,17,17,17,17,17,17,
17,17,17,17,17,17,17,17,17,17,17,17,17,17,17,17,
17,17,17,17,17,17,17,17,17,17,17,17,17,17,17,17,
0,0,0,0,0,0,0,0,0,0,0,0,0,0,0,0,
0,0,0,0,0,0,0,0,0,0,0,0,0,0,0,0,
0,0,0,0,0,0,0,0,0,0,0,0,0,0,0,0,
0,0,0,0,0,0,0,0,0,0,0,0,0,0,0,0,
0,0,0,0,0,0,0,0,0,0,0,0,0,0,0,0,
0,0,0,0,0,0,0,0,0,0,0,0,0,0,0,0,
0,0,0,0,0,0,0,0,0,0,0,0,0,0,0,0
</chunk>
   <chunk x="32" y="64" width="16" height="16">
17,17,17,17,17,17,17,17,17,17,17,17,17,17,17,17,
17,17,17,17,17,17,17,17,17,17,17,17,17,17,17,17,
17,17,17,17,17,17,17,17,17,17,17,17,17,17,17,17,
17,17,17,17,17,17,17,17,17,17,17,17,17,17,17,17,
17,17,17,17,17,17,17,17,17,17,17,17,17,17,17,17,
17,17,17,17,17,17,17,17,17,17,17,17,17,17,17,17,
17,17,17,17,17,17,17,17,17,17,17,17,17,17,17,17,
17,17,17,17,17,17,17,17,17,17,17,17,17,17,17,17,
17,17,17,17,17,17,17,17,17,17,17,17,17,17,17,17,
0,0,0,0,0,0,0,0,0,0,0,0,0,0,0,0,
0,0,0,0,0,0,0,0,0,0,0,0,0,0,0,0,
0,0,0,0,0,0,0,0,0,0,0,0,0,0,0,0,
0,0,0,0,0,0,0,0,0,0,0,0,0,0,0,0,
0,0,0,0,0,0,0,0,0,0,0,0,0,0,0,0,
0,0,0,0,0,0,0,0,0,0,0,0,0,0,0,0,
0,0,0,0,0,0,0,0,0,0,0,0,0,0,0,0
</chunk>
   <chunk x="48" y="64" width="16" height="16">
17,17,17,17,17,17,17,17,17,17,17,17,17,17,17,17,
17,17,17,17,17,17,17,17,17,17,17,17,17,17,17,17,
17,17,17,17,17,17,17,17,17,17,17,17,17,17,17,17,
17,17,17,17,17,17,17,17,17,17,17,17,17,17,17,17,
17,17,17,17,17,17,17,17,17,17,17,17,17,17,17,17,
17,17,17,17,17,17,17,17,17,17,17,17,17,17,17,17,
17,17,17,17,17,17,17,17,17,17,17,17,17,17,17,17,
17,17,17,17,17,17,17,17,17,17,17,17,17,17,17,17,
17,17,17,17,17,17,17,17,17,17,17,17,17,17,17,17,
0,0,0,0,0,0,0,37,38,17,17,17,17,17,17,17,
0,0,0,0,0,0,0,0,0,0,0,0,0,0,0,0,
0,0,0,0,0,0,0,0,0,0,0,0,0,0,0,0,
0,0,0,0,0,0,0,0,0,0,0,0,0,0,0,0,
0,0,0,0,0,0,0,0,0,0,0,0,0,0,0,0,
0,0,0,0,0,0,0,0,0,0,0,0,0,0,0,0,
0,0,0,0,0,0,0,0,0,0,0,0,0,0,0,0
</chunk>
   <chunk x="64" y="64" width="16" height="16">
17,17,17,17,17,17,17,17,17,17,17,17,17,17,17,17,
17,17,17,17,17,17,17,17,17,17,17,17,17,17,17,17,
17,17,17,17,17,17,17,17,17,17,17,17,17,17,17,17,
17,17,17,17,17,17,17,17,17,17,17,17,17,17,17,17,
17,17,17,17,17,17,17,17,17,17,17,17,17,17,17,17,
17,17,17,17,17,17,17,17,17,17,17,17,17,17,17,17,
17,17,17,17,17,17,17,17,17,17,17,17,17,17,17,17,
17,17,17,17,17,17,17,17,17,17,17,17,17,17,17,17,
17,17,17,17,17,17,17,17,17,17,17,17,17,17,17,17,
17,17,17,17,17,17,17,17,17,17,17,17,17,17,17,17,
0,0,0,0,0,0,0,0,0,0,0,0,0,0,0,0,
0,0,0,0,0,0,0,0,0,0,0,0,0,0,0,0,
0,0,0,0,0,0,0,0,0,0,0,0,0,0,0,0,
0,0,0,0,0,0,0,0,0,0,0,0,0,0,0,0,
0,0,0,0,0,0,0,0,0,0,0,0,0,0,0,0,
0,0,0,0,0,0,0,0,0,0,0,0,0,0,0,0
</chunk>
   <chunk x="80" y="64" width="16" height="16">
17,17,17,17,17,17,17,0,0,0,0,0,0,0,0,0,
17,17,17,17,17,17,17,0,0,0,0,0,0,0,0,0,
17,17,17,17,17,17,17,0,0,0,0,0,0,0,0,0,
17,17,17,17,17,17,17,0,0,0,0,0,0,0,0,0,
17,17,17,17,17,17,17,0,0,0,0,0,0,0,0,0,
17,17,17,17,17,17,17,0,0,0,0,0,0,0,0,0,
17,17,17,17,17,17,17,0,0,0,0,0,0,0,0,0,
17,17,17,17,17,17,17,0,0,0,0,0,0,0,0,0,
17,17,17,17,17,17,17,0,0,0,0,0,0,0,0,0,
17,17,17,17,17,17,17,0,0,0,0,0,0,0,0,0,
0,0,0,0,0,0,0,0,0,0,0,0,0,0,0,0,
0,0,0,0,0,0,0,0,0,0,0,0,0,0,0,0,
0,0,0,0,0,0,0,0,0,0,0,0,0,0,0,0,
0,0,0,0,0,0,0,0,0,0,0,0,0,0,0,0,
0,0,0,0,0,0,0,0,0,0,0,0,0,0,0,0,
0,0,0,0,0,0,0,0,0,0,0,0,0,0,0,0
</chunk>
   <chunk x="96" y="64" width="16" height="16">
0,0,0,0,0,0,0,0,0,0,0,0,0,0,0,0,
0,0,0,0,0,0,0,0,0,0,0,0,0,0,0,0,
0,0,0,0,0,0,0,0,0,0,0,0,0,0,0,0,
0,0,0,0,0,0,0,0,0,0,0,0,0,0,0,0,
0,0,0,0,0,0,0,0,0,0,0,0,0,0,0,0,
0,0,0,0,0,0,0,0,0,0,0,0,0,0,0,0,
0,0,0,0,0,0,0,0,0,0,0,0,0,0,0,0,
17,17,17,17,17,17,17,17,0,0,0,0,0,0,0,0,
0,0,0,0,0,0,0,0,0,0,0,0,0,0,0,0,
0,0,0,0,0,0,0,0,0,0,0,0,0,0,0,0,
0,0,0,0,0,0,0,0,0,0,0,0,0,0,0,0,
0,0,0,0,0,0,0,0,0,0,0,0,0,0,0,0,
0,0,0,0,0,0,0,0,0,0,0,0,0,0,0,0,
0,0,0,0,0,0,0,0,0,0,0,0,0,0,0,0,
0,0,0,0,0,0,0,0,0,0,0,0,0,0,0,0,
0,0,0,0,0,0,0,0,0,0,0,0,0,0,0,0
</chunk>
   <chunk x="112" y="64" width="16" height="16">
0,0,0,20,17,17,17,17,17,17,17,17,17,17,17,17,
0,0,0,0,17,17,17,17,17,17,17,17,17,17,17,17,
0,0,0,0,20,17,17,17,17,17,17,17,17,17,17,17,
0,0,0,0,0,17,17,17,17,17,17,17,17,17,17,17,
0,0,0,0,0,20,17,17,17,17,17,17,17,17,17,17,
0,0,0,0,0,0,17,17,17,17,17,17,17,17,17,17,
0,0,0,0,0,0,20,17,17,17,17,17,17,17,17,17,
0,0,0,0,0,0,0,20,17,17,17,17,17,17,17,17,
0,0,0,0,0,0,0,0,0,0,0,0,0,0,0,0,
0,0,0,0,0,0,0,0,0,0,0,0,0,0,0,0,
0,0,0,0,0,0,0,0,0,0,0,0,0,0,0,0,
0,0,0,0,0,0,0,0,0,0,0,0,0,0,0,0,
0,0,0,0,0,0,0,0,0,0,0,0,0,0,0,0,
0,0,0,0,0,0,0,0,0,0,0,0,0,0,0,0,
0,0,0,0,0,0,0,0,0,0,0,0,0,0,0,0,
0,0,0,0,0,0,0,0,0,0,0,0,0,0,0,0
</chunk>
   <chunk x="128" y="64" width="16" height="16">
17,17,17,17,0,0,0,0,0,0,0,0,0,0,0,0,
17,17,17,17,0,0,0,0,0,0,0,0,0,0,0,0,
17,17,17,17,0,0,0,0,0,0,0,0,0,0,0,0,
17,17,17,17,0,0,0,0,0,0,0,0,0,0,0,0,
17,17,17,17,0,0,0,0,0,0,0,0,0,0,0,0,
17,17,17,17,17,11,0,0,0,0,0,0,0,0,0,0,
17,17,17,17,17,17,0,0,0,0,0,0,0,0,0,0,
17,17,17,17,17,17,0,0,0,0,0,0,0,0,0,0,
0,0,0,0,0,0,0,0,0,0,0,0,0,0,0,0,
0,0,0,0,0,0,0,0,0,0,0,0,0,0,0,0,
0,0,0,0,0,0,0,0,0,0,0,0,0,0,0,0,
0,0,0,0,0,0,0,0,0,0,0,0,0,0,0,0,
0,0,0,0,0,0,0,0,0,0,0,0,0,0,0,0,
0,0,0,0,0,0,0,0,0,0,0,0,0,0,0,0,
0,0,0,0,0,0,0,0,0,0,0,0,0,0,0,0,
0,0,0,0,0,0,0,0,0,0,0,0,0,0,0,0
</chunk>
  </data>
 </layer>
 <layer id="2" name="ground" width="20" height="30">
  <data encoding="csv">
   <chunk x="96" y="-80" width="16" height="16">
0,0,0,0,0,0,0,0,0,0,0,0,0,0,0,0,
0,0,0,0,0,0,0,0,0,0,0,0,0,0,0,0,
0,0,0,0,0,0,0,0,0,0,0,0,0,0,0,0,
0,0,0,0,0,0,0,0,0,0,0,0,0,0,0,0,
0,0,0,0,0,0,0,0,0,0,0,0,0,0,0,0,
0,0,0,0,0,0,0,0,0,0,0,0,0,0,0,0,
0,0,0,0,0,0,0,0,0,0,0,0,0,0,0,0,
0,0,0,0,0,0,0,0,0,0,0,0,0,0,0,0,
0,0,0,0,0,0,0,0,0,0,0,0,0,0,0,0,
0,0,0,0,0,0,0,0,0,0,0,0,0,0,0,0,
0,0,0,0,0,0,0,0,0,0,97,98,102,103,0,0,
0,0,0,0,0,0,0,0,0,0,117,118,122,123,0,0,
0,0,0,0,0,0,0,0,0,0,157,158,167,168,0,0,
0,0,0,0,0,0,0,0,0,0,157,158,167,168,0,0,
0,0,0,0,0,0,0,0,0,0,157,158,167,168,0,0,
0,0,0,0,0,0,0,0,0,0,157,158,187,188,101,339
</chunk>
   <chunk x="128" y="-80" width="16" height="16">
0,0,0,0,0,0,0,0,0,0,0,0,0,0,0,0,
0,0,0,0,0,0,0,0,0,0,97,98,101,102,103,0,
0,0,0,0,0,0,0,0,0,0,117,118,121,122,123,0,
0,0,0,0,0,0,0,0,0,0,137,138,141,142,143,0,
0,0,0,0,0,0,0,0,0,0,157,158,530,162,163,0,
0,0,0,0,0,0,0,0,0,0,157,158,530,162,163,0,
0,0,0,0,0,0,0,0,0,97,190,191,530,162,163,0,
0,0,0,0,0,0,0,0,0,117,210,211,572,162,163,0,
0,0,0,0,0,0,0,0,97,190,191,591,530,162,163,0,
0,0,0,0,0,0,0,0,117,210,211,572,530,162,163,0,
0,0,0,0,0,0,0,0,157,158,591,635,530,162,163,0,
0,0,0,0,0,0,0,97,190,191,528,635,530,162,163,0,
0,0,0,0,0,0,0,117,210,211,572,633,530,162,163,0,
0,0,0,0,0,0,266,267,191,591,634,169,530,162,163,0,
0,0,0,0,0,0,286,287,211,572,632,169,530,162,163,0,
0,0,0,0,266,267,306,307,591,635,635,169,444,202,203,0
</chunk>
   <chunk x="96" y="-64" width="16" height="16">
0,0,0,0,0,0,0,0,0,0,157,158,207,208,121,359,
0,0,0,0,0,0,0,0,0,0,157,158,528,509,141,379,
0,0,0,0,0,0,0,0,0,0,157,158,528,632,169,634,
0,0,0,0,0,0,0,0,0,0,157,158,528,632,249,632,
0,0,0,0,0,0,0,0,0,0,157,158,528,172,160,166,
0,0,0,0,0,0,0,0,0,0,397,398,417,632,109,169,
0,0,0,0,0,0,0,0,0,0,0,397,398,417,634,633,
0,0,0,0,0,0,0,0,0,0,0,0,397,398,200,443,
0,0,0,0,0,0,0,0,0,0,0,0,0,418,220,402,
0,0,0,0,0,0,0,0,0,0,0,0,0,0,0,0,
0,0,0,0,0,0,0,0,0,0,0,0,0,0,0,0,
0,0,0,0,0,0,0,0,0,0,0,0,0,0,0,0,
0,0,0,0,0,0,0,0,0,0,0,0,0,0,0,0,
0,0,0,0,0,0,0,0,0,0,0,0,0,0,0,0,
0,0,0,0,0,0,0,0,0,0,0,0,0,0,0,0,
0,0,0,0,0,0,0,0,0,0,0,0,0,0,0,0
</chunk>
   <chunk x="112" y="-64" width="16" height="16">
339,0,0,0,0,0,0,0,0,0,0,0,0,0,0,0,
359,339,0,0,0,0,0,0,0,0,0,0,0,0,0,0,
379,359,344,345,0,0,0,0,0,0,0,0,0,97,98,99,
169,340,364,365,344,345,0,0,0,0,0,0,0,117,118,119,
633,169,384,385,364,365,100,339,342,0,0,0,0,137,138,139,
633,633,635,634,384,385,121,359,360,0,0,0,0,157,158,528,
632,635,632,632,169,633,141,142,143,0,0,0,0,157,158,528,
634,169,634,632,633,169,530,162,163,0,0,0,0,197,198,404,
403,200,443,634,169,635,530,162,163,0,0,0,0,217,218,424,
423,220,402,403,200,200,404,405,406,0,0,0,0,0,0,0,
0,0,0,423,220,220,424,0,0,0,0,0,0,0,0,0,
0,0,0,0,0,0,0,0,0,0,0,0,0,0,0,0,
0,0,0,0,0,0,0,0,0,0,0,0,0,0,0,0,
0,0,0,0,0,0,0,0,0,0,0,0,0,0,0,0,
0,0,0,0,0,0,0,0,0,0,0,0,0,0,0,0,
0,0,0,0,0,0,0,0,0,0,0,0,0,0,0,0
</chunk>
   <chunk x="128" y="-64" width="16" height="16">
0,0,0,0,286,287,326,327,572,634,444,404,405,222,223,0,
0,0,0,343,306,307,509,231,632,530,162,424,0,0,0,0,
100,100,362,363,326,327,572,634,169,530,162,163,0,0,0,0,
120,120,382,383,509,231,169,634,634,420,399,400,0,0,0,0,
509,509,635,635,635,635,635,634,420,399,400,0,0,0,0,0,
169,635,634,633,635,632,444,200,399,400,0,0,0,0,0,0,
444,200,200,200,200,404,405,220,419,0,0,0,0,0,0,0,
405,220,220,220,220,424,0,0,0,0,0,0,0,0,0,0,
0,0,0,0,0,0,0,0,0,0,0,0,0,0,0,0,
0,0,0,0,0,0,0,0,0,0,0,0,0,0,0,0,
0,0,0,0,0,0,0,0,0,0,0,0,0,0,0,0,
0,0,0,0,0,0,0,0,0,0,0,0,0,0,0,0,
0,0,0,0,0,0,0,0,0,0,0,0,0,0,0,0,
0,0,0,0,0,0,0,0,0,0,0,0,0,0,0,0,
0,0,0,0,0,0,0,0,0,0,0,0,0,0,0,0,
0,0,0,0,0,0,0,0,0,0,0,0,0,0,0,0
</chunk>
   <chunk x="192" y="-48" width="16" height="16">
0,0,0,0,0,0,0,0,0,0,0,0,0,0,0,0,
0,0,0,0,0,0,0,0,0,0,0,0,0,0,0,0,
0,0,0,0,0,0,0,0,0,0,0,0,0,0,0,0,
0,0,0,0,0,0,0,0,0,0,0,0,0,0,0,0,
0,0,0,0,0,0,0,0,0,0,0,0,0,0,0,0,
0,0,0,0,0,0,0,0,0,0,0,0,0,0,0,0,
0,0,0,0,0,0,0,0,0,0,0,0,0,0,0,0,
0,0,0,0,0,0,0,0,0,0,0,0,0,0,0,0,
0,0,0,0,0,0,0,0,0,0,0,0,0,0,0,0,
0,0,0,0,0,0,0,0,0,0,0,0,0,0,0,0,
0,0,0,0,0,0,0,0,0,0,0,0,0,0,0,0,
0,0,0,0,0,0,0,0,0,0,0,0,0,0,0,0,
0,0,0,0,0,0,0,0,0,0,0,0,0,0,0,0,
0,0,0,0,0,0,0,0,0,0,0,0,0,0,0,0,
0,0,0,0,0,0,0,0,0,0,0,0,0,0,0,0,
0,0,97,98,100,102,103,0,0,0,0,0,0,0,0,0
</chunk>
   <chunk x="208" y="-48" width="16" height="16">
0,0,0,0,0,0,0,0,0,0,0,0,0,0,0,0,
0,0,0,0,0,0,0,0,0,0,0,0,0,0,0,0,
0,0,0,0,0,0,0,0,0,0,0,0,0,0,0,0,
0,0,0,0,0,0,0,0,0,0,0,0,0,0,0,0,
0,0,0,0,0,0,0,0,0,0,0,0,0,0,0,0,
0,0,0,0,0,0,0,0,0,0,0,0,0,0,0,0,
0,0,0,0,0,0,0,0,0,0,0,0,0,0,0,0,
0,0,0,0,0,0,0,0,0,0,0,0,0,0,0,0,
0,0,0,0,0,0,0,0,0,0,0,0,0,0,0,0,
0,0,0,0,0,0,0,0,0,0,0,0,0,0,0,0,
0,0,0,0,0,0,0,0,0,0,0,0,0,0,0,0,
0,0,0,0,0,0,0,0,0,0,0,0,0,0,0,0,
0,0,0,0,0,97,98,100,100,100,344,345,0,0,0,0,
0,0,0,0,0,117,118,120,120,120,364,365,100,100,100,362,
0,0,0,0,0,197,198,200,443,509,384,385,120,120,120,382,
0,0,0,0,0,217,218,220,402,403,443,635,509,509,509,634
</chunk>
   <chunk x="224" y="-48" width="16" height="16">
0,0,0,0,0,0,0,0,0,0,0,0,0,0,0,0,
0,0,0,0,0,0,0,0,0,0,0,0,0,0,0,0,
0,0,0,0,0,0,0,0,0,0,0,0,0,0,0,0,
0,0,0,0,0,0,0,0,0,0,0,0,0,0,0,0,
0,0,0,0,0,0,0,0,0,0,0,0,0,0,0,0,
0,0,0,0,0,0,0,0,0,0,0,0,0,0,0,0,
0,0,0,0,0,0,0,0,0,0,0,0,0,0,0,0,
0,0,0,0,0,0,0,0,0,0,0,0,0,0,0,0,
0,0,0,0,0,0,0,0,0,0,0,0,0,0,97,98,
0,0,0,0,0,0,0,0,0,0,0,0,0,0,117,118,
0,0,0,0,0,343,100,102,103,0,0,0,0,0,157,158,
0,0,343,100,362,363,120,122,123,0,0,0,0,0,197,130,
343,362,363,120,382,383,127,128,203,0,0,0,0,0,97,150,
363,382,383,127,130,131,147,148,223,0,0,0,0,0,117,210,
383,635,127,128,150,151,187,188,103,0,0,0,0,0,157,158,
635,530,147,148,223,158,207,208,123,0,0,0,0,0,197,130
</chunk>
   <chunk x="240" y="-48" width="16" height="16">
0,0,0,0,0,0,0,0,0,0,0,0,0,0,0,0,
0,0,0,0,0,0,0,0,0,0,0,0,0,0,0,0,
0,0,0,0,0,0,0,0,0,0,0,0,0,0,0,0,
0,0,0,0,0,0,0,0,0,0,0,0,0,0,0,0,
0,0,0,0,0,0,0,0,0,0,0,0,0,0,0,0,
0,0,0,0,0,0,0,0,0,0,0,0,0,0,0,0,
0,0,0,0,0,0,0,0,0,0,0,0,0,0,0,0,
0,0,0,0,0,0,0,0,0,0,0,0,0,0,0,0,
101,339,342,0,0,0,0,0,0,0,0,0,0,0,0,0,
121,359,360,0,0,0,0,0,0,0,0,0,0,0,0,0,
141,142,143,0,0,0,0,0,0,0,0,0,0,0,0,0,
131,162,163,0,0,0,0,0,0,0,0,0,0,0,0,0,
151,187,188,103,0,0,0,0,0,0,0,0,0,0,0,0,
211,207,208,97,98,103,0,0,0,0,0,0,0,0,0,0,
528,530,187,188,118,123,0,0,0,0,0,0,0,0,0,0,
131,566,207,208,123,223,0,0,0,0,0,0,0,0,0,0
</chunk>
   <chunk x="176" y="-32" width="16" height="16">
0,0,0,0,0,0,0,0,0,0,0,0,0,0,0,0,
0,0,0,0,0,0,0,0,0,0,0,0,0,0,0,0,
0,0,0,0,0,0,0,0,0,0,0,0,0,0,0,0,
0,0,0,0,0,0,0,0,0,0,0,0,0,0,0,0,
0,0,0,0,0,0,0,0,0,0,0,0,0,0,0,0,
0,0,0,0,0,0,0,0,0,0,0,0,0,0,0,0,
0,0,0,0,0,0,0,0,0,0,0,0,0,0,0,0,
0,0,0,0,0,0,0,0,0,0,0,0,0,0,0,0,
0,0,0,0,0,0,0,0,0,0,0,0,0,0,0,0,
0,0,0,0,0,0,0,0,0,0,0,0,0,0,0,0,
0,0,0,0,0,0,0,0,0,0,0,0,0,0,0,0,
0,0,0,0,0,0,0,0,0,0,0,0,0,0,0,0,
0,0,0,0,0,0,0,0,0,0,0,0,0,0,0,0,
0,0,0,0,0,0,0,0,0,0,343,100,100,102,103,0,
0,0,0,0,0,0,0,0,0,362,363,120,120,122,123,0,
0,0,0,0,0,0,0,0,197,198,528,200,200,202,203,0
</chunk>
   <chunk x="192" y="-32" width="16" height="16">
0,0,117,118,120,122,123,0,0,0,0,0,0,0,0,0,
0,0,197,198,200,399,400,0,0,0,0,0,0,0,0,0,
0,0,217,218,220,419,0,0,0,0,0,0,0,0,0,0,
0,0,0,0,0,0,0,0,0,0,0,0,0,0,0,0,
0,0,0,0,0,0,516,517,518,518,518,518,518,522,523,524,
0,0,0,0,0,0,536,537,538,538,538,538,538,542,543,544,
0,0,0,0,0,0,556,557,558,558,558,558,558,562,563,564,
0,0,0,0,0,0,0,0,0,0,0,0,0,0,0,0,
0,0,0,0,0,0,0,0,0,0,0,0,0,0,0,0,
0,0,0,0,0,0,0,0,0,0,0,0,0,0,0,97,
0,0,0,0,0,0,0,0,0,0,0,0,0,0,0,117,
0,0,0,0,0,0,0,0,0,343,100,100,102,103,0,157,
0,0,459,460,461,0,0,361,362,363,120,120,122,123,0,157,
0,0,479,480,481,0,0,381,323,383,509,509,162,163,0,157,
0,97,519,520,521,103,0,157,158,528,635,444,399,400,0,177,
0,117,210,207,208,123,0,197,198,200,404,405,419,0,0,197
</chunk>
   <chunk x="208" y="-32" width="16" height="16">
0,0,0,0,0,0,0,0,0,423,402,403,443,169,632,633,
0,0,0,0,0,0,0,0,0,0,0,423,158,528,634,444,
0,0,0,0,0,0,0,0,0,0,0,197,198,200,200,202,
0,0,0,0,0,0,0,0,0,0,0,217,218,220,220,222,
0,0,0,0,0,0,0,0,0,0,0,0,0,0,0,0,
0,0,0,0,0,0,0,0,0,0,0,0,0,0,0,0,
0,0,0,0,0,0,0,0,0,0,0,0,0,0,0,0,
97,98,100,344,345,0,0,0,0,0,0,0,0,0,0,0,
117,118,120,364,365,100,100,100,100,100,100,100,100,100,100,100,
190,191,509,384,385,120,120,120,120,120,120,120,120,120,120,120,
210,211,572,635,634,509,509,509,509,509,509,509,509,509,509,509,
158,591,633,249,249,249,249,249,249,249,634,635,169,169,633,169,
158,528,172,160,160,160,160,160,160,160,166,169,632,633,444,634,
158,528,169,109,109,109,109,109,109,109,634,634,444,404,405,635,
178,179,635,635,635,634,632,635,634,635,444,404,405,424,157,158,
198,199,200,200,200,200,200,200,200,200,399,424,0,0,157,158
</chunk>
   <chunk x="224" y="-32" width="16" height="16">
632,444,202,203,157,158,530,162,163,0,0,0,0,0,97,150,
404,405,222,223,157,158,127,128,203,0,0,0,0,0,117,210,
203,0,0,0,157,158,147,148,103,0,0,0,0,0,197,198,
223,0,0,0,397,398,417,208,123,0,0,0,0,0,217,218,
0,0,0,0,0,397,398,202,203,0,0,0,0,0,0,0,
0,0,0,0,0,0,418,222,223,0,0,0,0,0,0,0,
0,0,0,0,0,0,0,0,0,0,0,0,0,0,0,0,
0,0,0,0,0,0,0,0,0,0,0,0,0,0,0,0,
100,100,100,100,100,100,100,100,100,100,100,100,100,100,100,100,
120,120,120,120,120,120,120,120,120,120,120,120,120,120,120,120,
509,509,509,509,509,509,509,509,509,509,509,509,509,509,509,509,
633,249,249,249,249,249,249,249,249,249,249,249,249,249,249,249,
172,160,160,160,160,160,160,160,160,160,160,160,160,160,160,160,
632,112,160,160,160,160,160,160,160,160,160,160,160,160,160,160,
528,172,160,160,160,160,160,160,160,160,160,160,160,160,160,160,
528,172,160,160,160,160,160,160,160,160,160,160,160,160,160,160
</chunk>
   <chunk x="240" y="-32" width="16" height="16">
151,528,587,162,163,0,0,0,0,0,0,0,0,0,0,0,
211,633,530,187,188,103,0,0,0,0,0,0,0,0,0,0,
443,633,635,207,208,123,0,0,0,0,0,0,0,0,0,0,
402,403,443,530,162,163,0,0,0,0,0,0,0,0,0,0,
0,423,398,417,162,163,0,0,0,0,0,0,0,0,0,0,
0,0,157,158,167,168,0,0,0,0,0,0,0,0,0,0,
0,0,157,158,167,168,0,0,0,0,0,0,0,0,0,0,
0,0,397,398,417,188,103,0,0,0,0,0,0,0,0,0,
101,339,0,157,207,208,123,0,0,0,0,0,0,0,0,0,
121,359,100,190,191,167,168,0,0,0,0,0,0,0,0,0,
141,340,120,210,211,162,163,0,0,0,0,0,0,0,0,0,
632,635,509,509,530,187,188,103,0,0,0,0,0,0,0,0,
226,249,249,249,566,207,208,123,0,0,0,0,0,0,0,0,
160,160,160,160,166,587,162,163,0,0,0,0,0,0,0,0,
160,160,160,160,166,530,162,163,0,0,0,0,0,0,0,0,
160,160,160,160,166,530,162,163,0,0,0,0,0,0,0,0
</chunk>
   <chunk x="-16" y="-16" width="16" height="16">
0,0,0,0,0,0,0,0,0,0,0,0,0,0,0,0,
0,0,0,0,0,0,0,0,0,0,0,0,0,0,0,0,
0,0,0,0,0,0,0,0,0,0,0,0,0,0,0,0,
0,0,0,0,0,0,0,0,0,0,0,0,0,0,0,0,
0,0,0,0,0,0,0,0,0,0,0,0,0,0,0,0,
0,0,0,0,0,0,0,0,0,0,0,0,0,0,0,0,
0,0,0,0,0,0,0,0,0,0,0,0,0,0,0,0,
0,0,0,0,0,0,0,0,0,0,0,0,0,0,0,0,
0,0,0,0,0,0,0,0,0,0,0,0,0,0,0,0,
0,0,0,0,0,0,0,0,0,0,0,0,0,0,0,0,
0,0,0,0,0,0,0,0,0,0,0,0,0,0,0,0,
0,0,0,0,0,0,0,0,0,0,0,0,0,0,0,0,
0,0,0,0,0,0,0,0,0,0,0,0,0,0,0,0,
0,0,0,0,0,0,0,0,0,0,0,0,0,0,0,0,
0,0,0,0,0,0,0,0,0,0,0,0,0,0,0,0,
0,0,0,0,0,0,0,0,0,0,0,0,343,100,100,100
</chunk>
   <chunk x="0" y="-16" width="16" height="16">
0,0,0,0,0,0,0,0,0,0,0,0,0,0,0,0,
0,0,0,0,0,0,0,0,0,0,0,0,0,0,0,0,
0,0,0,0,0,0,0,0,0,0,0,0,0,0,0,0,
0,0,0,0,0,0,0,0,0,0,0,0,0,0,0,0,
0,0,0,0,0,0,0,0,0,0,0,0,0,0,0,0,
0,0,0,0,0,0,0,0,0,0,0,0,0,0,0,0,
0,0,0,0,0,0,0,0,0,0,0,0,0,0,97,98,
0,0,0,0,0,0,0,0,0,0,0,0,0,0,117,118,
0,0,0,0,0,0,0,0,0,0,0,0,0,0,137,138,
0,0,0,0,0,0,0,0,0,0,0,0,0,0,157,158,
0,0,0,0,0,0,0,0,0,0,0,0,0,0,157,158,
0,0,0,0,0,0,0,0,0,0,0,0,0,0,157,158,
0,0,0,0,0,0,0,0,0,0,0,0,0,0,157,158,
0,0,0,0,0,0,0,0,0,0,0,0,0,0,401,402,
0,0,0,0,343,100,100,100,100,344,345,0,0,0,0,0,
100,100,100,362,363,120,120,120,120,364,365,344,345,0,0,0
</chunk>
   <chunk x="16" y="-16" width="16" height="16">
0,0,0,0,0,0,0,0,0,0,0,0,0,0,0,0,
0,0,0,0,0,0,0,0,0,0,0,0,0,0,0,0,
0,0,0,0,0,0,0,0,0,0,0,0,0,0,0,0,
0,0,0,0,0,0,0,0,0,0,0,0,0,0,0,0,
0,0,0,0,0,0,0,0,0,0,0,0,0,0,0,0,
0,0,0,0,0,0,0,0,0,0,0,0,0,0,0,0,
101,102,103,0,0,0,0,0,0,97,98,99,101,102,103,0,
121,122,123,0,0,0,0,0,0,117,118,119,121,122,123,0,
141,142,143,0,0,0,0,0,0,137,138,139,141,142,143,0,
530,162,163,0,0,0,0,0,0,157,158,528,530,162,163,0,
530,162,163,0,0,343,100,339,0,157,158,528,530,162,163,0,
530,187,188,100,362,363,120,359,100,190,191,528,530,162,163,0,
528,207,208,120,382,383,509,340,120,210,211,572,530,162,163,0,
403,443,509,509,633,635,634,169,509,509,591,633,420,399,400,0,
423,398,200,200,200,200,200,200,200,200,200,200,202,203,0,0,
0,418,220,220,220,220,220,220,220,220,220,220,222,223,338,102
</chunk>
   <chunk x="32" y="-16" width="16" height="16">
0,0,0,0,0,0,0,0,0,0,0,0,0,0,0,0,
0,0,0,0,0,0,0,0,0,0,0,0,0,0,0,0,
0,0,0,0,0,0,0,0,0,0,0,0,0,0,0,0,
0,0,0,0,0,0,0,0,0,0,0,0,0,0,0,0,
0,0,0,0,0,0,0,0,0,0,0,0,0,0,0,0,
0,0,0,0,0,0,0,0,0,0,0,0,0,0,0,0,
0,0,0,0,0,0,0,0,0,0,0,0,0,0,0,0,
0,0,0,0,0,0,0,0,0,0,0,0,0,0,0,0,
0,0,0,0,0,0,0,0,0,0,0,0,0,0,0,0,
0,0,0,0,0,0,0,0,0,0,0,0,0,0,0,0,
0,0,0,0,0,0,0,0,0,0,0,0,0,0,0,0,
0,0,0,0,0,0,0,0,0,0,0,0,0,0,0,0,
0,0,0,0,0,0,0,0,0,0,0,0,0,0,0,0,
0,0,0,0,0,0,0,0,0,0,0,0,0,0,0,0,
0,0,0,0,0,0,0,0,0,0,0,0,0,0,0,0,
103,0,0,0,0,0,0,0,0,0,0,0,0,0,0,0
</chunk>
   <chunk x="48" y="-16" width="16" height="16">
0,0,0,0,0,0,0,0,0,0,0,0,0,0,0,0,
0,0,0,0,0,0,0,0,0,0,0,0,0,0,0,0,
0,0,0,0,0,0,0,0,0,0,0,0,0,0,0,0,
0,0,0,0,0,0,0,0,0,0,0,0,0,0,0,0,
0,0,0,0,0,0,0,0,0,0,0,0,0,0,0,0,
0,0,0,0,0,0,0,0,0,0,0,0,0,0,0,0,
0,0,0,0,0,0,0,0,0,0,0,0,0,0,0,0,
0,0,0,0,0,0,0,0,0,0,0,0,0,0,0,0,
0,0,0,0,0,0,0,0,0,0,0,0,0,0,0,0,
0,0,0,0,0,0,0,0,0,0,0,0,0,0,0,0,
0,0,0,0,0,0,0,0,0,0,0,0,0,0,0,0,
0,0,0,0,0,0,0,0,0,0,0,0,0,0,0,0,
0,0,0,0,0,0,0,0,0,0,0,0,0,0,0,0,
0,0,0,0,0,0,0,0,0,0,0,0,0,0,0,0,
0,0,0,0,0,0,0,0,0,0,0,0,0,0,0,0,
0,0,0,0,0,0,0,0,0,0,343,100,100,100,100,100
</chunk>
   <chunk x="64" y="-16" width="16" height="16">
0,0,0,0,0,0,0,0,0,0,0,0,0,0,0,0,
0,0,0,0,0,0,0,0,0,0,0,0,0,0,0,0,
0,0,0,0,0,0,0,0,0,0,0,0,0,0,0,0,
0,0,0,0,0,0,0,0,0,0,0,0,0,0,0,0,
0,0,0,0,0,0,0,0,0,0,0,0,0,0,0,0,
0,0,0,0,0,0,0,0,0,0,0,0,0,0,0,0,
0,0,0,0,0,0,0,0,0,0,0,0,0,0,0,0,
0,0,0,0,0,0,0,0,0,0,0,0,0,0,0,0,
0,0,0,0,0,0,0,0,0,0,0,0,0,0,0,0,
0,0,0,0,0,0,0,0,0,0,0,0,0,0,0,0,
0,0,0,0,0,0,0,0,0,0,0,0,0,0,0,0,
0,0,0,0,0,0,0,0,0,0,0,0,0,0,0,0,
0,0,0,0,0,0,0,0,0,0,0,0,0,0,0,0,
0,0,0,0,0,0,0,0,0,343,100,100,101,102,103,0,
0,343,100,100,100,100,100,100,362,363,120,120,121,122,123,0,
362,363,120,120,120,120,120,120,382,383,509,509,141,142,143,0
</chunk>
   <chunk x="144" y="-16" width="16" height="16">
0,0,0,0,0,0,0,0,0,0,0,0,0,0,0,0,
0,0,0,0,0,0,0,0,0,0,0,0,0,0,0,0,
0,0,0,0,0,0,0,0,0,0,0,0,0,0,0,0,
0,0,0,0,0,0,0,0,0,0,0,0,0,0,0,0,
0,0,0,0,0,0,0,0,0,0,0,0,0,0,0,0,
0,0,0,0,0,0,0,0,0,0,0,0,0,0,0,0,
0,0,0,0,0,338,100,339,0,0,0,0,0,0,343,100,
0,0,0,0,357,358,120,359,344,0,0,0,0,362,363,120,
0,0,0,0,377,378,509,340,364,365,102,103,197,198,528,509,
0,0,0,0,157,158,528,169,635,530,122,123,217,218,402,403,
0,0,0,0,397,398,417,635,169,420,399,400,0,0,0,423,
0,0,0,0,0,397,398,200,200,399,400,0,0,338,100,102,
0,0,0,0,0,0,418,220,220,419,0,0,338,358,120,187,
0,0,0,0,0,0,0,0,0,0,0,357,358,378,130,207,
0,0,0,0,0,0,0,0,0,0,0,377,378,147,150,151,
0,0,0,0,0,0,0,0,0,0,0,217,218,222,223,158
</chunk>
   <chunk x="160" y="-16" width="16" height="16">
0,0,0,0,0,0,0,0,0,0,0,0,0,0,0,0,
0,0,0,0,0,0,0,0,0,0,0,0,0,0,0,0,
0,0,0,0,0,0,0,0,0,0,0,0,0,0,0,0,
0,0,0,0,0,0,0,0,0,0,0,0,0,0,0,0,
0,0,0,0,0,0,0,0,0,0,0,0,0,0,0,0,
0,0,0,0,0,0,0,343,100,100,100,100,100,344,345,0,
100,344,0,0,0,0,362,363,120,120,120,120,120,364,365,100,
120,364,365,0,0,197,198,528,509,509,509,509,509,384,385,120,
509,530,162,163,0,217,218,402,403,200,200,200,443,635,632,509,
200,404,405,406,0,0,0,0,423,220,220,220,402,403,200,200,
220,424,0,343,100,100,0,102,103,0,0,0,0,423,220,220,
103,361,362,363,120,120,530,122,123,0,0,0,0,0,0,0,
188,381,323,383,509,509,444,399,400,0,0,0,0,0,0,0,
208,210,211,572,444,404,405,419,0,0,0,0,0,0,0,0,
509,509,591,530,162,424,0,0,0,0,0,0,0,0,0,0,
528,633,635,530,162,163,0,0,0,0,0,0,0,0,0,0
</chunk>
   <chunk x="176" y="-16" width="16" height="16">
0,0,0,343,100,0,102,103,217,218,0,220,220,222,223,0,
0,0,362,363,120,530,122,123,0,0,0,0,0,0,0,0,
0,157,158,528,509,444,399,400,0,0,0,0,0,0,0,0,
0,197,198,200,404,405,419,0,0,0,0,0,0,0,0,0,
0,217,218,220,424,0,0,0,0,0,0,0,0,0,0,0,
0,0,0,0,0,0,0,0,0,0,0,0,0,0,0,0,
100,100,344,345,0,0,0,0,0,0,0,0,0,0,0,0,
120,120,364,365,100,100,339,0,0,0,0,0,0,0,0,0,
509,509,384,385,120,120,359,360,0,0,0,0,0,0,0,0,
443,169,169,632,509,509,379,380,0,0,0,0,0,0,0,0,
402,403,200,200,200,404,405,406,0,0,0,0,0,0,0,0,
0,423,220,220,220,424,0,0,0,0,0,0,0,0,0,0,
0,0,0,0,0,0,0,0,0,0,0,0,0,0,0,0,
0,0,0,0,0,0,0,0,0,0,0,0,0,0,0,0,
0,0,0,0,0,0,0,0,0,0,0,0,0,0,0,0,
0,0,0,0,0,0,0,0,0,0,0,0,0,0,0,0
</chunk>
   <chunk x="192" y="-16" width="16" height="16">
0,397,398,420,399,400,0,217,218,220,424,0,0,0,0,217,
0,0,579,580,581,0,0,0,0,0,0,0,0,0,0,0,
0,0,579,580,581,0,0,0,0,0,0,0,0,0,0,0,
0,0,579,580,581,0,0,0,0,0,0,0,0,0,0,0,
0,0,599,600,601,0,0,0,0,0,0,0,0,0,0,0,
0,0,619,620,621,0,0,0,0,0,0,0,0,0,0,0,
0,0,0,0,0,0,0,0,0,0,0,0,0,0,0,0,
0,0,0,0,0,0,0,0,0,0,0,0,0,0,0,0,
0,0,0,0,0,0,0,0,0,0,0,0,0,0,0,0,
0,0,0,0,0,0,0,0,0,0,0,0,0,0,0,0,
0,0,0,0,0,0,0,0,0,0,0,0,0,0,0,0,
0,0,0,0,0,0,0,0,0,0,0,0,0,0,0,0,
0,0,0,0,0,0,0,0,0,0,0,0,0,0,0,0,
0,0,0,0,0,0,0,0,0,0,0,0,0,0,0,0,
0,0,0,0,0,0,0,0,0,0,0,0,0,0,0,0,
0,0,0,0,0,0,0,0,0,0,0,0,0,0,0,0
</chunk>
   <chunk x="208" y="-16" width="16" height="16">
218,219,220,220,220,220,220,220,220,220,419,0,0,0,157,158,
0,0,0,0,0,0,0,0,0,0,0,0,0,0,397,398,
0,0,0,0,0,0,0,0,0,0,0,0,0,0,0,418,
0,0,0,0,0,0,0,0,0,0,0,0,0,0,0,0,
0,0,0,0,0,0,0,0,0,0,0,0,0,0,0,0,
0,0,0,0,0,0,0,0,0,0,0,0,0,0,0,0,
0,0,0,0,0,0,0,0,0,0,0,0,0,0,0,0,
0,0,0,0,0,0,0,0,0,0,0,0,0,0,0,0,
0,0,0,0,0,0,0,0,0,0,0,0,0,0,0,0,
0,0,0,0,0,0,0,0,0,0,0,0,0,0,0,0,
0,0,0,0,0,0,0,0,0,0,0,0,0,0,0,0,
0,0,0,0,0,0,0,0,0,0,0,0,0,0,0,0,
0,0,0,0,0,0,0,0,0,0,0,0,0,0,0,0,
0,0,0,0,0,0,0,0,0,0,0,0,0,0,0,0,
0,0,0,0,0,0,0,0,0,0,0,0,0,0,0,0,
0,0,0,0,0,0,0,0,0,0,0,0,0,0,0,0
</chunk>
   <chunk x="224" y="-16" width="16" height="16">
528,635,112,160,160,160,160,160,160,160,160,160,160,160,160,160,
443,633,632,109,109,109,109,109,109,109,109,109,109,109,109,109,
402,403,443,633,632,635,633,169,169,635,634,635,634,169,635,169,
0,423,398,200,200,200,200,200,200,200,200,200,200,200,200,200,
0,0,418,220,220,220,220,220,220,220,220,220,220,220,220,220,
0,0,0,0,0,0,0,0,0,0,0,0,0,0,0,0,
0,0,0,0,0,0,0,0,0,0,0,0,0,0,0,0,
0,0,0,0,0,0,0,0,0,0,0,0,0,0,0,0,
0,0,0,0,0,0,0,0,0,0,0,0,0,0,0,0,
0,0,0,0,0,0,0,0,0,0,0,0,0,0,0,0,
0,0,0,0,0,0,0,0,0,0,0,0,0,0,0,0,
0,0,0,0,0,0,0,0,0,0,0,0,0,0,0,0,
0,0,0,0,0,0,0,0,0,0,0,0,0,0,0,0,
0,0,0,0,0,0,0,0,0,0,0,0,0,0,0,0,
0,0,0,0,0,0,0,0,0,0,0,0,0,0,0,0,
0,0,0,0,0,0,0,0,0,0,0,0,0,0,0,0
</chunk>
   <chunk x="240" y="-16" width="16" height="16">
160,160,160,106,634,420,399,400,0,0,0,0,0,0,0,0,
109,109,109,633,530,162,163,0,0,0,0,0,0,0,0,0,
633,635,634,634,530,162,163,0,0,0,0,0,0,0,0,0,
200,200,200,200,404,405,406,0,0,0,0,0,0,0,0,0,
220,220,220,220,424,0,0,0,0,0,0,0,0,0,0,0,
0,0,0,0,0,0,0,0,0,0,0,0,0,0,0,0,
0,0,0,0,0,0,0,0,0,0,0,0,0,0,0,0,
0,0,0,0,0,0,0,0,0,0,0,0,0,0,0,0,
0,0,0,0,0,0,0,0,0,0,0,0,0,0,0,0,
0,0,0,0,0,0,0,0,0,0,0,0,0,0,0,0,
0,0,0,0,0,0,0,0,0,0,0,0,0,0,0,0,
0,0,0,0,0,0,0,0,0,0,0,0,0,0,0,0,
0,0,0,0,0,0,0,0,0,0,0,0,0,0,0,0,
0,0,0,0,0,0,0,0,0,0,0,0,0,0,0,0,
0,0,0,0,0,0,0,0,0,0,0,0,0,0,0,0,
0,0,0,0,0,0,0,0,0,0,0,0,0,0,0,0
</chunk>
   <chunk x="-32" y="0" width="16" height="16">
0,0,0,0,0,0,0,0,0,0,0,0,0,0,0,0,
0,0,0,0,0,0,0,0,0,0,0,0,0,0,0,0,
0,0,0,0,0,0,0,338,99,100,101,102,103,0,0,0,
0,0,0,0,0,0,357,358,119,120,121,122,123,0,0,0,
0,0,0,0,0,0,137,138,139,509,141,142,143,0,0,0,
0,0,0,0,0,0,157,158,528,634,127,128,203,0,0,0,
0,0,0,0,0,0,157,158,528,530,187,188,103,0,0,0,
0,0,0,0,0,97,190,191,528,566,207,208,123,0,0,0,
0,0,0,0,0,117,210,211,572,633,587,162,163,0,0,0,
0,0,0,0,0,157,158,591,633,634,127,128,203,0,0,0,
0,0,0,0,0,157,158,528,633,530,147,148,103,0,0,0,
0,0,0,0,0,157,158,528,169,632,207,208,123,0,0,0,
0,0,0,0,0,157,158,528,634,633,127,128,203,0,0,0,
0,0,0,0,0,157,158,528,633,530,147,148,223,0,0,0,
0,0,0,0,0,157,158,528,169,530,187,188,100,100,100,100,
0,0,0,0,0,157,158,528,633,566,207,208,120,120,120,120
</chunk>
   <chunk x="-16" y="0" width="16" height="16">
0,0,97,98,101,339,342,97,98,99,100,362,363,120,120,120,
0,0,117,118,121,359,360,117,118,119,120,382,383,509,509,509,
0,0,157,158,141,142,143,137,138,139,509,632,632,634,249,249,
0,0,197,130,131,162,163,157,158,528,632,249,249,232,160,160,
0,0,97,150,151,187,188,103,158,528,172,160,160,160,160,160,
0,0,117,210,211,207,208,123,158,528,172,160,160,160,160,160,
0,0,157,158,528,530,187,188,191,528,172,160,160,160,160,160,
0,0,197,130,131,635,207,208,211,169,635,109,109,112,160,106,
0,0,97,150,151,528,169,509,444,443,632,633,632,632,109,169,
0,0,117,210,211,635,444,404,405,402,403,200,443,169,632,420,
0,0,197,198,200,200,399,424,0,0,423,220,402,403,443,162,
0,0,217,218,220,220,419,338,102,103,0,0,0,157,158,167,
0,0,0,0,0,0,357,358,122,123,0,0,0,0,420,399,
0,0,0,0,0,0,377,378,167,168,0,0,0,599,600,601,
100,100,100,100,100,100,190,191,167,168,0,0,0,619,620,621,
120,120,120,120,120,120,210,211,187,188,100,100,344,345,0,0
</chunk>
   <chunk x="0" y="0" width="16" height="16">
120,120,120,382,383,509,509,509,509,384,385,364,365,344,345,0,
509,509,509,633,634,632,249,634,632,635,632,384,385,364,365,344,
249,249,249,169,634,172,160,166,635,633,632,635,633,384,385,364,
160,160,160,166,632,632,109,633,633,634,169,169,169,635,169,384,
160,160,106,632,635,634,169,633,444,200,200,200,200,200,200,200,
160,106,632,632,444,200,200,404,405,220,220,220,220,220,220,220,
106,632,444,404,405,220,220,424,0,0,0,0,0,0,0,0,
633,420,399,424,0,0,0,0,0,0,0,0,0,0,0,0,
420,399,400,0,0,0,0,0,0,0,0,0,0,0,0,361,
399,400,0,0,0,0,0,0,0,0,0,0,0,0,0,381,
163,0,0,0,0,0,0,0,0,0,0,0,0,0,0,177,
168,0,0,0,0,0,0,0,0,0,0,0,0,0,0,197,
400,0,0,0,0,0,0,0,0,0,0,0,0,0,0,217,
0,0,0,0,0,0,0,0,0,0,0,0,0,0,0,0,
0,0,0,0,0,0,0,0,0,0,0,0,0,0,0,0,
0,0,0,0,0,0,0,0,0,0,0,0,0,0,0,0
</chunk>
   <chunk x="16" y="0" width="16" height="16">
0,0,0,0,0,0,0,0,0,0,0,0,0,338,358,122,
345,0,0,0,0,0,0,0,0,0,0,0,338,358,378,162,
365,344,0,0,0,0,0,0,0,0,0,343,358,378,530,162,
385,364,365,0,0,0,0,0,0,343,362,363,337,169,530,162,
200,530,202,203,0,0,0,343,362,363,382,383,635,633,530,162,
220,0,222,223,0,343,362,363,382,383,635,632,169,635,530,162,
0,0,0,343,362,363,382,383,632,634,169,634,169,635,530,162,
0,343,362,363,382,383,633,169,635,633,633,632,635,635,530,162,
362,363,382,383,633,632,633,633,169,632,635,169,633,632,181,182,
323,383,169,632,633,444,200,200,200,200,200,200,200,200,201,202,
178,179,635,444,404,405,220,220,220,220,220,220,220,220,221,222,
198,199,200,399,424,0,0,0,0,0,0,0,0,0,0,0,
218,219,220,419,0,0,0,0,0,0,0,0,0,0,0,0,
0,0,0,0,0,0,0,0,0,0,0,0,0,0,0,0,
0,0,0,0,0,0,0,0,0,0,0,0,0,0,0,0,
0,0,0,0,0,0,0,0,0,0,0,0,0,0,0,0
</chunk>
   <chunk x="32" y="0" width="16" height="16">
123,0,0,0,0,0,0,0,0,0,0,0,0,0,0,0,
163,0,0,0,0,0,0,0,0,0,0,0,0,0,0,0,
163,0,0,0,0,0,0,0,0,0,0,0,0,0,343,100,
163,0,0,0,0,0,0,0,0,0,343,100,100,362,363,120,
163,0,0,0,0,97,98,99,100,362,363,120,120,382,383,509,
163,0,0,0,0,117,118,119,120,382,383,509,509,635,634,634,
163,0,0,0,0,137,138,139,509,634,169,635,249,249,249,232,
163,0,0,0,0,157,158,528,635,249,249,232,160,160,160,160,
183,0,0,0,0,157,158,528,172,160,160,160,160,160,160,160,
203,0,0,0,0,157,158,528,172,160,160,160,160,160,160,106,
223,0,0,0,0,157,158,528,172,160,160,106,109,109,109,633,
0,0,0,0,0,157,158,528,172,160,106,635,634,635,169,634,
0,0,0,0,0,157,158,528,634,109,634,634,444,200,200,404,
0,0,0,0,0,157,158,528,169,633,444,404,405,220,220,424,
0,0,0,0,0,157,158,528,632,530,187,268,269,0,0,0,
0,0,0,0,0,157,158,528,635,566,207,288,289,0,0,0
</chunk>
   <chunk x="48" y="0" width="16" height="16">
0,0,0,0,0,343,100,100,100,362,363,120,120,120,120,120,
0,0,343,100,362,363,120,120,120,382,383,509,509,509,509,509,
100,362,363,120,382,383,509,509,509,635,634,633,249,249,249,249,
120,382,383,509,169,632,169,249,249,249,249,232,160,160,160,160,
509,169,633,633,249,249,232,160,160,160,160,160,160,160,160,160,
249,249,249,232,160,160,160,160,160,160,160,160,160,160,160,160,
160,160,160,160,160,160,160,160,160,160,160,160,160,160,160,160,
160,160,160,160,160,160,160,160,160,160,160,160,160,160,160,160,
160,106,109,109,109,109,109,109,109,109,109,109,109,109,109,109,
109,632,632,634,634,169,634,632,634,632,633,635,635,169,635,169,
169,632,444,200,200,200,200,200,200,200,200,200,200,200,200,200,
444,404,405,220,220,220,220,220,220,220,220,220,220,220,220,220,
405,424,0,0,0,0,0,0,0,0,0,0,0,0,0,0,
0,0,0,0,0,0,0,0,0,0,0,0,0,0,0,0,
0,0,0,0,0,0,0,0,0,0,0,0,0,0,0,0,
0,0,0,0,0,0,0,0,0,0,0,0,0,0,0,0
</chunk>
   <chunk x="64" y="0" width="16" height="16">
382,383,509,509,509,509,509,509,635,632,635,634,530,162,163,0,
635,635,635,249,249,249,249,249,249,249,249,169,530,162,163,0,
249,249,232,160,160,160,160,160,160,160,160,166,530,162,163,0,
160,160,160,160,160,160,160,160,160,160,160,166,530,162,163,0,
160,160,160,160,160,160,160,160,160,106,109,635,530,162,163,0,
160,160,160,160,160,160,160,160,106,634,635,633,444,399,400,338,
160,160,160,160,160,160,106,109,632,635,444,404,405,419,338,358,
160,160,160,106,109,109,635,633,444,404,405,424,0,338,358,378,
109,109,109,635,169,634,634,444,399,424,0,0,338,358,378,169,
634,169,634,169,444,200,404,405,419,0,0,338,358,378,633,169,
200,200,200,404,405,220,424,0,0,0,338,358,378,169,634,232,
220,220,220,424,0,0,0,0,0,338,358,378,632,632,232,160,
0,0,0,0,0,0,0,0,338,358,378,633,634,232,160,160,
0,0,0,0,0,0,0,338,358,378,635,169,232,160,160,160,
0,0,0,0,0,0,338,358,378,633,633,232,160,160,160,160,
0,0,0,0,0,338,358,378,169,635,232,160,160,160,160,160
</chunk>
   <chunk x="80" y="0" width="16" height="16">
0,0,0,0,0,0,0,0,0,0,0,0,0,0,0,0,
0,0,0,0,0,0,0,0,0,0,0,0,0,0,0,0,
0,0,0,0,0,0,0,0,0,0,0,0,0,0,0,0,
0,0,0,0,0,0,0,0,0,0,0,0,0,0,0,0,
0,0,0,0,0,0,0,0,0,0,0,0,0,0,0,0,
99,100,101,102,103,0,0,0,0,0,0,97,98,100,100,100,
119,120,121,122,123,0,0,0,0,0,0,117,118,120,120,120,
139,509,141,142,143,0,0,0,0,0,0,157,158,509,509,509,
169,634,530,162,163,0,0,0,0,0,0,397,398,417,634,635,
249,635,530,162,163,0,0,0,0,0,0,0,157,158,528,172,
160,166,530,162,163,0,0,0,0,0,0,0,157,158,528,172,
160,166,530,162,163,0,0,0,0,0,0,0,157,158,528,172,
160,166,530,162,163,0,0,0,0,0,0,0,397,398,417,632,
160,166,530,162,163,0,0,0,0,0,0,0,0,157,158,528,
160,166,530,162,163,0,0,0,0,0,0,0,0,157,158,528,
160,166,530,162,163,0,0,0,0,0,0,0,0,157,158,528
</chunk>
   <chunk x="96" y="0" width="16" height="16">
0,0,0,0,0,0,0,0,0,0,0,0,0,0,0,0,
0,0,0,0,0,0,0,0,0,0,0,0,0,0,0,0,
0,0,0,0,0,0,0,0,0,0,0,0,0,0,0,0,
0,0,0,0,0,0,0,0,0,0,0,0,0,0,0,0,
0,0,0,0,0,0,0,0,0,0,0,0,0,0,0,0,
100,100,100,344,345,0,0,0,0,0,0,0,0,0,0,0,
120,120,120,364,365,100,100,100,344,345,0,0,0,0,0,0,
509,509,509,384,385,120,120,120,364,365,339,0,0,0,0,0,
249,249,635,634,632,509,509,509,384,385,359,360,0,0,0,0,
160,160,226,249,249,249,249,169,635,530,379,380,0,0,0,0,
160,160,160,160,160,160,160,226,633,530,162,163,0,0,0,0,
160,160,160,160,160,160,160,160,166,530,162,163,0,0,0,0,
112,160,160,160,160,160,160,160,166,530,162,163,0,0,0,0,
172,160,160,160,160,160,160,160,166,530,162,163,0,0,0,0,
172,160,160,160,160,160,160,160,166,530,162,163,0,0,0,0,
172,160,160,160,160,160,160,160,166,530,187,188,103,0,0,0
</chunk>
   <chunk x="112" y="0" width="16" height="16">
0,0,0,0,0,0,0,0,0,0,0,0,0,0,0,0,
0,0,0,0,0,0,0,0,0,0,0,0,0,0,0,0,
0,0,0,0,0,0,0,0,0,0,0,0,0,0,0,0,
0,0,0,0,0,0,0,0,0,0,0,0,0,0,0,0,
0,0,0,0,0,0,0,0,0,0,0,0,0,0,0,0,
0,0,0,0,0,0,0,0,338,99,100,100,100,100,100,100,
0,0,0,0,0,0,0,357,358,119,120,120,120,120,120,120,
0,0,0,0,0,0,0,137,138,139,509,509,509,509,509,509,
0,0,0,0,0,0,97,190,191,528,632,249,249,249,634,634,
0,0,0,0,0,0,117,210,211,572,232,160,160,160,166,632,
0,0,0,0,0,97,190,191,591,172,160,160,160,106,633,420,
0,0,0,0,0,117,210,211,572,232,160,160,160,166,530,162,
0,0,0,0,97,190,191,591,172,160,160,160,106,634,420,399,
0,0,0,0,117,210,211,572,232,160,160,160,166,530,162,163,
0,0,0,0,157,158,591,172,160,160,106,109,632,420,399,400,
0,0,0,338,190,191,528,634,109,109,169,169,530,162,163,0
</chunk>
   <chunk x="128" y="0" width="16" height="16">
0,0,0,0,0,0,0,0,0,0,0,0,0,0,0,0,
0,0,0,0,0,0,0,0,0,0,0,0,0,0,0,0,
0,0,0,0,0,0,0,0,0,0,0,0,0,0,0,0,
0,0,0,0,0,0,0,0,0,0,0,0,0,0,0,0,
0,0,0,0,0,0,0,0,0,0,0,0,0,0,0,0,
100,100,100,101,339,0,0,0,0,0,0,0,0,0,0,0,
120,120,120,121,359,339,0,0,0,0,0,343,100,100,344,345,
509,509,509,141,379,359,360,0,0,0,362,363,120,120,364,365,
635,633,444,200,200,379,380,0,0,157,158,528,509,509,384,385,
444,404,405,220,220,222,223,0,0,401,402,403,443,632,633,635,
399,424,0,0,0,0,0,0,0,0,0,423,402,403,200,200,
163,0,0,0,0,0,0,0,0,0,0,0,0,423,220,220,
400,0,0,0,0,0,0,0,0,0,0,0,0,0,0,0,
0,0,0,0,0,0,0,0,0,0,0,0,0,0,0,0,
0,0,0,0,0,0,0,0,0,0,0,0,0,0,0,0,
0,0,0,0,0,0,0,0,0,0,0,0,0,0,0,0
</chunk>
   <chunk x="144" y="0" width="16" height="16">
0,0,0,0,0,0,0,0,0,0,266,267,100,100,190,191,
0,0,338,100,100,344,0,0,0,0,286,287,120,120,210,211,
0,357,358,120,120,364,365,0,0,338,306,307,509,509,509,169,
0,377,378,200,200,530,202,203,357,358,119,327,572,633,444,404,
0,217,218,220,220,0,222,223,137,138,139,231,169,420,399,424,
0,0,0,0,0,0,0,338,190,191,528,635,530,162,163,0,
0,0,0,0,0,0,343,358,119,211,572,632,420,399,400,0,
339,0,338,99,100,362,363,337,139,591,633,420,399,400,0,0,
359,100,358,119,120,382,383,633,632,169,420,399,400,0,0,0,
340,120,337,139,509,169,169,169,632,530,162,163,0,0,0,0,
200,200,200,200,200,200,443,634,634,181,182,183,0,0,0,0,
220,220,220,220,220,220,402,403,200,201,202,203,0,0,0,0,
0,0,0,0,0,0,0,423,220,221,222,223,0,0,0,0,
0,0,0,0,0,0,0,0,0,0,0,0,0,0,0,0,
0,0,0,0,0,0,0,0,0,0,0,0,0,0,0,0,
0,0,0,0,0,0,0,0,0,0,0,0,0,0,0,0
</chunk>
   <chunk x="160" y="0" width="16" height="16">
528,635,635,420,399,400,0,0,0,0,0,0,0,0,0,0,
635,633,444,399,400,0,0,0,0,0,0,0,0,0,0,0,
444,404,405,419,0,0,0,0,0,0,0,0,0,0,0,0,
405,424,0,0,0,0,0,0,0,0,0,0,0,0,0,0,
0,0,0,0,0,0,0,0,0,0,0,0,0,0,0,0,
0,0,0,0,0,0,0,0,0,0,0,0,0,0,0,0,
0,0,0,0,0,0,0,0,0,0,0,0,0,0,0,0,
0,0,0,0,0,0,0,0,0,0,0,0,0,0,0,0,
0,0,0,0,0,0,0,0,0,0,0,0,0,0,0,0,
0,0,0,0,0,0,0,0,0,0,0,0,0,0,0,0,
0,0,0,0,0,0,0,0,0,0,0,0,0,0,0,0,
0,0,0,0,0,0,0,0,0,0,0,0,0,0,0,0,
0,0,0,0,0,0,0,0,0,0,0,0,0,0,0,0,
0,0,0,0,0,0,0,0,0,0,0,0,0,0,0,0,
0,0,0,0,0,0,0,0,0,0,0,0,0,0,0,0,
0,0,0,0,0,0,0,0,0,0,0,0,0,0,0,0
</chunk>
   <chunk x="-64" y="16" width="16" height="16">
0,0,0,0,0,0,0,0,0,0,0,0,0,0,0,0,
0,0,0,0,0,0,0,0,0,0,0,0,0,0,0,0,
0,0,0,0,0,0,0,0,0,0,0,0,0,0,0,0,
0,0,0,0,0,0,0,0,0,0,0,0,0,0,0,0,
0,0,0,0,0,0,0,0,0,0,0,0,0,0,0,0,
0,0,0,0,0,0,0,0,0,0,97,98,100,344,0,0,
0,0,0,0,0,0,0,0,0,0,117,118,120,364,365,366,
0,0,0,0,0,0,0,0,0,0,157,158,509,384,324,386,
0,0,0,0,0,0,0,0,0,0,157,158,528,530,162,163,
0,0,0,0,0,0,0,0,0,0,177,178,179,181,182,183,
0,0,0,0,0,0,0,0,0,0,197,198,199,201,202,203,
0,0,0,0,0,0,0,0,0,0,217,218,219,221,222,223,
0,0,0,0,0,0,0,0,0,0,0,0,0,0,0,0,
0,0,0,0,0,0,0,0,0,0,0,0,0,0,0,0,
0,0,0,0,0,0,0,0,0,0,0,0,0,0,0,0,
0,0,0,0,0,0,0,0,0,0,0,0,0,0,0,0
</chunk>
   <chunk x="-48" y="16" width="16" height="16">
0,0,0,0,0,0,0,0,0,0,0,97,98,103,0,0,
0,0,0,0,0,0,0,0,0,0,0,117,118,123,0,0,
0,0,0,0,0,0,0,0,0,0,0,217,218,223,0,0,
0,0,0,0,0,0,0,0,0,0,0,0,0,0,0,0,
0,0,0,0,0,0,0,0,0,0,0,0,0,0,0,0,
0,0,0,343,102,103,97,98,344,345,0,0,97,98,99,101,
97,98,362,363,122,123,117,118,364,365,102,103,117,118,119,121,
117,118,382,383,162,163,157,158,384,385,122,123,137,138,139,141,
157,158,528,530,162,163,157,158,528,530,162,163,157,158,528,530,
177,178,179,181,182,183,177,178,179,181,182,183,197,198,443,530,
197,198,199,201,202,203,197,198,199,201,202,203,217,218,402,403,
217,218,219,221,222,223,217,218,219,221,222,223,0,0,0,423,
0,0,0,0,0,0,0,0,0,0,0,0,0,0,0,0,
0,0,0,0,0,0,0,0,0,0,0,0,0,0,0,0,
0,0,0,0,0,0,0,0,0,0,0,0,0,0,0,0,
0,0,0,0,0,0,0,0,0,0,0,0,0,0,0,0
</chunk>
   <chunk x="-32" y="16" width="16" height="16">
0,0,0,0,0,157,158,528,634,634,587,509,509,509,509,509,
0,0,0,0,0,397,398,417,635,169,632,249,249,249,249,249,
0,0,0,0,0,0,397,398,417,634,172,160,160,160,160,160,
0,0,0,0,0,0,0,397,398,417,634,112,160,160,160,160,
0,0,0,0,0,0,0,0,157,158,528,172,160,160,160,160,
102,103,97,98,99,101,102,103,397,398,417,633,112,160,160,160,
122,123,117,118,119,121,122,123,0,397,398,417,633,112,160,160,
142,143,137,138,139,141,142,143,0,0,157,158,528,172,160,160,
162,163,157,158,528,530,162,163,0,0,157,158,528,172,160,160,
162,163,157,158,528,444,202,203,0,0,157,158,528,635,109,109,
202,203,197,198,404,405,222,338,99,100,190,191,528,467,633,633,
222,223,217,218,424,0,343,358,119,120,210,211,572,127,128,200,
0,0,0,0,338,362,363,337,139,509,509,591,530,147,148,103,
0,0,0,338,358,382,383,634,634,249,249,249,632,207,208,123,
0,0,338,358,378,635,169,634,232,160,160,160,166,127,128,203,
0,338,358,378,632,633,249,232,160,160,160,106,530,147,148,103
</chunk>
   <chunk x="-16" y="16" width="16" height="16">
509,509,509,509,509,509,509,566,207,208,120,120,364,365,100,100,
249,249,249,249,249,249,249,249,587,509,509,509,384,385,120,120,
160,160,160,160,160,160,160,160,226,249,249,634,633,633,509,509,
160,160,160,160,160,160,160,160,160,160,160,226,249,635,635,632,
160,160,160,160,160,160,160,160,160,160,160,160,160,166,169,634,
160,160,160,160,160,160,160,160,160,160,160,160,106,169,444,404,
160,160,160,160,160,160,160,160,160,160,160,160,166,530,162,424,
160,160,160,160,106,109,112,160,160,160,160,160,166,530,162,163,
106,109,109,109,633,169,632,112,160,160,160,160,166,530,162,163,
634,632,635,633,632,444,417,169,112,160,160,160,166,530,162,163,
169,444,200,200,404,405,398,417,635,112,160,160,166,530,162,163,
404,405,220,220,424,0,397,398,417,169,112,160,166,530,162,163,
424,0,0,0,343,100,339,397,398,417,635,109,633,127,128,203,
97,98,99,362,363,120,359,339,397,398,417,632,530,147,148,223,
117,118,119,382,383,509,379,359,360,157,158,528,530,187,188,103,
137,138,139,634,633,635,530,379,380,397,398,417,169,207,208,123
</chunk>
   <chunk x="0" y="16" width="16" height="16">
100,344,345,0,0,0,0,0,0,0,0,0,0,0,0,0,
120,364,365,344,0,0,0,0,0,0,0,0,0,0,0,0,
509,384,385,364,365,0,0,0,0,0,0,0,0,0,0,0,
632,127,128,131,162,163,0,0,0,0,0,0,0,0,0,0,
444,147,148,151,399,400,0,0,0,0,0,0,0,0,0,0,
405,222,217,218,419,0,0,0,0,0,0,0,0,0,0,0,
0,0,0,0,0,0,0,0,0,0,338,99,100,100,102,103,
0,0,0,0,0,0,0,0,0,338,358,119,120,120,122,123,
0,0,0,0,0,0,0,0,338,358,378,139,509,509,162,163,
0,0,0,0,0,0,0,338,358,378,635,169,633,420,399,400,
0,0,0,0,0,0,338,358,378,633,633,169,420,399,400,0,
0,0,0,0,0,338,358,378,635,632,169,420,399,400,0,0,
0,0,0,0,338,358,378,633,635,632,444,399,400,0,0,0,
0,0,0,338,358,378,633,633,444,404,405,419,0,0,0,338,
0,0,357,358,378,632,633,420,399,424,0,0,0,0,357,358,
0,0,377,378,528,169,420,399,400,0,0,0,0,0,377,378
</chunk>
   <chunk x="16" y="16" width="16" height="16">
0,0,0,0,0,0,0,0,0,0,0,0,0,0,0,0,
0,0,0,0,0,0,0,0,0,0,0,0,0,0,0,0,
0,0,0,0,0,0,0,0,0,0,0,0,0,0,0,0,
0,0,0,0,0,0,0,0,0,0,0,0,0,0,0,0,
0,0,0,0,0,0,0,0,0,0,0,0,0,0,0,0,
0,0,0,0,0,0,0,338,99,100,100,100,100,100,100,100,
0,0,0,0,0,0,338,358,119,120,120,120,120,120,120,120,
0,0,0,0,0,338,358,378,139,509,509,509,444,200,200,200,
0,0,0,0,338,358,378,169,633,635,444,404,405,220,220,220,
0,0,0,338,358,378,169,635,635,420,399,424,0,0,0,0,
0,0,338,358,378,169,632,633,420,399,400,0,0,0,0,0,
0,338,358,378,634,169,635,420,399,400,0,0,0,0,0,0,
338,358,378,632,169,634,420,399,400,0,0,0,0,0,0,0,
358,378,633,632,634,420,399,400,0,0,0,0,0,0,0,0,
378,633,633,632,420,399,400,0,0,0,0,0,0,0,0,0,
528,632,632,420,399,400,0,0,0,0,0,0,0,0,0,0
</chunk>
   <chunk x="32" y="16" width="16" height="16">
0,0,0,0,0,157,158,528,632,635,587,308,309,339,342,0,
0,0,0,0,0,397,398,417,634,634,566,328,121,359,360,0,
0,0,0,0,0,0,397,398,417,635,633,587,141,142,143,0,
0,0,0,0,0,0,0,397,398,130,131,633,530,162,163,0,
0,0,0,0,0,0,0,0,418,150,151,528,530,162,163,0,
100,102,103,97,98,100,100,100,100,190,191,528,530,162,163,0,
120,122,123,117,118,120,120,120,120,210,211,633,530,162,163,0,
200,202,203,197,198,200,200,200,443,509,634,633,530,162,163,0,
97,98,102,103,218,220,220,220,402,403,443,444,404,405,406,0,
117,118,122,123,0,0,0,0,0,197,130,131,168,0,0,0,
157,158,167,168,0,0,0,0,0,97,190,191,581,0,0,0,
157,127,128,203,0,0,0,0,0,117,210,211,168,0,0,0,
579,187,188,103,0,0,0,0,0,157,158,167,168,0,0,0,
157,207,208,123,0,0,0,0,0,197,130,131,168,0,0,0,
157,158,167,168,0,0,0,0,0,97,190,191,581,0,0,0,
157,127,128,203,0,0,0,0,0,117,210,211,168,0,0,0
</chunk>
   <chunk x="48" y="16" width="16" height="16">
0,0,0,0,0,0,0,0,0,0,0,0,0,0,0,0,
0,0,0,0,0,0,0,0,0,0,0,0,0,0,0,0,
0,0,0,0,0,0,0,0,0,0,0,0,0,0,0,0,
0,0,0,0,0,0,0,0,0,0,0,0,0,0,0,0,
0,0,0,0,0,0,0,0,0,0,0,0,0,0,0,0,
0,0,0,0,0,0,0,0,0,0,0,0,0,0,0,338,
0,0,0,0,0,0,0,0,0,0,0,0,0,0,338,358,
0,0,0,0,0,0,0,0,0,0,0,0,0,338,358,378,
0,0,0,0,0,0,0,0,0,0,0,0,338,358,378,169,
0,0,0,0,0,0,0,0,0,0,0,338,358,378,635,635,
0,0,0,0,0,0,0,0,0,0,338,358,378,635,169,232,
0,0,0,0,0,0,0,0,0,338,358,378,633,633,232,160,
0,0,0,0,0,0,0,0,338,358,378,632,635,232,160,160,
0,0,0,0,0,0,0,338,358,378,634,169,232,160,160,160,
0,0,0,0,0,0,338,358,378,632,632,232,160,160,160,160,
0,0,0,0,0,338,358,378,634,632,232,160,160,160,160,160
</chunk>
   <chunk x="64" y="16" width="16" height="16">
0,0,0,0,338,358,378,632,635,232,160,160,160,160,160,160,
0,0,0,338,358,378,633,633,232,160,160,160,160,160,160,160,
0,0,338,358,378,633,634,232,160,160,160,160,160,160,160,160,
0,338,358,378,633,632,232,160,160,160,160,160,160,160,160,160,
338,358,378,635,635,232,160,160,160,160,160,160,160,160,160,160,
358,378,633,632,232,160,160,160,160,160,160,160,160,160,160,160,
378,169,635,232,160,160,160,160,160,160,160,160,160,160,160,160,
632,635,232,160,160,160,160,160,160,160,160,160,160,160,160,160,
633,232,160,160,160,160,160,160,160,160,160,160,160,160,160,160,
232,160,160,160,160,160,160,160,160,160,160,160,160,160,160,160,
160,160,160,160,160,160,160,160,160,160,160,160,160,160,160,160,
160,160,160,160,160,160,160,160,160,160,160,160,160,160,160,160,
160,160,160,160,160,160,160,160,160,160,160,160,160,160,160,160,
160,160,160,160,160,160,160,160,160,160,160,160,160,160,160,160,
160,160,160,160,160,160,160,160,160,160,160,160,160,160,160,160,
160,160,160,160,160,160,160,160,160,160,160,160,160,160,160,160
</chunk>
   <chunk x="80" y="16" width="16" height="16">
160,166,530,162,163,0,0,0,0,0,0,0,0,397,398,417,
160,166,530,162,163,0,0,0,0,0,0,0,0,0,157,158,
160,166,530,162,163,0,0,0,0,0,0,0,0,0,157,158,
160,166,530,162,163,0,0,0,0,0,0,0,0,0,157,158,
160,166,530,162,163,0,0,0,0,0,0,0,0,0,397,398,
160,166,530,162,163,0,0,0,0,0,0,0,0,0,0,157,
160,166,530,162,163,0,0,0,0,0,0,0,0,0,0,157,
160,166,530,162,163,0,0,0,0,0,0,0,0,0,0,397,
160,166,530,162,163,0,0,0,0,0,0,0,0,0,0,0,
160,166,530,162,163,0,0,0,0,0,0,0,0,0,0,0,
160,166,530,162,163,0,0,0,0,0,0,0,0,0,0,0,
160,166,530,162,163,0,0,0,0,0,0,0,0,0,0,0,
160,166,530,162,163,0,0,0,0,0,0,0,0,0,0,0,
160,166,530,162,163,0,0,0,0,0,0,0,0,0,0,0,
160,166,530,162,163,0,0,0,0,0,0,0,0,0,0,0,
160,166,530,162,163,0,0,0,0,0,0,0,0,0,0,0
</chunk>
   <chunk x="96" y="16" width="16" height="16">
169,112,160,160,160,160,160,160,226,566,207,208,123,0,0,0,
528,172,160,160,160,160,160,160,160,166,587,162,163,0,0,0,
528,172,160,160,160,160,160,160,160,166,530,187,188,103,0,0,
528,172,160,160,160,160,160,160,160,226,566,207,208,123,0,0,
417,169,112,160,160,160,160,160,160,160,166,587,187,188,103,0,
158,528,172,160,160,160,160,160,160,160,226,566,207,208,123,0,
158,528,172,160,160,160,160,160,160,160,160,166,587,162,163,0,
398,417,633,112,160,160,160,160,160,160,160,166,530,187,188,103,
157,158,528,172,160,160,160,160,160,160,160,226,566,207,208,123,
397,398,417,633,112,160,160,160,160,160,160,160,166,587,187,188,
0,157,158,528,172,160,160,160,160,160,160,160,226,566,207,208,
0,157,158,528,172,160,160,160,160,160,160,160,160,166,587,187,
0,397,398,417,634,109,112,160,160,160,160,160,160,226,566,207,
0,0,397,398,417,634,633,109,112,160,160,160,160,160,166,587,
0,0,0,397,398,443,635,632,635,112,160,160,160,160,226,566,
0,343,100,339,418,402,403,443,633,635,109,112,160,160,160,166
</chunk>
   <chunk x="112" y="16" width="16" height="16">
0,0,357,358,210,211,572,467,169,634,635,444,417,162,163,0,
0,0,377,378,509,591,486,127,128,200,404,405,398,417,188,344,
0,0,397,398,417,633,530,187,101,102,103,0,157,207,208,364,
0,0,0,157,158,528,566,207,121,122,123,0,157,158,509,384,
0,0,0,397,398,417,633,587,141,142,143,0,157,158,528,632,
0,0,0,0,157,158,528,634,530,162,163,0,157,158,528,633,
0,0,0,0,157,158,528,632,530,162,163,0,157,158,528,632,
0,0,0,0,397,398,417,634,530,162,163,0,157,158,528,169,
0,0,0,0,0,157,158,528,530,162,163,0,157,158,528,635,
103,0,0,0,0,157,158,528,530,162,163,0,157,158,528,634,
123,0,0,0,0,397,398,417,530,162,163,0,157,158,528,633,
268,269,0,0,0,0,157,158,530,162,163,0,397,398,417,634,
288,289,0,0,0,0,157,158,530,162,163,0,0,157,158,528,
308,309,101,339,342,0,397,398,417,162,163,0,97,190,191,528,
328,329,121,359,360,0,0,157,158,167,168,0,117,210,211,634,
587,509,141,142,143,0,338,190,191,167,168,0,157,158,528,444
</chunk>
   <chunk x="128" y="16" width="16" height="16">
0,0,0,0,0,0,0,0,0,0,0,0,0,0,0,0,
345,0,0,0,0,0,0,0,0,0,0,0,0,0,0,0,
365,101,102,103,0,0,0,0,0,0,0,0,0,0,0,0,
385,121,122,123,0,0,0,0,0,0,0,0,0,0,0,0,
632,141,142,143,0,0,0,0,0,0,0,0,0,0,0,0,
169,530,162,163,0,0,0,0,0,0,0,0,0,0,0,0,
633,530,162,163,0,0,0,0,0,0,0,0,0,0,0,0,
632,530,162,163,0,0,0,0,0,0,0,0,0,0,0,0,
169,530,162,163,0,0,0,0,0,0,0,0,0,0,0,0,
632,530,162,163,0,0,0,0,0,0,0,0,0,0,0,0,
635,530,162,163,0,0,0,0,0,0,0,0,0,0,0,0,
634,530,162,163,0,0,0,0,0,0,0,0,0,0,0,0,
169,530,162,163,0,0,0,0,0,0,0,0,0,0,0,0,
633,530,162,163,0,0,0,0,0,0,0,0,0,0,0,0,
635,444,202,203,0,0,0,0,0,0,0,0,0,0,0,0,
404,405,222,223,0,0,0,0,0,0,0,0,0,0,0,0
</chunk>
   <chunk x="-80" y="32" width="16" height="16">
0,0,0,0,0,0,0,0,0,0,0,0,0,0,0,0,
0,0,0,0,0,0,0,0,0,0,0,0,0,0,0,0,
97,98,99,101,102,103,0,0,0,0,0,0,0,0,0,0,
117,118,119,121,122,123,0,0,0,0,0,0,0,0,0,0,
137,138,139,141,142,143,0,0,0,0,0,0,0,0,0,0,
157,158,528,530,162,163,0,0,0,0,0,0,0,0,0,0,
157,158,528,530,162,163,0,0,0,0,0,0,0,0,0,0,
157,158,528,530,162,163,0,0,0,0,0,0,0,0,0,0,
157,158,528,530,187,188,100,344,345,0,0,0,0,0,0,0,
157,158,528,566,207,208,120,364,365,344,345,0,0,0,0,0,
157,158,528,634,587,509,509,384,385,364,365,344,345,0,0,0,
157,158,528,169,249,249,635,633,635,384,385,364,365,339,0,0,
157,158,528,172,160,160,226,249,633,635,632,384,385,359,360,0,
157,158,528,172,160,160,160,160,226,249,633,169,530,379,380,0,
157,158,528,172,160,160,160,160,160,160,226,169,530,162,163,0,
157,158,528,172,160,160,160,160,160,160,160,166,530,162,163,0
</chunk>
   <chunk x="-64" y="32" width="16" height="16">
0,0,0,0,0,0,0,0,0,0,0,0,0,0,0,0,
0,0,0,0,0,0,0,0,0,0,0,0,0,0,0,0,
0,0,0,0,0,0,0,0,0,0,0,0,0,0,0,0,
0,0,0,0,0,0,0,0,0,0,0,0,0,0,0,0,
0,0,0,0,0,0,0,0,0,0,0,0,0,0,0,0,
0,0,0,0,0,0,0,0,0,0,0,0,0,0,0,0,
0,0,0,0,0,0,0,0,0,0,0,0,0,0,0,0,
0,0,0,0,0,0,0,0,0,0,0,0,0,0,0,0,
0,0,0,0,0,0,0,0,343,100,100,100,100,100,100,100,
0,0,0,0,343,100,100,362,363,120,120,120,120,120,120,120,
0,0,338,362,363,120,120,382,383,509,509,509,509,509,509,509,
0,357,358,382,383,509,509,632,634,633,249,249,249,249,249,249,
0,377,378,528,634,634,249,249,249,232,160,160,160,160,160,160,
0,157,158,528,634,172,160,160,160,160,160,160,160,160,160,160,
0,397,398,417,632,172,160,160,160,160,160,160,160,160,160,160,
0,0,397,398,417,633,109,109,109,109,109,109,109,109,109,109
</chunk>
   <chunk x="-48" y="32" width="16" height="16">
0,0,0,0,0,0,0,0,0,0,0,0,0,0,0,0,
0,0,0,0,0,0,0,0,0,0,0,0,0,0,0,338,
0,0,0,0,0,0,0,0,0,0,0,0,0,0,357,358,
0,0,0,0,0,0,0,0,0,0,0,0,0,0,377,378,
0,0,0,0,0,0,0,0,0,0,0,0,0,343,190,191,
0,0,0,0,0,0,0,0,0,343,100,100,362,363,210,211,
0,0,0,0,0,0,0,361,362,363,120,120,382,383,509,591,
0,0,0,0,0,0,0,381,323,383,509,509,169,634,635,232,
100,100,100,100,100,100,100,190,191,528,635,249,249,249,232,160,
120,120,120,120,120,120,120,210,211,572,232,160,160,160,160,160,
509,509,509,509,509,509,509,509,591,232,160,160,160,160,160,160,
249,249,249,249,249,249,249,249,232,160,160,160,160,160,160,160,
160,160,160,160,160,160,160,160,160,160,160,160,160,106,109,109,
160,160,160,160,160,160,160,160,160,160,106,109,109,632,633,635,
160,106,109,109,109,109,109,109,109,109,632,633,634,634,444,200,
109,632,634,633,633,634,635,169,632,632,169,444,200,404,405,220
</chunk>
   <chunk x="-32" y="32" width="16" height="16">
338,358,378,635,635,232,160,160,160,160,160,226,169,207,208,123,
358,378,632,169,232,160,160,160,160,160,160,160,166,127,128,203,
378,633,635,232,160,160,160,160,160,160,160,106,530,147,148,103,
528,635,232,160,160,160,160,160,160,160,160,226,632,207,208,123,
528,172,160,160,160,160,160,160,160,160,160,160,166,127,128,203,
572,232,160,160,160,160,160,160,160,160,160,106,530,187,188,103,
232,160,160,160,160,160,160,160,160,160,160,166,566,207,208,123,
160,160,160,160,160,160,160,160,160,106,109,634,632,587,162,163,
160,160,160,160,160,160,160,106,109,634,632,632,634,530,187,188,
160,160,160,160,160,160,106,634,169,633,444,417,169,634,207,208,
160,160,160,160,160,106,633,634,444,404,405,398,443,634,632,509,
160,160,160,106,109,169,444,404,405,424,0,418,402,403,200,200,
109,109,109,632,169,420,399,424,0,0,0,0,0,423,220,220,
633,635,632,634,444,202,203,0,0,0,0,0,0,0,0,0,
200,200,200,404,405,222,223,0,0,0,0,0,0,0,0,0,
220,220,220,424,0,0,0,0,0,0,0,0,0,0,0,0
</chunk>
   <chunk x="-16" y="32" width="16" height="16">
157,158,528,633,633,632,530,187,188,103,397,398,417,530,187,188,
157,158,528,169,634,634,566,207,208,123,0,157,158,528,207,208,
157,158,528,169,632,633,632,587,187,188,103,157,158,528,169,509,
157,158,528,444,417,633,632,632,207,208,123,401,402,403,443,634,
197,198,404,405,398,200,200,443,530,187,188,344,345,423,402,403,
217,218,424,0,418,220,220,402,403,443,208,364,365,344,345,423,
0,0,0,0,0,0,0,0,423,398,443,633,385,364,365,339,
0,0,0,0,0,0,0,0,0,418,402,403,443,632,385,359,
100,100,100,100,100,100,100,100,100,344,345,423,402,403,443,379,
120,120,120,120,120,120,120,120,120,364,365,339,0,423,398,417,
509,509,509,509,509,509,509,509,509,384,385,359,360,0,157,158,
200,443,635,632,635,633,169,635,169,635,530,379,380,0,157,158,
220,402,403,443,169,635,634,169,632,634,127,128,203,0,157,158,
0,0,423,398,200,200,200,200,200,200,147,148,223,0,157,158,
0,0,0,418,220,220,220,220,220,220,97,98,99,100,190,191,
0,0,0,0,0,0,0,0,0,0,117,118,119,120,210,211
</chunk>
   <chunk x="0" y="32" width="16" height="16">
101,339,342,398,200,200,399,400,0,0,0,0,0,0,397,398,
121,359,360,418,220,220,419,0,0,0,0,0,0,0,0,418,
141,142,143,0,0,0,0,0,0,0,0,97,98,100,100,100,
530,187,188,339,0,0,0,0,0,0,0,117,118,120,120,120,
443,207,208,359,339,0,0,0,0,0,0,157,158,509,509,509,
398,443,509,379,359,339,0,0,0,0,0,401,402,403,443,632,
418,402,403,443,379,359,339,0,0,0,0,0,0,423,398,417,
339,0,423,158,528,379,359,339,0,0,0,0,0,0,397,398,
359,360,397,398,417,634,379,359,339,0,0,0,0,0,0,418,
379,380,0,157,158,528,632,379,359,339,0,0,0,0,0,0,
167,168,0,397,398,417,632,634,379,359,344,345,0,0,0,0,
167,168,0,0,157,158,528,633,169,340,364,365,100,339,0,0,
167,168,0,0,401,402,403,443,632,169,384,385,120,359,339,0,
167,168,0,0,0,0,423,398,417,633,169,635,509,379,359,360,
167,168,0,0,0,0,0,397,398,417,635,635,632,530,379,380,
162,163,0,0,0,0,0,0,397,398,417,635,169,530,162,163
</chunk>
   <chunk x="16" y="32" width="16" height="16">
200,200,200,399,400,0,0,0,0,0,0,0,0,0,0,0,
220,220,220,419,0,0,0,0,0,0,0,0,0,0,0,0,
344,345,0,0,0,0,0,0,0,0,0,0,0,0,0,0,
364,365,100,344,345,0,0,0,0,0,0,0,0,0,0,0,
384,385,120,364,365,100,101,339,0,0,0,0,0,0,0,0,
634,169,509,384,385,120,121,359,339,0,0,0,0,0,0,0,
634,632,635,169,632,509,141,379,359,339,0,0,0,0,0,0,
200,443,635,632,633,632,635,632,379,359,360,0,0,0,0,0,
220,402,403,443,169,632,632,633,530,379,380,0,0,0,0,0,
0,0,423,402,403,443,635,169,181,182,183,0,0,0,0,0,
0,0,0,0,423,398,200,200,201,399,400,0,0,0,0,0,
0,0,0,0,0,418,220,220,221,419,0,0,0,343,100,100,
0,0,0,0,0,0,0,0,0,0,338,100,362,363,120,120,
0,0,0,0,0,0,0,0,0,357,358,119,382,383,509,509,
0,0,0,0,0,0,0,0,0,137,138,139,633,169,635,249,
0,0,0,0,0,0,0,0,0,157,158,528,635,634,172,160
</chunk>
   <chunk x="32" y="32" width="16" height="16">
579,187,188,103,0,0,0,0,0,197,198,202,203,0,0,0,
157,207,208,123,0,0,0,0,0,217,218,222,223,0,0,0,
157,158,167,168,0,0,0,0,0,0,0,0,0,0,0,0,
197,198,399,400,0,0,0,0,0,0,0,0,0,0,0,0,
217,218,419,0,0,0,0,0,0,0,0,0,0,0,0,0,
0,0,0,0,0,0,0,0,0,0,0,0,0,0,0,338,
0,0,0,0,0,0,0,0,0,0,0,0,0,0,338,358,
0,0,0,0,0,0,0,0,0,0,0,0,0,338,358,378,
0,0,0,0,0,0,0,0,0,0,0,0,338,358,378,632,
0,0,0,0,0,0,0,0,0,0,0,338,358,378,633,635,
0,0,0,0,0,0,0,0,0,0,338,358,378,632,635,232,
100,100,344,345,0,0,0,0,0,343,358,378,635,634,232,160,
120,120,364,365,100,100,100,100,362,363,337,634,635,232,160,160,
509,509,384,385,120,120,120,120,382,383,633,633,232,160,160,160,
249,633,632,632,509,509,509,509,632,633,633,232,160,160,160,160,
160,226,249,249,249,249,249,249,249,249,232,160,160,160,160,160
</chunk>
   <chunk x="48" y="32" width="16" height="16">
0,0,0,0,338,358,378,633,632,232,160,160,160,160,160,160,
0,0,0,338,358,378,635,169,232,160,160,160,160,160,160,160,
0,0,338,358,378,635,632,232,160,160,160,160,160,160,160,160,
0,338,358,378,632,632,232,160,160,160,160,160,160,160,160,160,
338,358,378,632,635,232,160,160,160,160,160,160,160,160,160,160,
358,378,634,633,232,160,160,160,160,160,160,160,160,160,160,160,
378,635,632,232,160,160,160,160,160,160,160,160,160,160,160,160,
632,169,232,160,160,160,160,160,160,160,160,160,160,160,160,160,
632,232,160,160,160,160,160,160,160,160,160,160,160,160,160,160,
232,160,160,160,160,160,160,160,160,160,160,160,160,160,160,160,
160,160,160,160,160,160,160,160,160,160,160,160,160,160,160,160,
160,160,160,160,160,160,160,160,160,160,160,160,160,160,160,160,
160,160,160,160,160,160,160,160,160,160,160,160,160,160,160,160,
160,160,160,160,160,160,160,160,160,160,160,160,160,160,160,160,
160,160,160,160,160,160,160,160,160,160,160,160,160,160,160,160,
160,160,160,160,160,160,160,160,160,160,160,160,160,160,160,160
</chunk>
   <chunk x="64" y="32" width="16" height="16">
160,160,160,160,160,160,160,160,160,160,160,160,160,160,160,160,
160,160,160,160,160,160,160,160,160,160,160,160,160,160,160,160,
160,160,160,160,160,160,160,160,160,160,160,160,160,160,160,160,
160,160,160,160,160,160,160,160,160,160,160,160,160,160,160,160,
160,160,160,160,160,160,160,160,160,160,160,160,160,160,160,160,
160,160,160,160,160,160,160,160,160,160,160,160,160,160,160,160,
160,160,160,160,160,160,160,160,160,160,160,160,160,160,160,160,
160,160,160,160,160,160,160,160,160,160,160,160,160,160,160,160,
160,160,160,160,160,160,160,160,160,160,160,160,160,160,160,160,
160,160,160,160,160,160,160,160,160,160,160,160,160,160,160,160,
160,160,160,160,160,160,160,160,160,160,160,160,160,160,160,160,
160,160,160,160,160,160,160,160,160,160,160,160,160,160,160,160,
160,160,160,160,160,160,160,160,160,160,160,160,160,160,160,160,
160,160,160,160,160,160,160,160,160,160,160,160,160,160,160,160,
160,160,160,160,160,160,160,160,160,160,160,160,160,160,160,160,
160,160,160,160,160,160,160,160,160,160,160,160,160,160,160,160
</chunk>
   <chunk x="80" y="32" width="16" height="16">
160,166,530,162,163,0,0,0,0,0,0,0,0,0,0,343,
160,166,530,162,163,0,0,0,0,0,0,0,0,343,362,363,
160,166,530,162,163,0,0,0,0,0,0,343,362,363,382,383,
160,166,530,162,163,0,0,0,0,338,362,363,382,383,633,635,
160,166,530,162,163,0,0,0,338,358,382,383,633,632,633,634,
160,166,530,162,163,0,0,338,358,378,633,169,169,635,169,444,
160,166,530,162,163,0,338,358,378,633,632,635,444,200,404,405,
160,166,530,187,188,100,358,378,169,169,444,404,405,220,424,0,
160,226,566,207,208,120,337,633,169,444,399,424,0,0,0,0,
160,160,166,587,509,509,444,200,404,405,419,0,0,0,0,0,
160,160,166,635,444,404,405,220,424,0,0,0,0,0,0,0,
160,160,166,530,162,424,0,0,0,0,0,0,0,0,0,0,
160,160,166,530,162,163,0,0,0,0,0,0,0,0,0,0,
160,160,166,530,162,163,0,0,0,0,0,0,0,0,0,0,
160,160,166,530,162,163,0,0,0,0,0,0,0,0,0,0,
160,160,166,530,162,163,0,0,0,0,0,0,0,0,0,0
</chunk>
   <chunk x="96" y="32" width="16" height="16">
362,363,120,359,339,0,423,402,403,443,634,635,109,109,109,633,
382,383,509,379,359,339,0,0,423,398,443,635,633,635,632,633,
635,634,632,635,379,359,344,345,0,418,402,403,200,200,200,200,
169,632,169,635,632,340,364,365,344,345,0,423,220,220,220,220,
633,633,634,634,169,633,384,385,364,365,344,345,0,0,0,0,
200,443,169,169,635,635,169,634,384,385,364,365,100,100,100,100,
220,402,403,443,632,633,632,632,632,169,384,385,120,120,120,120,
0,0,423,398,417,632,634,635,249,169,632,634,509,509,509,509,
0,0,0,397,398,417,632,172,160,226,249,249,249,249,249,249,
0,0,0,0,397,398,417,169,112,160,160,160,160,160,160,160,
0,0,0,0,0,397,398,417,169,112,160,160,160,160,160,160,
0,0,0,0,0,0,157,158,528,172,160,160,160,160,160,160,
0,0,0,0,0,0,397,398,417,632,112,160,160,160,160,160,
0,0,0,0,0,0,0,157,158,528,172,160,160,160,160,160,
0,0,0,0,0,0,0,157,158,528,172,160,160,160,160,160,
0,0,0,0,0,0,0,397,398,417,632,112,160,160,160,160
</chunk>
   <chunk x="112" y="32" width="16" height="16">
634,635,530,162,163,357,358,119,211,162,163,0,157,158,530,187,
634,632,530,162,163,137,138,139,530,162,163,0,157,158,566,207,
200,200,404,405,406,197,130,131,530,187,188,100,190,191,528,587,
220,220,424,0,0,217,150,151,566,207,208,120,210,211,572,566,
0,0,0,0,0,343,190,191,528,587,509,509,509,591,249,633,
100,100,100,100,362,363,210,211,572,249,249,249,249,232,160,166,
120,120,120,120,382,383,509,591,232,160,160,160,160,160,106,634,
509,509,509,509,169,634,632,232,160,160,160,160,160,160,166,530,
249,249,249,249,249,249,232,160,160,160,160,160,106,109,635,530,
160,160,160,160,160,160,160,160,160,160,160,106,633,633,169,420,
160,160,160,160,160,160,160,160,160,160,106,633,632,444,200,399,
160,160,160,160,160,160,160,160,160,106,633,444,404,405,220,419,
160,160,160,160,160,160,160,160,160,166,530,187,188,103,0,0,
160,160,160,160,160,160,160,160,160,226,566,207,208,123,0,0,
160,160,160,160,160,160,160,160,160,160,166,587,187,188,103,0,
160,160,160,160,160,160,160,160,160,160,226,566,207,208,123,0
</chunk>
   <chunk x="128" y="32" width="16" height="16">
268,269,0,0,0,0,0,0,0,0,0,0,0,0,0,0,
288,289,0,0,0,0,0,0,0,0,0,0,0,0,0,0,
308,309,339,0,0,0,0,0,0,0,0,0,0,0,0,0,
328,329,359,360,0,0,0,0,0,0,0,0,0,0,0,0,
587,509,379,380,0,0,0,0,0,0,0,0,0,0,0,0,
169,420,399,400,0,0,0,0,0,0,0,0,0,0,0,0,
420,399,400,0,0,0,0,0,0,0,0,0,0,0,0,0,
162,163,0,0,0,0,0,0,0,0,0,0,0,0,0,0,
162,163,0,0,0,0,0,0,0,0,0,0,0,0,0,0,
399,400,0,0,0,0,0,0,0,0,0,0,0,0,0,0,
400,0,0,0,0,0,0,0,0,0,0,0,0,0,0,0,
0,0,0,0,0,0,0,0,0,0,0,0,0,0,0,0,
0,0,0,0,0,0,0,0,0,0,0,0,0,0,0,0,
0,0,0,0,0,0,0,0,0,0,0,0,0,0,0,0,
0,0,0,0,0,0,0,0,0,0,0,0,0,0,0,0,
0,0,0,0,0,0,0,0,0,0,0,0,0,0,0,0
</chunk>
   <chunk x="-80" y="48" width="16" height="16">
157,158,528,172,160,160,160,160,160,160,160,166,530,162,163,0,
157,158,528,172,160,160,160,160,160,160,160,166,530,162,163,0,
157,158,528,172,160,160,160,160,160,160,160,166,530,187,188,100,
157,158,528,172,160,160,160,160,160,160,160,226,566,207,208,120,
157,158,528,172,160,160,160,160,160,160,160,160,226,587,509,509,
157,158,528,172,160,160,160,160,160,160,160,160,160,226,249,566,
157,158,528,172,160,160,160,160,160,160,160,160,160,160,160,226,
157,158,528,172,160,160,160,160,160,160,160,160,160,160,160,160,
157,158,528,169,112,160,160,160,160,160,160,160,160,160,160,160,
157,158,528,635,634,109,109,112,160,160,160,160,160,160,160,160,
401,402,403,443,632,635,633,634,109,109,109,109,109,109,109,112,
0,0,423,402,403,200,443,633,169,169,169,635,632,169,169,632,
0,0,0,0,423,220,402,403,200,200,200,200,200,200,443,634,
0,0,0,0,0,0,0,423,220,220,220,220,220,220,402,403,
0,0,0,0,0,0,0,0,0,0,0,0,0,0,0,423,
0,0,0,0,0,0,0,0,0,0,0,0,0,0,0,0
</chunk>
   <chunk x="-64" y="48" width="16" height="16">
0,0,0,397,398,417,634,635,635,633,632,632,634,635,634,634,
0,0,0,0,397,398,200,200,200,200,200,200,200,200,200,200,
268,269,0,0,0,418,220,220,220,220,220,220,220,220,220,220,
288,289,0,0,0,0,0,0,0,0,0,0,0,0,0,0,
308,309,100,100,100,100,344,345,0,0,0,0,0,0,0,0,
328,329,120,120,120,120,364,365,100,344,345,0,0,0,0,0,
587,509,509,509,509,509,384,385,120,364,365,100,100,100,100,100,
226,249,249,249,249,169,633,632,509,384,385,120,120,120,120,120,
160,160,160,160,160,226,249,249,633,633,169,509,509,509,509,509,
160,160,160,160,160,160,160,160,226,249,249,249,249,249,249,249,
160,160,160,160,160,160,160,160,160,160,160,160,160,160,160,160,
109,112,160,160,160,160,160,160,160,160,160,160,160,160,160,160,
632,634,109,109,109,109,109,112,160,160,160,160,160,160,160,160,
443,634,634,633,633,634,169,635,112,160,160,160,160,160,160,160,
402,403,200,200,200,200,443,633,169,112,160,160,160,160,160,160,
0,423,220,220,220,220,402,403,443,635,112,160,160,160,160,160
</chunk>
   <chunk x="-48" y="48" width="16" height="16">
634,634,444,200,200,200,200,200,200,200,404,405,220,424,0,0,
200,404,405,220,220,220,220,220,220,220,424,0,0,0,0,0,
220,424,0,0,0,0,0,0,0,0,0,0,0,0,0,0,
0,0,0,0,0,0,0,0,0,0,0,0,0,0,0,0,
0,0,0,266,267,101,339,0,0,0,0,0,0,0,0,0,
0,0,0,286,287,121,359,339,0,0,0,0,0,97,98,344,
100,100,100,306,307,141,379,359,344,345,0,0,0,117,118,364,
120,120,120,326,327,572,634,340,364,365,100,100,100,190,191,384,
509,509,509,509,231,249,635,633,384,385,120,120,120,210,211,572,
249,249,249,249,232,160,226,632,635,169,509,509,509,509,591,249,
160,160,160,160,160,160,160,226,249,249,249,249,249,249,232,160,
160,160,160,160,160,160,160,160,160,160,160,160,160,160,160,160,
160,160,160,160,160,160,160,160,160,160,160,160,160,160,160,160,
160,160,160,160,160,160,160,160,160,160,160,160,160,160,160,160,
160,160,160,160,160,160,160,160,160,160,160,160,160,160,160,160,
160,160,160,160,160,160,160,160,160,160,160,160,160,160,160,160
</chunk>
   <chunk x="-32" y="48" width="16" height="16">
0,0,0,0,0,0,0,0,0,0,0,0,0,0,0,0,
0,0,0,0,0,0,0,0,0,0,0,0,0,0,0,0,
0,0,0,0,97,98,101,102,103,0,0,0,0,0,0,0,
0,0,0,0,117,118,121,122,123,0,0,0,0,0,0,0,
0,0,0,0,137,138,141,142,143,0,0,0,0,0,0,0,
345,0,0,0,157,158,530,162,163,0,0,0,0,0,0,361,
365,100,100,100,190,191,530,187,188,344,345,0,0,0,0,381,
385,120,120,120,210,211,572,207,208,364,365,100,339,0,338,190,
632,509,509,509,509,591,249,587,509,384,385,120,359,100,358,119,
249,249,249,249,249,232,160,226,632,632,635,509,340,120,337,139,
160,160,160,160,160,160,160,160,226,249,249,632,634,509,169,635,
160,160,160,160,160,160,160,160,160,160,160,226,249,249,249,232,
160,160,160,160,160,160,160,160,160,160,160,160,160,160,160,160,
160,160,160,160,160,160,160,160,160,160,160,160,160,160,160,160,
160,160,160,160,160,160,160,160,160,160,160,160,160,160,160,160,
160,160,160,160,160,160,160,160,160,160,160,160,160,160,160,160
</chunk>
   <chunk x="-16" y="48" width="16" height="16">
0,0,0,0,0,0,0,0,0,0,137,138,139,509,509,530,
0,0,0,0,0,0,0,0,0,0,157,158,528,634,632,530,
0,0,0,0,0,0,0,0,0,0,157,158,528,635,632,530,
0,0,338,99,100,100,100,100,100,100,190,191,528,634,635,530,
0,343,358,119,120,120,120,120,120,120,210,211,572,249,635,530,
362,363,337,139,509,509,509,509,509,509,509,591,232,160,166,530,
323,383,635,635,249,249,249,249,249,249,249,232,160,160,166,530,
191,528,632,232,160,160,160,160,160,160,160,160,160,160,166,530,
211,572,232,160,160,160,160,160,160,160,160,160,160,160,166,530,
591,232,160,160,160,160,160,160,160,160,160,160,160,160,166,530,
232,160,160,160,160,160,160,160,160,160,160,160,160,160,166,530,
160,160,160,160,160,160,160,160,160,160,160,160,160,160,226,566,
160,160,160,160,160,160,160,160,160,160,160,160,160,160,160,226,
160,160,160,160,160,160,160,160,160,160,160,160,160,160,160,160,
160,160,160,160,160,160,160,160,160,160,160,160,160,160,160,160,
160,160,160,160,160,160,160,160,160,160,160,160,160,160,160,160
</chunk>
   <chunk x="0" y="48" width="16" height="16">
162,163,0,0,0,0,0,0,0,397,398,200,200,404,405,406,
162,163,0,0,0,0,0,0,0,0,418,220,220,424,0,0,
162,163,0,0,0,0,0,0,0,0,0,0,0,0,0,343,
162,163,0,0,0,0,0,0,0,0,0,0,0,338,362,363,
162,163,0,0,0,0,0,0,0,0,0,0,338,358,382,383,
162,163,0,0,0,0,0,0,0,0,0,338,358,378,634,633,
162,163,0,0,0,0,0,0,0,0,338,358,378,634,169,249,
162,163,0,0,0,0,0,0,0,338,358,378,632,633,232,160,
162,163,0,0,0,0,0,0,357,358,378,169,635,232,160,160,
162,163,0,0,0,0,0,0,377,378,528,632,232,160,160,160,
187,188,100,100,100,100,100,100,190,191,528,172,160,160,160,160,
207,208,120,120,120,120,120,120,210,211,572,232,160,160,160,160,
587,509,509,509,509,509,509,509,509,591,232,160,160,160,160,160,
226,249,249,249,249,249,249,249,249,232,160,160,160,160,160,160,
160,160,160,160,160,160,160,160,160,160,160,160,160,160,160,160,
160,160,160,160,160,160,160,160,160,160,160,160,160,160,160,160
</chunk>
   <chunk x="16" y="48" width="16" height="16">
0,0,0,0,0,0,0,0,0,397,398,443,633,169,634,112,
0,343,100,101,339,0,0,0,0,0,418,402,403,443,635,169,
362,363,120,121,359,339,0,0,0,0,0,0,423,402,403,443,
382,383,509,141,379,359,339,0,0,0,0,0,0,0,423,158,
169,635,635,169,633,379,359,344,345,0,0,0,0,338,190,191,
632,249,249,249,634,632,340,364,365,100,339,0,338,358,119,211,
232,160,160,160,226,633,634,384,385,120,359,100,358,378,139,591,
160,160,160,160,160,226,169,169,635,509,340,120,337,169,169,232,
160,160,160,160,160,160,226,249,249,635,632,509,634,169,232,160,
160,160,160,160,160,160,160,160,160,226,249,249,249,232,160,160,
160,160,160,160,160,160,160,160,160,160,160,160,160,160,160,160,
160,160,160,160,160,160,160,160,160,160,160,160,160,160,160,160,
160,160,160,160,160,160,160,160,160,160,160,160,160,160,160,160,
160,160,160,160,160,160,160,160,160,160,160,160,160,160,160,160,
160,160,160,160,160,160,160,160,160,160,160,160,160,160,160,160,
160,160,160,160,160,160,160,160,160,160,160,160,160,160,160,160
</chunk>
   <chunk x="32" y="48" width="16" height="16">
160,160,160,160,160,160,160,160,160,160,160,160,160,160,160,160,
112,160,160,160,160,160,160,160,160,160,160,160,160,160,160,160,
632,112,160,160,160,160,160,160,160,160,160,160,160,160,160,160,
528,172,160,160,160,160,160,160,160,160,160,160,160,160,160,160,
528,172,160,160,160,160,160,160,160,160,160,160,160,160,160,160,
572,232,160,160,160,160,160,160,160,160,160,160,160,160,160,160,
232,160,160,160,160,160,160,160,160,160,160,160,160,160,160,160,
160,160,160,160,160,160,160,160,160,160,160,160,160,160,160,160,
160,160,160,160,160,160,160,160,160,160,160,160,160,160,160,160,
160,160,160,160,160,160,160,160,160,160,160,160,160,160,160,160,
160,160,160,160,160,160,160,160,160,160,160,160,160,160,160,160,
160,160,160,160,160,160,160,160,160,160,160,160,160,160,160,160,
160,160,160,160,160,160,160,160,160,160,160,160,160,160,160,160,
160,160,160,160,160,160,160,160,160,160,160,160,160,160,160,160,
160,160,160,160,160,160,160,160,160,160,160,160,160,160,160,160,
160,160,160,160,160,160,160,160,160,160,160,160,160,160,160,160
</chunk>
   <chunk x="48" y="48" width="16" height="16">
160,160,160,160,160,160,160,160,160,160,160,160,160,160,160,160,
160,160,160,160,160,160,160,160,160,160,160,160,160,160,160,160,
160,160,160,160,160,160,160,160,160,160,160,160,160,160,160,160,
160,160,160,160,160,160,160,160,160,160,160,160,160,160,160,160,
160,160,160,160,160,160,160,160,160,160,160,160,160,160,160,160,
160,160,160,160,160,160,160,160,160,160,160,160,160,160,160,160,
160,160,160,160,160,160,160,160,160,160,160,160,160,160,160,160,
160,160,160,160,160,160,160,160,160,160,160,160,160,160,160,160,
160,160,160,160,160,160,160,160,160,160,160,160,160,160,160,160,
160,160,160,160,160,160,160,160,160,160,160,160,160,160,160,160,
160,160,160,160,160,160,160,160,160,160,160,160,160,160,160,160,
160,160,160,160,160,160,160,160,160,160,160,160,160,160,160,160,
160,160,160,160,160,160,160,160,160,160,160,160,160,160,160,160,
160,160,160,160,160,160,160,160,160,160,160,160,160,160,160,160,
160,160,160,160,160,160,160,160,160,160,160,160,160,160,160,160,
160,160,160,160,160,160,160,160,160,160,160,160,160,160,160,160
</chunk>
   <chunk x="64" y="48" width="16" height="16">
160,160,160,160,160,160,160,160,160,160,160,160,160,160,160,160,
160,160,160,160,160,160,160,160,160,160,160,160,160,160,160,160,
160,160,160,160,160,160,160,160,160,160,160,160,160,160,160,160,
160,160,160,160,160,160,160,160,160,160,160,160,160,160,160,160,
160,160,160,160,160,160,160,160,160,160,160,160,160,160,160,160,
160,160,160,160,160,160,160,160,160,160,160,160,160,160,160,160,
160,160,160,160,160,160,160,160,160,160,160,160,160,160,160,160,
160,160,160,160,160,160,160,160,160,160,160,160,160,160,160,160,
160,160,160,160,160,160,160,160,160,160,160,160,160,160,160,160,
160,160,160,160,160,160,160,160,160,160,160,160,160,160,160,160,
160,160,160,160,160,160,160,160,160,160,160,160,160,160,160,160,
160,160,160,160,160,160,160,160,160,160,160,160,160,160,160,160,
160,160,160,160,160,160,160,160,160,160,160,160,160,160,160,160,
160,160,160,160,160,160,160,160,160,160,160,160,160,160,160,160,
160,160,160,160,160,160,160,160,160,160,160,160,160,160,160,160,
160,160,160,160,160,160,160,160,160,160,160,160,160,160,160,160
</chunk>
   <chunk x="80" y="48" width="16" height="16">
160,160,166,530,162,163,0,0,0,0,0,0,0,0,0,0,
160,160,166,530,162,163,0,0,0,0,0,0,0,0,0,0,
160,160,166,530,187,101,102,103,0,0,0,0,0,0,0,0,
160,160,226,566,207,121,122,123,0,0,0,0,0,0,0,0,
160,160,160,226,587,141,142,143,0,0,0,0,0,0,0,0,
160,160,160,160,166,530,162,163,0,0,0,0,0,0,0,0,
160,160,160,160,166,530,162,163,0,0,0,0,0,0,0,0,
160,160,160,160,166,530,162,163,0,0,0,0,0,0,0,0,
160,160,160,160,166,530,162,163,0,0,0,0,0,0,0,0,
160,160,160,160,166,530,162,163,0,0,0,0,0,338,100,0,
160,160,160,160,166,530,162,163,0,0,0,0,357,358,120,635,
160,160,160,160,166,530,162,163,0,0,0,0,377,378,200,404,
160,160,160,160,166,530,162,163,0,0,0,0,217,218,220,424,
160,160,160,160,166,530,162,163,0,0,0,0,0,0,0,0,
160,160,160,160,166,530,162,163,0,0,0,0,0,0,0,0,
160,160,160,160,166,530,162,163,0,0,0,0,0,0,0,0
</chunk>
   <chunk x="96" y="48" width="16" height="16">
0,0,0,0,0,0,0,0,157,158,528,172,160,160,160,160,
0,0,0,0,0,0,0,0,397,398,417,633,112,160,160,160,
0,0,0,0,0,0,0,0,0,157,158,528,172,160,160,160,
0,0,0,0,0,0,0,0,0,397,398,417,634,112,160,160,
0,0,0,0,0,0,0,0,0,0,397,398,417,634,112,160,
0,0,0,0,0,0,0,0,0,0,0,157,158,528,172,160,
0,0,0,0,0,0,0,0,0,0,0,397,398,417,169,112,
0,0,0,0,0,0,0,0,0,0,0,0,397,398,417,633,
0,0,0,0,0,0,0,0,0,0,0,0,0,157,158,528,
0,518,518,0,0,102,103,0,0,0,0,0,0,397,398,417,
634,538,538,632,530,122,123,0,0,0,0,0,0,0,157,158,
405,558,558,402,403,202,203,0,0,0,0,0,0,0,397,398,
0,0,0,0,423,222,223,0,0,0,0,0,0,0,0,397,
0,0,0,0,0,0,0,0,0,0,0,0,0,0,0,0,
0,0,0,0,0,0,0,0,0,0,0,0,0,0,0,0,
0,0,0,0,0,0,0,0,0,0,0,0,0,0,0,0
</chunk>
   <chunk x="112" y="48" width="16" height="16">
160,160,160,160,160,160,160,160,160,160,160,166,587,187,188,103,
160,160,160,160,160,160,160,160,160,160,160,226,566,207,208,123,
160,160,160,160,160,160,160,160,160,160,160,160,166,587,187,188,
160,160,160,160,160,160,160,160,160,160,160,160,226,566,207,208,
160,160,160,160,160,160,160,160,160,160,160,160,160,166,587,187,
160,160,160,160,160,160,160,160,160,160,160,160,160,226,566,207,
160,160,160,160,160,160,160,160,160,160,160,160,160,160,166,587,
112,160,160,160,160,160,160,160,160,160,160,160,160,160,166,530,
172,160,160,160,160,160,160,160,160,160,160,160,160,160,226,566,
633,112,160,160,160,160,160,160,160,160,160,160,160,160,160,166,
528,172,160,160,160,160,160,160,160,160,160,160,160,160,160,166,
417,633,112,160,160,160,160,160,160,160,160,160,160,160,160,226,
398,417,635,112,160,160,160,160,160,160,160,160,160,160,160,160,
157,158,528,172,160,160,160,160,160,160,160,160,160,160,160,160,
397,398,417,633,112,160,160,160,160,160,160,160,160,160,160,160,
0,397,398,417,634,112,160,160,160,160,160,160,160,160,160,160
</chunk>
   <chunk x="128" y="48" width="16" height="16">
0,0,0,0,0,0,0,0,0,0,0,0,0,0,0,0,
0,0,0,0,0,0,0,0,0,0,0,0,0,0,0,0,
103,0,0,0,0,0,0,0,0,0,0,0,0,0,0,0,
123,0,0,0,0,0,0,0,0,0,0,0,0,0,0,0,
188,103,0,0,0,0,0,0,0,0,0,0,0,0,0,0,
208,123,0,0,0,0,0,0,0,0,0,0,0,0,0,0,
162,163,0,0,0,0,0,0,0,0,0,0,0,0,0,0,
187,188,103,0,0,0,0,0,0,0,0,0,0,0,0,0,
207,208,123,0,0,0,0,0,0,0,0,0,0,0,0,0,
587,162,163,0,0,0,0,0,0,0,0,0,0,0,0,0,
530,187,188,103,0,0,0,0,0,0,0,0,0,0,0,0,
566,207,208,123,0,0,0,0,0,0,0,0,0,0,0,0,
166,587,162,163,0,0,0,0,0,0,0,0,0,0,0,0,
166,530,187,188,103,0,0,0,0,0,0,0,0,0,0,0,
226,566,207,208,123,0,0,0,0,0,0,0,0,0,0,0,
160,166,587,162,163,0,0,0,0,0,0,0,0,0,0,0
</chunk>
   <chunk x="-64" y="64" width="16" height="16">
0,0,0,0,0,0,0,423,158,528,172,160,160,160,160,160,
0,0,0,0,0,0,0,157,158,528,172,160,160,160,160,160,
0,0,0,0,0,0,0,397,398,417,635,112,160,160,160,160,
0,0,0,0,0,0,0,0,157,158,528,172,160,160,160,160,
0,0,0,0,0,0,0,0,157,158,528,172,160,160,160,160,
0,0,0,0,0,0,0,97,190,191,528,172,160,160,160,160,
0,0,0,0,0,0,0,117,210,211,572,633,109,109,109,109,
0,0,0,0,0,0,0,177,178,179,632,634,635,632,633,634,
0,0,0,0,0,0,0,197,198,199,200,200,200,200,200,200,
0,0,0,0,0,0,0,217,218,219,220,220,220,220,220,220,
0,0,0,0,0,0,0,0,0,0,0,0,0,0,0,0,
0,0,0,0,0,0,0,0,0,0,0,0,0,0,0,0,
0,0,0,0,0,0,0,0,0,0,0,0,0,0,0,0,
0,0,0,0,0,0,0,0,0,0,0,0,0,0,0,0,
0,0,0,0,0,0,0,0,0,0,0,0,0,0,0,0,
0,0,0,0,0,0,0,0,0,0,0,0,0,0,0,0
</chunk>
   <chunk x="-48" y="64" width="16" height="16">
160,160,160,160,160,160,160,160,160,160,160,160,160,160,160,160,
160,160,160,160,160,160,160,160,160,160,160,160,160,160,160,160,
160,160,160,160,160,160,160,160,160,160,160,160,160,160,160,160,
160,160,160,160,160,160,160,160,160,160,160,160,160,160,160,160,
160,160,160,160,160,160,160,160,160,160,160,160,160,160,160,160,
160,160,160,160,160,160,160,160,160,160,160,160,160,160,160,160,
109,109,109,109,109,109,109,109,109,109,109,109,109,109,109,109,
633,169,635,633,169,169,632,632,169,635,633,169,632,634,169,169,
200,200,200,200,200,200,200,200,200,200,200,200,200,200,200,200,
220,220,220,220,220,220,220,220,220,220,220,220,220,220,220,220,
0,0,0,0,0,0,0,0,0,0,0,0,0,0,0,0,
0,0,0,0,0,0,0,0,0,0,0,0,0,0,0,0,
0,0,0,0,0,0,0,0,0,0,0,0,0,0,0,0,
0,0,0,0,0,0,0,0,0,0,0,0,0,0,0,0,
0,0,0,0,0,0,0,0,0,0,0,0,0,0,0,0,
0,0,0,0,0,0,0,0,0,0,0,0,0,0,0,0
</chunk>
   <chunk x="-32" y="64" width="16" height="16">
160,160,160,160,160,160,160,160,160,160,160,160,160,160,160,160,
160,160,160,160,160,160,160,160,160,160,160,160,160,160,160,160,
160,160,160,160,160,160,160,160,160,160,160,160,160,160,160,160,
160,160,160,160,160,160,160,160,160,160,160,160,160,160,160,160,
160,160,160,160,160,160,160,160,160,160,160,160,160,160,160,160,
160,160,160,160,160,160,160,160,160,160,160,160,160,160,160,160,
109,109,109,109,109,109,109,109,109,109,109,109,109,109,109,109,
634,634,633,635,634,634,634,633,632,634,169,169,635,633,632,635,
200,200,200,200,200,200,200,200,200,200,200,200,200,200,200,200,
220,220,220,220,220,220,220,220,220,220,220,220,220,220,220,220,
0,0,0,0,0,0,0,0,0,0,0,0,0,0,0,0,
0,0,0,0,0,0,0,0,0,0,0,0,0,0,0,0,
0,0,0,0,0,0,0,0,0,0,0,0,0,0,0,0,
0,0,0,0,0,0,0,0,0,0,0,0,0,0,0,0,
0,0,0,0,0,0,0,0,0,0,0,0,0,0,0,0,
0,0,0,0,0,0,0,0,0,0,0,0,0,0,0,0
</chunk>
   <chunk x="-16" y="64" width="16" height="16">
160,160,160,160,160,160,160,160,160,160,160,160,160,160,160,160,
160,160,160,160,160,160,160,160,160,160,160,160,160,160,160,160,
160,160,160,160,160,160,160,160,160,160,160,160,160,160,160,160,
160,160,160,160,160,160,160,160,160,160,160,160,160,160,160,160,
160,160,160,160,160,160,160,160,160,160,160,160,160,160,160,160,
160,160,160,160,160,160,160,160,160,160,160,160,160,160,160,160,
109,109,109,109,109,109,109,109,109,109,109,109,109,109,109,109,
633,635,633,632,169,632,632,632,169,633,635,632,169,633,632,635,
200,200,200,200,200,200,200,200,200,200,200,200,200,200,200,200,
220,220,220,220,220,220,220,220,220,220,220,220,220,220,220,220,
0,0,0,0,0,0,0,0,0,0,0,0,0,0,0,0,
0,0,0,0,0,0,0,0,0,0,0,0,0,0,0,0,
0,0,0,0,0,0,0,0,0,0,0,0,0,0,0,0,
0,0,0,0,0,0,0,0,0,0,0,0,0,0,0,0,
0,0,0,0,0,0,0,0,0,0,0,0,0,0,0,0,
0,0,0,0,0,0,0,0,0,0,0,0,0,0,0,0
</chunk>
   <chunk x="0" y="64" width="16" height="16">
160,160,160,160,160,160,160,160,160,160,160,160,160,160,160,160,
160,160,160,160,160,160,160,160,160,160,160,160,160,160,160,160,
160,160,160,160,160,160,160,160,160,160,160,160,160,160,160,160,
160,160,160,160,160,160,160,160,160,160,160,160,160,160,160,160,
160,160,160,160,160,160,160,160,160,160,160,160,160,160,160,160,
160,160,160,160,160,160,160,160,160,160,160,160,160,160,160,160,
109,109,109,109,109,109,109,109,109,109,109,109,109,109,109,109,
635,634,169,634,635,634,634,632,634,169,632,634,169,169,635,633,
200,200,200,200,200,200,200,200,200,200,200,200,200,200,200,200,
220,220,220,220,220,220,220,220,220,220,220,220,220,220,220,220,
0,0,0,0,0,0,0,0,0,0,0,0,0,0,0,0,
0,0,0,0,0,0,0,0,0,0,0,0,0,0,0,0,
0,0,0,0,0,0,0,0,0,0,0,0,0,0,0,0,
0,0,0,0,0,0,0,0,0,0,0,0,0,0,0,0,
0,0,0,0,0,0,0,0,0,0,0,0,0,0,0,0,
0,0,0,0,0,0,0,0,0,0,0,0,0,0,0,0
</chunk>
   <chunk x="16" y="64" width="16" height="16">
160,160,160,160,160,160,160,160,160,160,160,160,160,160,160,160,
160,160,160,160,160,160,160,160,160,160,160,160,160,160,160,160,
160,160,160,160,160,160,160,160,160,160,160,160,160,160,160,160,
160,160,160,160,160,160,160,160,160,160,160,160,160,160,160,160,
160,160,160,160,160,160,160,160,160,160,160,160,160,160,160,160,
160,160,160,160,160,160,160,160,160,160,160,160,160,160,160,160,
109,109,109,109,109,109,109,109,109,109,109,109,109,109,109,109,
633,634,633,632,634,632,633,632,169,633,635,635,634,634,633,169,
200,200,200,200,200,200,200,200,200,200,200,200,200,200,200,200,
220,220,220,220,220,220,220,220,220,220,220,220,220,220,220,220,
0,0,0,0,0,0,0,0,0,0,0,0,0,0,0,0,
0,0,0,0,0,0,0,0,0,0,0,0,0,0,0,0,
0,0,0,0,0,0,0,0,0,0,0,0,0,0,0,0,
0,0,0,0,0,0,0,0,0,0,0,0,0,0,0,0,
0,0,0,0,0,0,0,0,0,0,0,0,0,0,0,0,
0,0,0,0,0,0,0,0,0,0,0,0,0,0,0,0
</chunk>
   <chunk x="32" y="64" width="16" height="16">
160,160,160,160,160,160,160,160,160,160,160,160,160,160,160,160,
160,160,160,160,160,160,160,160,160,160,160,160,160,160,160,160,
160,160,160,160,160,160,160,160,160,160,160,160,160,160,160,160,
160,160,160,160,160,160,160,160,160,160,160,160,160,160,160,160,
160,160,160,160,160,160,160,160,160,160,160,160,160,160,160,160,
160,160,160,160,160,160,160,160,160,160,160,160,160,160,160,160,
109,109,109,109,109,109,109,109,109,109,109,109,109,109,109,109,
169,632,169,635,169,632,634,633,635,633,632,634,632,634,633,632,
200,200,200,200,200,200,200,200,200,200,200,200,200,200,200,200,
220,220,220,220,220,220,220,220,220,220,220,220,220,220,220,220,
0,0,0,0,0,0,0,0,0,0,0,0,0,0,0,0,
0,0,0,0,0,0,0,0,0,0,0,0,0,0,0,0,
0,0,0,0,0,0,0,0,0,0,0,0,0,0,0,0,
0,0,0,0,0,0,0,0,0,0,0,0,0,0,0,0,
0,0,0,0,0,0,0,0,0,0,0,0,0,0,0,0,
0,0,0,0,0,0,0,0,0,0,0,0,0,0,0,0
</chunk>
   <chunk x="48" y="64" width="16" height="16">
160,160,160,160,160,160,160,160,160,160,160,160,160,160,160,160,
160,160,160,160,160,160,160,160,160,160,160,160,160,160,160,160,
160,160,160,160,160,160,160,160,160,160,160,160,160,160,160,160,
160,160,160,160,160,160,160,160,160,160,160,160,160,160,160,160,
160,160,160,160,160,160,160,160,160,160,160,160,160,160,160,160,
160,160,160,160,160,160,160,160,160,160,160,160,160,160,160,160,
109,109,109,109,109,109,109,109,112,160,160,160,160,160,160,160,
635,633,632,635,632,169,633,632,634,109,109,109,109,109,109,109,
200,200,200,200,200,200,200,443,633,169,169,634,169,632,169,634,
220,220,220,220,220,220,220,402,403,200,200,200,200,200,200,200,
0,0,0,0,0,0,0,0,423,220,220,220,220,220,220,220,
0,0,0,0,0,0,0,0,0,0,0,0,0,0,0,0,
0,0,0,0,0,0,0,0,0,0,0,0,0,0,0,0,
0,0,0,0,0,0,0,0,0,0,0,0,0,0,0,0,
0,0,0,0,0,0,0,0,0,0,0,0,0,0,0,0,
0,0,0,0,0,0,0,0,0,0,0,0,0,0,0,0
</chunk>
   <chunk x="64" y="64" width="16" height="16">
160,160,160,160,160,160,160,160,160,160,160,160,160,160,160,160,
160,160,160,160,160,160,160,160,160,160,160,160,160,160,160,160,
160,160,160,160,160,160,160,160,160,160,160,160,160,160,160,160,
160,160,160,160,160,160,160,160,160,160,160,160,160,160,160,160,
160,160,160,160,160,160,160,160,160,160,160,160,160,160,160,160,
160,160,160,160,160,160,160,160,160,160,160,160,160,160,160,160,
160,160,160,160,160,160,160,160,160,160,160,160,160,160,160,160,
109,109,109,109,109,109,109,109,109,109,109,109,109,109,109,109,
169,634,633,634,633,635,633,635,632,635,633,633,169,169,632,632,
200,200,200,200,200,200,200,200,200,200,200,200,200,200,200,200,
220,220,220,220,220,220,220,220,220,220,220,220,220,220,220,220,
0,0,0,0,0,0,0,0,0,0,0,0,0,0,0,0,
0,0,0,0,0,0,0,0,0,0,0,0,0,0,0,0,
0,0,0,0,0,0,0,0,0,0,0,0,0,0,0,0,
0,0,0,0,0,0,0,0,0,0,0,0,0,0,0,0,
0,0,0,0,0,0,0,0,0,0,0,0,0,0,0,0
</chunk>
   <chunk x="80" y="64" width="16" height="16">
160,160,160,160,166,530,162,163,0,0,0,0,0,0,0,0,
160,160,160,160,166,530,162,163,0,0,0,0,0,0,0,0,
160,160,160,160,166,530,162,163,0,0,0,0,0,0,0,0,
160,160,160,160,166,530,162,163,0,0,0,0,0,0,0,0,
160,160,160,160,166,530,162,163,0,0,0,0,0,0,0,0,
160,160,160,160,166,530,162,163,0,0,0,0,0,0,0,0,
160,160,160,160,166,530,162,163,0,0,0,0,0,0,0,516,
109,109,109,109,635,530,162,163,0,0,0,0,0,0,0,536,
634,632,635,169,635,181,182,183,0,0,0,0,0,0,0,556,
200,200,200,200,200,201,202,203,0,0,0,0,0,0,0,0,
220,220,220,220,220,221,222,223,0,0,0,0,0,0,0,0,
0,0,0,0,0,0,0,0,0,0,0,0,0,0,0,0,
0,0,0,0,0,0,0,0,0,0,0,0,0,0,0,0,
0,0,0,0,0,0,0,0,0,0,0,0,0,0,0,0,
0,0,0,0,0,0,0,0,0,0,0,0,0,0,0,0,
0,0,0,0,0,0,0,0,0,0,0,0,0,0,0,0
</chunk>
   <chunk x="96" y="64" width="16" height="16">
0,0,0,0,0,0,0,0,0,0,0,0,0,0,0,0,
0,0,0,0,0,0,0,0,0,0,0,0,0,0,0,0,
0,0,0,0,0,0,0,0,0,0,0,0,0,0,0,0,
0,0,0,0,0,0,0,0,0,0,0,0,0,0,0,0,
0,0,0,0,0,0,0,0,0,0,0,0,0,0,0,0,
0,0,0,0,0,0,0,0,0,0,0,0,0,0,0,0,
517,518,518,518,518,518,522,523,524,0,0,0,0,0,0,0,
537,538,538,538,538,538,542,543,544,0,0,0,0,0,0,0,
557,558,558,558,558,558,562,563,564,0,0,0,0,0,0,0,
0,0,0,0,0,0,0,0,0,0,0,0,0,0,0,0,
0,0,0,0,0,0,0,0,0,0,0,0,0,0,0,0,
0,0,0,0,0,0,0,0,0,0,0,0,0,0,0,0,
0,0,0,0,0,0,0,0,0,0,0,0,0,0,0,0,
0,0,0,0,0,0,0,0,0,0,0,0,0,0,0,0,
0,0,0,0,0,0,0,0,0,0,0,0,0,0,0,0,
0,0,0,0,0,0,0,0,0,0,0,0,0,0,0,0
</chunk>
   <chunk x="112" y="64" width="16" height="16">
0,0,397,398,417,634,112,160,160,160,160,160,160,160,160,160,
0,0,0,157,158,528,172,160,160,160,160,160,160,160,160,160,
0,0,0,397,398,417,634,112,160,160,160,160,160,160,160,160,
0,0,0,0,157,158,528,172,160,160,160,160,160,160,160,160,
0,0,0,0,397,398,417,632,112,160,160,160,160,160,160,160,
0,0,0,0,0,157,158,528,634,109,109,109,109,109,109,109,
0,0,0,0,0,397,398,417,634,169,632,635,169,635,635,634,
0,0,0,0,0,0,397,398,200,200,200,200,200,200,200,200,
0,0,0,0,0,0,0,418,220,220,220,220,220,220,220,220,
0,0,0,0,0,0,0,0,0,0,0,0,0,0,0,0,
0,0,0,0,0,0,0,0,0,0,0,0,0,0,0,0,
0,0,0,0,0,0,0,0,0,0,0,0,0,0,0,0,
0,0,0,0,0,0,0,0,0,0,0,0,0,0,0,0,
0,0,0,0,0,0,0,0,0,0,0,0,0,0,0,0,
0,0,0,0,0,0,0,0,0,0,0,0,0,0,0,0,
0,0,0,0,0,0,0,0,0,0,0,0,0,0,0,0
</chunk>
   <chunk x="128" y="64" width="16" height="16">
160,166,530,162,163,0,0,0,0,0,0,0,0,0,0,0,
160,166,530,162,163,0,0,0,0,0,0,0,0,0,0,0,
160,166,530,162,163,0,0,0,0,0,0,0,0,0,0,0,
160,166,530,162,163,0,0,0,0,0,0,0,0,0,0,0,
160,166,530,187,188,339,342,0,0,0,0,0,0,0,0,0,
109,635,566,207,121,359,360,0,0,0,0,0,0,0,0,0,
633,632,169,587,141,142,143,0,0,0,0,0,0,0,0,0,
200,200,200,200,200,202,203,0,0,0,0,0,0,0,0,0,
220,220,220,220,220,222,223,0,0,0,0,0,0,0,0,0,
0,0,0,0,0,0,0,0,0,0,0,0,0,0,0,0,
0,0,0,0,0,0,0,0,0,0,0,0,0,0,0,0,
0,0,0,0,0,0,0,0,0,0,0,0,0,0,0,0,
0,0,0,0,0,0,0,0,0,0,0,0,0,0,0,0,
0,0,0,0,0,0,0,0,0,0,0,0,0,0,0,0,
0,0,0,0,0,0,0,0,0,0,0,0,0,0,0,0,
0,0,0,0,0,0,0,0,0,0,0,0,0,0,0,0
</chunk>
  </data>
 </layer>
</map>
