<?xml version="1.0" encoding="UTF-8"?>
<map version="1.10" tiledversion="1.12.0" orientation="orthogonal" renderorder="right-down" width="4" height="4" tilewidth="16" tileheight="16" infinite="1" nextlayerid="4" nextobjectid="1">
 <tileset firstgid="1" source="../tileset template.tsx"/>
 <tileset firstgid="51" source="../tangled incomplete tileset.tsx"/>
 <layer id="1" name="template" width="4" height="4">
  <data encoding="csv">
   <chunk x="80" y="-96" width="16" height="16">
0,0,0,0,0,0,0,0,0,0,0,0,0,0,0,0,
0,0,0,0,0,0,0,0,0,0,0,0,0,0,0,0,
0,0,0,0,0,0,0,0,0,0,0,0,0,0,0,0,
0,0,0,0,0,0,0,0,0,0,0,0,0,0,0,0,
0,0,0,0,0,0,0,0,0,0,0,0,0,0,0,0,
0,0,0,0,0,0,0,0,0,0,0,0,0,0,0,0,
0,0,0,0,0,0,0,0,0,0,0,0,0,0,0,0,
0,0,0,0,0,0,0,0,0,0,0,0,0,0,0,0,
0,0,0,0,0,0,0,0,0,0,0,0,0,0,0,0,
0,0,0,0,0,0,0,0,0,0,0,0,0,0,0,0,
0,0,0,0,0,0,0,0,0,0,0,0,0,0,0,0,
0,0,0,0,0,0,0,0,0,0,0,0,0,0,0,0,
0,0,0,0,0,0,0,0,0,0,0,0,0,0,0,0,
0,0,0,0,0,0,0,0,0,0,0,0,0,0,0,0,
0,0,0,0,0,0,0,0,0,0,0,0,0,0,0,0,
12,12,12,12,12,12,12,12,12,12,12,12,12,12,12,12
</chunk>
   <chunk x="96" y="-96" width="16" height="16">
0,0,0,0,0,0,0,0,0,0,0,0,0,0,0,0,
0,0,0,0,0,0,0,0,0,0,0,0,0,0,0,0,
0,0,0,0,0,0,0,0,0,0,0,0,0,0,0,0,
0,0,0,0,0,0,0,0,0,0,0,0,0,0,0,0,
0,0,0,0,0,0,0,0,0,0,0,0,0,0,0,0,
0,0,0,0,0,0,0,0,0,0,0,0,0,0,0,0,
0,0,0,0,0,0,0,0,0,0,0,0,0,0,0,0,
0,0,0,0,0,0,0,0,0,0,0,0,0,0,0,0,
0,0,0,0,0,0,0,0,0,0,0,0,0,0,0,0,
0,0,0,0,0,0,0,0,0,0,0,0,0,0,0,0,
0,0,0,0,0,0,0,0,0,0,0,0,0,0,0,0,
0,0,0,0,0,0,0,0,0,0,0,0,0,0,0,0,
0,0,0,0,0,0,0,0,0,0,0,0,0,0,0,0,
0,0,0,0,0,0,0,0,0,0,0,0,0,0,0,0,
0,0,0,0,0,0,0,0,0,0,0,0,0,0,0,0,
12,12,12,12,0,0,0,0,0,0,0,0,0,0,0,0
</chunk>
   <chunk x="32" y="-64" width="16" height="16">
0,0,0,0,0,0,0,0,0,0,0,0,0,0,0,0,
0,0,0,0,0,0,0,0,0,0,0,0,0,0,0,0,
0,0,0,0,0,0,0,0,0,0,0,0,0,0,0,0,
0,0,0,0,0,0,0,0,0,0,0,0,0,0,0,0,
0,0,0,0,0,0,0,0,0,0,0,0,0,0,0,0,
0,0,0,0,0,0,0,0,0,0,0,0,0,0,0,0,
0,0,0,0,0,0,0,0,0,0,0,0,0,0,0,0,
0,0,0,0,0,0,0,0,0,0,0,0,0,0,0,0,
0,0,0,0,0,0,0,0,0,0,0,0,0,0,0,0,
0,0,0,0,0,0,0,0,0,0,0,0,0,0,0,0,
0,0,0,0,0,0,0,0,0,0,0,0,0,0,0,0,
0,0,0,0,0,0,0,0,0,0,0,0,0,0,0,0,
0,0,0,0,0,0,0,0,0,0,12,12,12,12,0,0,
0,0,0,0,0,0,12,12,12,12,12,12,12,12,12,12,
0,0,0,0,12,12,12,12,12,12,12,12,12,12,12,12,
0,0,0,12,12,12,12,12,12,12,12,12,12,12,12,12
</chunk>
   <chunk x="48" y="-64" width="16" height="16">
0,0,0,0,0,0,0,0,0,0,0,0,0,0,0,0,
0,0,0,0,0,0,0,0,0,0,0,0,0,0,0,0,
0,0,0,0,0,0,0,0,0,0,0,0,0,0,0,0,
0,0,0,0,0,0,0,0,0,0,0,0,0,0,0,0,
0,0,0,0,0,0,0,0,0,0,0,0,0,0,0,0,
0,0,0,0,0,0,0,0,0,0,0,0,0,0,0,0,
0,0,0,0,0,0,0,0,0,0,0,0,0,0,0,0,
0,0,0,0,0,0,0,0,0,0,0,0,0,0,0,0,
0,0,0,0,0,0,0,0,0,0,0,0,0,0,0,0,
0,0,0,0,0,0,0,0,0,0,0,0,0,0,0,0,
0,0,0,0,0,0,0,0,0,0,0,0,0,0,0,0,
0,0,0,0,0,0,0,0,0,0,0,0,0,0,0,0,
0,0,0,0,0,0,0,0,0,0,0,0,0,0,0,0,
12,12,12,12,12,12,12,12,12,0,0,0,0,0,0,0,
12,12,12,12,12,12,12,12,12,0,0,0,0,0,0,0,
12,12,12,12,12,12,12,12,12,0,0,0,0,0,0,0
</chunk>
   <chunk x="32" y="-48" width="16" height="16">
0,0,0,12,12,12,12,12,12,12,12,12,12,12,12,12,
0,0,0,12,12,12,12,12,12,12,12,12,12,12,12,12,
0,0,0,12,12,12,12,12,12,12,12,12,12,12,12,12,
0,0,12,12,12,12,12,12,12,12,12,12,12,12,12,12,
0,12,12,12,12,12,12,12,12,12,12,12,12,12,12,12,
0,12,12,12,12,12,12,12,12,12,12,12,12,12,12,0,
0,12,12,12,12,12,12,12,12,12,12,12,12,0,0,0,
0,12,12,12,12,12,12,12,12,12,12,12,0,0,0,0,
0,12,12,12,12,12,12,12,12,12,0,0,0,0,0,0,
0,12,12,12,12,12,12,12,12,0,0,0,0,0,0,0,
12,12,12,12,12,12,12,12,0,0,0,0,0,0,0,0,
0,0,0,0,0,0,0,0,0,0,0,0,0,0,0,0,
0,0,0,0,0,0,0,0,0,0,0,0,0,0,0,0,
0,0,0,0,0,0,0,0,0,0,0,0,0,0,0,0,
0,0,0,0,0,0,0,0,0,0,0,0,0,0,0,0,
0,0,0,0,0,0,0,0,12,12,12,12,12,12,12,12
</chunk>
   <chunk x="48" y="-48" width="16" height="16">
12,12,12,12,12,12,12,12,12,0,0,0,0,0,0,0,
12,12,12,12,12,12,12,12,12,0,0,0,0,0,0,0,
12,12,12,12,12,12,12,12,12,0,0,0,0,0,0,0,
12,12,12,12,12,12,12,12,12,0,0,0,0,0,0,0,
12,0,0,0,0,0,0,0,0,0,0,0,0,0,0,0,
0,0,0,0,0,0,0,0,0,0,0,0,0,0,0,0,
0,0,0,0,0,0,0,0,0,0,0,0,0,0,0,0,
0,0,0,0,0,0,0,0,0,0,0,0,0,0,0,0,
0,0,0,0,0,0,0,0,0,0,0,0,0,0,0,0,
0,0,0,0,0,0,0,0,0,0,0,0,0,0,0,0,
0,0,0,0,0,0,0,0,0,0,0,0,0,0,0,0,
0,0,0,0,0,0,0,0,0,0,0,0,0,0,0,0,
0,0,0,0,0,0,0,0,0,0,0,0,0,0,0,0,
0,0,0,0,0,0,0,0,0,0,0,0,0,0,0,0,
0,0,0,0,0,0,0,0,0,0,0,0,0,0,0,0,
12,12,12,12,12,12,12,12,12,0,0,0,0,0,0,0
</chunk>
   <chunk x="16" y="-32" width="16" height="16">
0,0,0,0,0,0,0,0,0,0,0,0,0,0,0,0,
0,0,0,0,0,0,0,0,0,0,0,0,0,0,0,0,
0,0,0,0,0,0,0,0,0,0,0,0,0,0,0,0,
0,0,0,0,0,0,0,0,0,0,0,0,0,0,0,0,
0,0,0,0,0,0,0,0,0,0,0,0,0,0,0,0,
0,0,0,0,0,0,0,0,0,0,0,0,0,0,0,0,
0,0,0,0,0,0,0,0,0,0,0,0,0,0,0,0,
0,0,0,0,0,0,0,0,0,0,0,0,0,0,0,0,
0,0,0,0,0,0,0,0,0,0,0,0,0,0,0,12,
0,0,0,0,0,0,0,0,0,0,0,0,0,0,12,12,
0,0,0,0,0,0,0,0,0,0,0,0,0,12,12,12,
0,0,0,0,0,0,0,0,0,0,0,0,12,12,12,12,
0,0,0,0,0,0,0,0,0,0,0,12,12,12,12,12,
0,0,0,0,0,0,0,0,0,0,12,12,12,12,12,12,
0,0,0,0,0,0,0,0,0,12,12,12,12,12,12,0,
0,0,0,0,0,0,0,0,12,12,12,12,12,12,12,0
</chunk>
   <chunk x="32" y="-32" width="16" height="16">
0,0,0,0,0,0,0,12,12,12,12,12,12,12,12,12,
0,0,0,0,0,0,12,12,12,12,12,12,12,12,12,12,
0,0,0,0,0,12,12,12,12,12,12,12,12,12,12,12,
0,0,0,0,12,12,12,12,12,12,12,12,12,12,12,12,
0,0,0,12,12,12,12,12,12,12,12,12,12,12,12,12,
0,0,12,12,12,12,12,12,12,12,12,12,12,0,0,0,
0,12,12,12,12,12,12,12,12,12,12,0,0,0,0,0,
12,12,12,12,12,12,0,0,0,0,0,0,0,0,0,0,
12,12,12,12,12,0,0,0,0,0,0,0,0,0,0,0,
12,12,12,0,0,0,0,0,0,0,0,0,0,0,0,0,
12,12,0,0,0,0,0,0,0,0,0,0,0,0,0,0,
12,0,0,0,0,0,0,0,0,0,0,0,0,0,0,0,
12,0,0,0,0,0,0,0,0,0,0,0,0,0,0,0,
0,0,0,0,0,0,0,0,0,0,0,0,0,0,0,0,
0,0,0,0,0,0,0,0,0,0,0,0,0,0,0,0,
0,0,0,12,0,0,0,0,0,0,0,0,0,0,0,0
</chunk>
   <chunk x="48" y="-32" width="16" height="16">
12,12,12,12,12,12,12,12,12,0,0,0,0,0,0,0,
12,12,12,12,12,12,12,12,12,0,0,0,0,0,0,0,
12,12,12,12,12,12,12,12,12,0,0,0,0,0,0,0,
12,12,12,12,12,12,12,12,12,0,0,0,0,0,0,0,
12,12,12,12,12,12,12,12,12,0,0,0,0,0,0,0,
0,0,0,0,0,0,0,0,0,0,0,0,0,0,0,0,
0,0,0,0,0,0,0,0,0,0,0,0,0,0,0,0,
0,0,0,0,0,0,0,0,0,0,0,0,0,0,0,0,
0,0,0,0,0,0,0,0,0,0,0,0,0,0,0,0,
0,0,0,0,0,0,0,0,0,0,0,0,0,0,0,0,
0,0,0,0,0,0,0,0,0,0,0,0,0,0,0,0,
0,0,0,0,0,0,0,0,0,0,0,0,0,0,0,0,
0,0,0,0,0,0,0,0,0,0,0,0,0,0,0,0,
0,0,0,0,0,0,0,0,0,0,0,0,0,0,0,0,
0,0,0,0,0,0,0,0,0,0,0,0,0,0,0,0,
0,0,0,0,0,0,0,0,0,0,0,0,0,0,0,0
</chunk>
   <chunk x="-32" y="-16" width="16" height="16">
0,0,0,0,0,0,0,0,0,0,0,0,0,0,0,0,
0,0,0,0,0,0,0,0,0,0,0,0,0,0,0,0,
0,0,0,0,0,0,0,0,0,0,0,0,0,0,0,0,
0,0,0,0,0,0,0,0,0,0,0,0,0,0,0,0,
0,0,0,0,0,0,0,0,0,0,0,0,0,0,0,0,
0,0,0,0,0,0,0,0,0,0,0,0,0,0,0,0,
0,0,0,0,0,0,0,0,0,0,0,0,0,0,0,0,
0,0,0,0,0,0,0,0,0,0,0,0,0,0,0,0,
0,0,0,0,0,0,0,0,0,0,0,0,0,0,0,0,
0,12,12,12,12,12,0,0,0,0,0,0,0,0,0,0,
0,12,12,12,12,12,12,12,12,12,12,12,12,12,12,12,
0,12,12,12,12,12,12,12,12,12,12,12,12,12,12,12,
0,12,12,12,12,12,12,12,12,12,12,12,12,12,12,12,
0,0,0,0,12,12,12,12,12,12,12,12,12,12,12,12,
0,0,0,0,0,0,12,12,12,12,12,12,12,12,12,12,
0,0,0,0,0,0,0,0,0,0,12,12,12,12,12,12
</chunk>
   <chunk x="-16" y="-16" width="16" height="16">
0,0,0,0,0,0,0,0,0,0,0,0,0,0,0,0,
0,0,0,0,0,0,0,0,0,0,0,0,0,0,0,0,
0,0,0,0,0,0,0,0,0,0,0,0,0,0,0,0,
0,0,0,0,0,0,0,0,0,0,0,0,0,0,0,0,
0,0,0,0,0,0,0,0,0,0,0,0,0,0,0,0,
0,12,12,12,12,12,12,0,0,0,0,0,0,0,0,0,
12,12,12,12,12,12,12,12,0,0,0,0,0,0,0,0,
12,12,12,12,12,12,12,12,0,0,0,0,0,0,0,0,
12,12,12,12,12,12,12,12,0,0,0,0,0,0,0,12,
12,12,12,12,12,12,12,12,12,12,0,0,0,0,12,12,
12,12,12,12,12,12,12,12,0,0,0,0,12,12,12,12,
12,12,12,12,12,12,12,0,0,0,0,12,12,12,12,12,
12,12,12,12,12,12,12,12,0,0,0,12,12,12,12,12,
12,12,12,12,12,12,12,12,0,0,0,0,0,12,12,0,
12,12,12,12,12,12,12,0,0,0,0,0,0,0,0,0,
12,12,12,12,12,12,12,12,0,0,0,0,0,0,0,0
</chunk>
   <chunk x="0" y="-16" width="16" height="16">
0,0,0,0,0,0,0,0,0,0,0,0,0,0,0,0,
0,0,0,0,0,0,0,0,0,0,0,0,0,0,0,0,
0,0,0,0,0,0,0,0,0,0,0,0,0,0,0,0,
0,0,0,0,0,0,0,0,0,0,0,0,0,0,0,0,
0,0,0,0,0,0,0,0,0,0,0,0,0,0,0,0,
0,0,0,0,0,0,0,0,0,0,0,0,0,0,0,0,
0,0,0,0,0,0,0,0,0,0,0,0,0,0,0,0,
0,0,0,0,0,0,0,0,0,0,0,0,0,0,0,0,
12,12,12,0,0,0,0,0,0,0,0,0,0,0,0,12,
12,12,12,0,0,0,0,0,0,0,0,0,0,0,12,12,
12,12,0,0,0,0,0,0,0,0,0,0,0,12,12,12,
12,0,0,0,0,0,0,0,0,0,0,0,12,12,12,12,
0,0,0,0,0,0,0,0,0,0,0,12,12,12,12,12,
0,0,0,0,0,0,0,0,0,0,12,12,12,12,12,12,
0,0,0,0,0,0,0,0,0,12,12,12,12,12,12,12,
0,0,0,0,0,0,0,0,12,12,12,12,12,12,12,12
</chunk>
   <chunk x="16" y="-16" width="16" height="16">
0,0,0,0,0,0,0,12,12,12,12,12,12,12,0,0,
0,0,0,0,0,0,12,12,12,12,12,12,12,12,12,12,
0,0,0,0,0,12,12,12,12,12,12,12,12,12,12,12,
0,0,0,0,12,12,12,12,12,12,12,12,12,12,12,12,
0,0,0,12,12,12,12,12,12,12,12,12,12,12,12,12,
0,0,12,12,12,12,12,12,12,12,12,12,12,12,12,0,
0,12,12,12,12,12,12,12,12,12,12,12,12,12,0,0,
12,12,12,12,12,12,12,12,12,12,12,12,12,0,0,0,
12,12,12,12,12,12,12,12,12,12,12,12,0,0,0,0,
12,12,12,12,12,12,12,12,12,12,12,12,0,0,0,0,
12,12,12,12,12,12,12,12,12,12,12,0,0,0,0,0,
12,12,12,12,12,12,12,12,12,12,12,0,0,0,0,0,
12,12,12,12,12,12,12,12,12,12,0,0,0,0,0,0,
12,12,12,12,12,12,12,12,12,0,0,0,0,0,0,0,
12,12,12,12,12,12,12,12,0,0,0,0,0,0,0,0,
12,12,12,12,12,12,12,0,0,0,0,0,0,0,0,0
</chunk>
   <chunk x="32" y="-16" width="16" height="16">
0,0,0,12,0,0,0,0,0,0,0,0,0,0,0,0,
0,0,0,12,0,0,0,0,0,0,0,0,0,0,0,0,
0,0,0,12,0,0,0,0,0,0,0,0,0,0,0,0,
0,0,0,12,0,0,0,0,0,0,0,0,0,0,0,0,
0,0,0,12,0,0,0,0,0,0,0,0,0,0,0,0,
0,0,0,0,0,0,0,0,0,0,0,0,0,0,0,0,
0,0,0,0,0,0,0,0,0,0,0,0,0,0,0,0,
0,0,0,0,0,0,0,0,0,0,0,0,0,0,0,0,
0,0,0,0,0,0,0,0,0,0,0,0,0,0,0,0,
0,0,0,0,0,0,0,0,0,0,0,0,0,0,0,0,
0,0,0,0,0,0,0,0,0,0,0,0,0,0,0,0,
0,0,0,0,0,0,0,0,0,0,0,0,0,0,0,0,
0,0,0,0,0,0,0,0,0,0,0,0,0,0,0,0,
0,0,0,0,0,0,0,0,0,0,0,0,0,0,0,0,
0,0,0,0,0,0,0,0,0,0,0,0,0,0,0,0,
0,0,0,0,0,0,0,0,0,0,0,0,0,0,0,0
</chunk>
   <chunk x="-48" y="0" width="16" height="16">
0,0,0,0,0,0,0,0,0,0,0,0,0,0,0,0,
0,0,0,0,0,0,0,0,0,0,0,0,0,0,0,0,
0,0,0,0,0,0,0,0,0,0,0,0,0,0,0,0,
0,0,0,0,0,0,0,0,0,0,0,0,0,0,0,0,
0,0,0,0,0,0,0,0,0,0,0,0,0,0,0,0,
0,0,0,0,0,0,0,0,0,0,0,0,0,0,0,0,
0,0,0,0,0,0,0,0,0,0,0,0,0,0,0,0,
0,0,0,0,0,0,0,0,0,0,0,0,0,0,0,0,
0,0,0,0,0,0,0,0,0,0,0,0,0,0,0,0,
0,0,0,0,0,0,0,0,0,0,0,0,0,0,0,0,
0,0,0,0,0,0,0,12,12,0,0,0,0,0,0,0,
0,0,0,0,0,0,0,0,12,12,12,12,12,0,0,0,
0,0,0,0,0,0,0,0,0,0,0,0,12,12,12,12,
0,0,0,0,0,0,0,0,0,0,0,0,0,0,0,0,
0,0,0,0,0,0,0,0,0,0,0,0,0,0,0,0,
0,0,0,0,0,0,0,0,0,0,0,0,0,0,0,0
</chunk>
   <chunk x="-32" y="0" width="16" height="16">
0,0,0,0,0,0,0,0,0,0,0,0,0,12,12,12,
0,0,0,0,0,0,0,0,0,0,0,0,0,0,0,12,
0,0,0,0,0,0,0,0,0,0,0,0,0,0,0,0,
0,0,0,0,0,0,0,0,0,0,0,0,0,0,0,0,
0,0,0,0,0,0,0,0,0,0,0,0,0,0,0,0,
0,0,0,0,0,0,0,0,0,0,0,0,0,0,0,0,
0,0,0,0,0,0,0,0,0,0,0,0,0,0,0,0,
0,0,0,0,0,0,0,0,0,0,0,0,0,0,0,0,
0,0,0,0,0,0,0,0,0,0,0,0,0,0,0,0,
0,0,0,0,0,0,0,0,0,0,0,0,0,0,0,0,
0,0,0,0,0,0,0,0,0,0,0,0,0,0,0,0,
0,0,0,0,0,12,12,12,12,12,12,12,12,0,0,0,
12,12,12,12,12,12,0,0,0,0,0,0,0,0,0,0,
0,0,0,0,0,0,0,0,0,0,0,0,0,0,0,0,
0,0,0,0,0,0,0,0,0,0,0,0,0,0,0,0,
0,0,0,0,0,0,0,0,0,0,0,0,0,0,0,0
</chunk>
   <chunk x="-16" y="0" width="16" height="16">
12,12,12,12,12,12,12,12,0,0,0,0,0,0,0,0,
12,12,12,12,12,12,12,0,0,0,0,0,0,0,0,0,
12,12,12,12,12,12,12,12,0,0,0,0,0,0,0,0,
12,12,12,12,12,12,12,12,0,0,0,0,0,0,0,0,
12,12,12,12,12,12,12,12,12,12,12,12,12,12,12,12,
12,12,12,12,12,12,12,12,12,12,12,12,12,12,12,12,
12,12,12,12,12,12,12,12,12,12,12,12,12,12,12,12,
12,12,12,12,12,12,12,12,12,12,12,12,12,12,12,12,
12,12,12,12,12,12,12,12,12,12,12,12,12,12,12,12,
12,12,12,12,12,12,12,12,12,12,12,12,12,12,12,12,
12,12,12,12,12,12,12,12,12,12,12,12,12,12,12,12,
12,12,12,12,12,12,12,12,12,12,12,12,12,12,12,12,
0,0,0,0,0,0,0,0,0,0,0,0,0,0,0,12,
0,0,0,0,0,0,0,0,0,0,0,0,0,0,0,0,
0,0,0,0,0,0,0,0,0,0,0,0,0,0,0,0,
0,0,0,0,0,0,0,0,0,0,0,0,0,0,0,0
</chunk>
   <chunk x="0" y="0" width="16" height="16">
0,0,0,0,0,0,12,12,12,12,12,12,12,12,12,12,
0,0,0,0,0,0,12,12,12,12,12,12,12,12,12,12,
0,0,0,0,0,12,12,12,12,12,12,12,12,12,12,12,
0,0,0,0,12,12,12,12,12,12,12,12,12,12,12,12,
12,12,12,12,12,12,12,12,12,12,12,12,12,12,12,12,
12,12,12,12,12,12,12,12,12,12,12,12,12,12,12,0,
12,12,12,12,12,12,12,12,12,12,12,12,12,12,0,0,
12,12,12,12,12,12,12,12,12,12,12,12,12,12,0,0,
12,12,12,12,12,12,12,12,12,12,12,12,12,12,0,0,
12,12,12,12,12,12,12,12,12,12,12,12,12,12,0,0,
12,12,12,12,12,12,12,12,12,12,12,12,12,0,0,0,
12,12,12,12,12,12,0,0,0,0,0,0,0,0,0,0,
0,0,0,0,0,0,0,0,0,0,0,0,0,0,0,0,
0,0,0,0,0,0,0,0,0,0,0,0,0,0,0,0,
0,0,0,0,0,0,0,0,0,0,0,0,0,0,0,0,
0,0,0,0,0,0,0,0,0,0,0,0,0,0,0,0
</chunk>
   <chunk x="16" y="0" width="16" height="16">
12,12,12,12,12,12,0,0,0,0,0,0,0,0,0,0,
12,12,12,12,12,0,0,0,0,0,0,0,0,0,0,0,
12,12,12,12,0,0,0,0,0,0,0,0,0,0,0,0,
12,12,0,0,0,0,0,0,0,0,0,0,0,0,0,0,
12,0,0,0,0,0,0,0,0,0,0,0,0,0,0,0,
0,0,0,0,0,0,0,0,0,0,0,0,0,0,0,0,
0,0,0,0,0,0,0,0,0,0,0,0,0,0,0,0,
0,0,0,0,0,0,0,0,0,0,0,0,0,0,0,0,
0,0,0,0,0,0,0,0,0,0,0,0,0,0,0,0,
0,0,0,0,0,0,0,0,0,0,0,0,0,0,0,0,
0,0,0,0,0,0,0,0,0,0,0,0,0,0,0,0,
0,0,0,0,0,0,0,0,0,0,0,0,0,0,0,0,
0,0,0,0,0,0,0,0,0,0,0,0,0,0,0,0,
0,0,0,0,0,0,0,0,0,0,0,0,0,0,0,0,
0,0,0,0,0,0,0,0,0,0,0,0,0,0,0,0,
0,0,0,0,0,0,0,0,0,0,0,0,0,0,0,0
</chunk>
   <chunk x="32" y="0" width="16" height="16">
0,0,0,0,0,0,12,12,12,12,12,12,12,12,12,12,
0,0,0,0,0,0,0,0,0,0,0,0,0,0,0,0,
0,0,0,0,0,0,0,0,0,0,0,0,0,0,0,0,
0,0,0,0,0,0,0,0,0,0,0,0,0,0,0,0,
0,0,0,0,0,0,0,0,0,0,0,0,0,0,0,0,
0,0,0,0,0,0,0,0,0,0,0,0,0,0,0,0,
0,0,0,0,0,0,0,0,0,0,0,0,0,0,0,0,
0,0,0,0,0,0,0,0,0,0,0,0,0,0,0,0,
0,0,0,0,0,0,0,0,0,0,0,0,0,0,0,0,
0,0,0,0,0,0,0,0,0,0,0,0,0,0,0,0,
0,0,0,0,0,0,0,0,0,0,0,0,0,0,0,0,
0,0,0,0,0,0,0,0,0,0,0,0,0,0,0,0,
0,0,0,0,0,0,0,0,0,0,0,0,0,0,0,0,
0,0,0,0,0,0,0,0,0,0,0,0,0,0,0,0,
0,0,0,0,0,0,0,0,0,0,0,0,0,0,0,0,
0,0,0,0,0,0,0,0,0,0,0,0,0,0,0,0
</chunk>
   <chunk x="48" y="0" width="16" height="16">
12,12,12,12,12,12,12,12,12,12,12,0,0,0,0,0,
0,0,0,0,0,0,0,0,0,0,0,0,0,0,0,0,
0,0,0,0,0,0,0,0,0,0,0,0,0,0,0,0,
0,0,0,0,0,0,0,0,0,0,0,0,0,0,0,0,
0,0,0,0,0,0,0,0,0,0,0,0,0,0,0,0,
0,0,0,0,0,0,0,0,0,0,0,0,0,0,0,0,
0,0,0,0,0,0,0,0,0,0,0,0,0,0,0,0,
0,0,0,0,0,0,0,0,0,0,0,0,0,0,0,0,
0,0,0,0,0,0,0,0,0,0,0,0,0,0,0,0,
0,0,0,0,0,0,0,0,0,0,0,0,0,0,0,0,
0,0,0,0,0,0,0,0,0,0,0,0,0,0,0,0,
0,0,0,0,0,0,0,0,0,0,0,0,0,0,0,0,
0,0,0,0,0,0,0,0,0,0,0,0,0,0,0,0,
0,0,0,0,0,0,0,0,0,0,0,0,0,0,0,0,
0,0,0,0,0,0,0,0,0,0,0,0,0,0,0,0,
0,0,0,0,0,0,0,0,0,0,0,0,0,0,0,0
</chunk>
   <chunk x="80" y="16" width="16" height="16">
0,0,0,0,0,0,0,0,0,0,0,0,0,0,0,0,
0,0,0,0,0,0,0,0,0,0,0,0,0,0,0,0,
0,0,0,0,0,0,0,0,0,0,0,0,0,0,0,0,
0,0,0,0,0,0,0,0,0,0,0,0,0,0,0,0,
0,12,12,12,12,12,12,12,12,12,12,12,12,12,12,12,
0,0,0,0,0,0,0,0,0,0,0,0,0,0,0,0,
0,0,0,0,0,0,0,0,0,0,0,0,0,0,0,0,
0,0,0,0,0,0,0,0,0,0,0,0,0,0,0,0,
0,0,0,0,0,0,0,0,0,0,0,0,0,0,0,0,
0,0,0,0,0,0,0,0,0,0,0,0,0,0,0,0,
0,0,0,0,0,0,0,0,0,0,0,0,0,0,0,0,
0,0,0,0,0,0,0,0,0,0,0,0,0,0,0,0,
0,0,0,0,0,0,0,0,0,0,0,0,0,0,0,0,
0,0,0,0,0,0,0,0,0,0,0,0,0,0,0,0,
0,0,0,0,0,0,0,0,0,0,0,0,0,0,0,0,
0,0,0,0,0,0,0,0,0,0,0,0,0,0,0,0
</chunk>
   <chunk x="96" y="16" width="16" height="16">
0,0,0,0,0,0,0,0,0,0,0,0,0,0,0,0,
0,0,0,0,0,0,0,0,0,0,0,0,0,0,0,0,
0,0,0,0,0,0,0,0,0,0,0,0,0,0,0,0,
0,0,0,0,0,0,0,0,0,0,0,0,0,0,0,0,
12,12,12,12,0,0,0,0,0,0,0,0,0,0,0,0,
0,0,0,0,0,0,0,0,0,0,0,0,0,0,0,0,
0,0,0,0,0,0,0,0,0,0,0,0,0,0,0,0,
0,0,0,0,0,0,0,0,0,0,0,0,0,0,0,0,
0,0,0,0,0,0,0,0,0,0,0,0,0,0,0,0,
0,0,0,0,0,0,0,0,0,0,0,0,0,0,0,0,
0,0,0,0,0,0,0,0,0,0,0,0,0,0,0,0,
0,0,0,0,0,0,0,0,0,0,0,0,0,0,0,0,
0,0,0,0,0,0,0,0,0,0,0,0,0,0,0,0,
0,0,0,0,0,0,0,0,0,0,0,0,0,0,0,0,
0,0,0,0,0,0,0,0,0,0,0,0,0,0,0,0,
0,0,0,0,0,0,0,0,0,0,0,0,0,0,0,0
</chunk>
  </data>
 </layer>
 <layer id="2" name="temp" width="4" height="4">
  <data encoding="csv">
   <chunk x="80" y="-96" width="16" height="16">
0,0,0,0,0,0,0,0,0,0,0,0,0,0,0,0,
0,0,0,0,0,0,0,0,0,0,0,0,0,0,0,0,
0,0,0,0,0,0,0,0,0,0,0,0,0,0,0,0,
0,0,0,0,0,0,0,0,0,0,0,0,0,0,0,0,
0,0,0,0,0,0,0,0,0,0,0,0,0,0,0,0,
0,0,0,0,0,0,0,0,0,0,0,0,0,0,0,0,
0,0,0,0,0,0,0,0,0,0,0,0,0,0,0,0,
0,0,0,0,0,0,0,0,0,0,0,0,0,0,0,0,
0,0,0,0,0,0,0,0,0,0,0,0,0,0,0,0,
0,0,0,0,0,0,0,0,0,0,0,0,0,0,0,0,
0,0,0,0,0,0,0,0,0,0,0,0,0,0,0,0,
0,0,0,0,0,0,0,0,0,0,0,0,0,0,0,0,
0,0,0,0,0,0,0,0,0,0,0,0,0,0,0,0,
0,0,0,0,0,0,0,0,0,0,0,0,0,0,0,0,
0,0,0,0,0,0,0,0,0,0,0,0,0,0,0,0,
12,12,12,12,12,12,12,12,12,12,12,12,12,12,12,12
</chunk>
   <chunk x="96" y="-96" width="16" height="16">
0,0,0,0,0,0,0,0,0,0,0,0,0,0,0,0,
0,0,0,0,0,0,0,0,0,0,0,0,0,0,0,0,
0,0,0,0,0,0,0,0,0,0,0,0,0,0,0,0,
0,0,0,0,0,0,0,0,0,0,0,0,0,0,0,0,
0,0,0,0,0,0,0,0,0,0,0,0,0,0,0,0,
0,0,0,0,0,0,0,0,0,0,0,0,0,0,0,0,
0,0,0,0,0,0,0,0,0,0,0,0,0,0,0,0,
0,0,0,0,0,0,0,0,0,0,0,0,0,0,0,0,
0,0,0,0,0,0,0,0,0,0,0,0,0,0,0,0,
0,0,0,0,0,0,0,0,0,0,0,0,0,0,0,0,
0,0,0,0,0,0,0,0,0,0,0,0,0,0,0,0,
0,0,0,0,0,0,0,0,0,0,0,0,0,0,0,0,
0,0,0,0,0,0,0,0,0,0,0,0,0,0,0,0,
0,0,0,0,0,0,0,0,0,0,0,0,0,0,0,0,
0,0,0,0,0,0,0,0,0,0,0,0,0,0,0,0,
12,12,12,12,0,0,0,0,0,0,0,0,0,0,0,0
</chunk>
   <chunk x="32" y="-64" width="16" height="16">
0,0,0,0,0,0,0,0,0,0,0,0,0,0,0,0,
0,0,0,0,0,0,0,0,0,0,0,0,0,0,0,0,
0,0,0,0,0,0,0,0,0,0,0,0,0,0,0,0,
0,0,0,0,0,0,0,0,0,0,0,0,0,0,0,0,
0,0,0,0,0,0,0,0,0,0,0,0,0,0,0,0,
0,0,0,0,0,0,0,0,0,0,0,0,0,0,0,0,
0,0,0,0,0,0,0,0,0,0,0,0,0,0,0,0,
0,0,0,0,0,0,0,0,0,0,0,0,0,0,0,0,
0,0,0,0,0,0,0,0,0,0,0,0,0,0,0,0,
0,0,0,0,0,0,0,0,0,0,0,0,0,0,0,0,
0,0,0,0,0,0,0,0,0,0,0,0,0,0,0,0,
0,0,0,0,0,0,0,0,0,0,0,0,0,0,0,0,
0,0,0,0,0,0,0,0,22,23,12,12,12,12,24,25,
0,0,0,0,22,23,12,12,12,12,12,12,12,12,12,12,
0,0,0,5,12,12,12,12,12,12,12,12,12,12,12,12,
0,0,0,12,12,12,12,12,12,12,12,12,12,12,12,12
</chunk>
   <chunk x="48" y="-64" width="16" height="16">
0,0,0,0,0,0,0,0,0,0,0,0,0,0,0,0,
0,0,0,0,0,0,0,0,0,0,0,0,0,0,0,0,
0,0,0,0,0,0,0,0,0,0,0,0,0,0,0,0,
0,0,0,0,0,0,0,0,0,0,0,0,0,0,0,0,
0,0,0,0,0,0,0,0,0,0,0,0,0,0,0,0,
0,0,0,0,0,0,0,0,0,0,0,0,0,0,0,0,
0,0,0,0,0,0,0,0,0,0,0,0,0,0,0,0,
0,0,0,0,0,0,0,0,0,0,0,0,0,0,0,0,
0,0,0,0,0,0,0,0,0,0,0,0,0,0,0,0,
0,0,0,0,0,0,0,0,0,0,0,0,0,0,0,0,
0,0,0,0,0,0,0,0,0,0,0,0,0,0,0,0,
0,0,0,0,0,0,0,0,0,0,0,0,0,0,0,0,
0,0,0,0,0,0,0,0,0,0,0,0,0,0,0,0,
12,12,12,12,12,12,12,12,12,0,0,0,0,0,0,0,
12,12,12,12,12,12,12,12,12,0,0,0,0,0,0,0,
12,12,12,12,12,12,12,12,12,0,0,0,0,0,0,0
</chunk>
   <chunk x="32" y="-48" width="16" height="16">
0,0,0,12,12,12,12,12,12,12,12,12,12,12,12,12,
0,0,0,12,12,12,12,12,12,12,12,12,12,12,12,12,
0,0,0,12,12,12,12,12,12,12,12,12,12,12,12,12,
0,5,12,12,12,12,12,12,12,12,12,12,12,12,12,12,
0,12,12,12,12,12,12,12,12,12,12,12,12,12,12,12,
0,12,12,12,12,12,12,12,12,12,12,12,12,12,12,34,
0,12,12,12,12,12,12,12,12,12,12,12,12,34,35,0,
0,12,12,12,12,12,12,12,12,12,12,12,16,0,0,0,
0,12,12,12,12,12,12,12,12,12,34,35,0,0,0,0,
0,12,12,12,12,12,12,12,12,16,0,0,0,0,0,0,
12,12,12,12,12,12,12,12,16,0,0,0,0,0,0,0,
0,0,0,0,0,0,0,0,0,0,0,0,0,0,0,0,
0,0,0,0,0,0,0,0,0,0,0,0,0,0,0,0,
0,0,0,0,0,0,0,0,0,0,0,0,0,0,0,0,
0,0,0,0,0,0,0,0,0,0,0,0,0,0,0,0,
0,0,0,0,0,0,0,5,12,12,12,12,12,12,12,12
</chunk>
   <chunk x="48" y="-48" width="16" height="16">
12,12,12,12,12,12,12,12,12,0,0,0,0,0,0,0,
12,12,12,12,12,12,12,12,12,0,0,0,0,0,0,0,
12,12,12,12,12,12,12,12,12,0,0,0,0,0,0,0,
12,12,12,12,12,12,12,12,12,0,0,0,0,0,0,0,
12,34,35,0,0,0,0,0,0,0,0,0,0,0,0,0,
35,0,0,0,0,0,0,0,0,0,0,0,0,0,0,0,
0,0,0,0,0,0,0,0,0,0,0,0,0,0,0,0,
0,0,0,0,0,0,0,0,0,0,0,0,0,0,0,0,
0,0,0,0,0,0,0,0,0,0,0,0,0,0,0,0,
0,0,0,0,0,0,0,0,0,0,0,0,0,0,0,0,
0,0,0,0,0,0,0,0,0,0,0,0,0,0,0,0,
0,0,0,0,0,0,0,0,0,0,0,0,0,0,0,0,
0,0,0,0,0,0,0,0,0,0,0,0,0,0,0,0,
0,0,0,0,0,0,0,0,0,0,0,0,0,0,0,0,
0,0,0,0,0,0,0,0,0,0,0,0,0,0,0,0,
12,12,12,12,12,12,12,12,12,0,0,0,0,0,0,0
</chunk>
   <chunk x="16" y="-32" width="16" height="16">
0,0,0,0,0,0,0,0,0,0,0,0,0,0,0,0,
0,0,0,0,0,0,0,0,0,0,0,0,0,0,0,0,
0,0,0,0,0,0,0,0,0,0,0,0,0,0,0,0,
0,0,0,0,0,0,0,0,0,0,0,0,0,0,0,0,
0,0,0,0,0,0,0,0,0,0,0,0,0,0,0,0,
0,0,0,0,0,0,0,0,0,0,0,0,0,0,0,0,
0,0,0,0,0,0,0,0,0,0,0,0,0,0,0,0,
0,0,0,0,0,0,0,0,0,0,0,0,0,0,0,5,
0,0,0,0,0,0,0,0,0,0,0,0,0,0,5,12,
0,0,0,0,0,0,0,0,0,0,0,0,0,5,12,12,
0,0,0,0,0,0,0,0,0,0,0,0,5,12,12,12,
0,0,0,0,0,0,0,0,0,0,0,5,12,12,12,12,
0,0,0,0,0,0,0,0,0,0,5,12,12,12,12,12,
0,0,0,0,0,0,0,0,0,5,12,12,12,12,12,12,
0,0,0,0,0,0,0,0,5,12,12,12,12,12,12,16,
0,0,0,0,0,0,0,5,12,12,12,12,12,12,12,0
</chunk>
   <chunk x="32" y="-32" width="16" height="16">
0,0,0,0,0,0,5,12,12,12,12,12,12,12,12,12,
0,0,0,0,0,5,12,12,12,12,12,12,12,12,12,12,
0,0,0,0,5,12,12,12,12,12,12,12,12,12,12,12,
0,0,0,5,12,12,12,12,12,12,12,12,12,12,12,12,
0,0,5,12,12,12,12,12,12,12,12,12,12,12,12,12,
0,5,12,12,12,12,12,12,12,12,12,12,12,34,35,0,
5,12,12,12,12,12,12,12,12,12,12,34,35,0,0,0,
12,12,12,12,12,12,34,35,0,0,0,0,0,0,0,0,
12,12,12,12,12,16,0,0,0,0,0,0,0,0,0,0,
12,12,12,34,35,0,0,0,0,0,0,0,0,0,0,0,
12,12,16,0,0,0,0,0,0,0,0,0,0,0,0,0,
12,16,0,0,0,0,0,0,0,0,0,0,0,0,0,0,
12,0,0,0,0,0,0,0,0,0,0,0,0,0,0,0,
16,0,0,0,0,0,0,0,0,0,0,0,0,0,0,0,
0,0,0,0,0,0,0,0,0,0,0,0,0,0,0,0,
0,0,0,12,0,0,0,0,0,0,0,0,0,0,0,0
</chunk>
   <chunk x="48" y="-32" width="16" height="16">
12,12,12,12,12,12,12,12,12,0,0,0,0,0,0,0,
12,12,12,12,12,12,12,12,12,0,0,0,0,0,0,0,
12,12,12,12,12,12,12,12,12,0,0,0,0,0,0,0,
12,12,12,12,12,12,12,12,12,0,0,0,0,0,0,0,
12,12,12,12,12,12,12,12,12,0,0,0,0,0,0,0,
0,0,0,0,0,0,0,0,0,0,0,0,0,0,0,0,
0,0,0,0,0,0,0,0,0,0,0,0,0,0,0,0,
0,0,0,0,0,0,0,0,0,0,0,0,0,0,0,0,
0,0,0,0,0,0,0,0,0,0,0,0,0,0,0,0,
0,0,0,0,0,0,0,0,0,0,0,0,0,0,0,0,
0,0,0,0,0,0,0,0,0,0,0,0,0,0,0,0,
0,0,0,0,0,0,0,0,0,0,0,0,0,0,0,0,
0,0,0,0,0,0,0,0,0,0,0,0,0,0,0,0,
0,0,0,0,0,0,0,0,0,0,0,0,0,0,0,0,
0,0,0,0,0,0,0,0,0,0,0,0,0,0,0,0,
0,0,0,0,0,0,0,0,0,0,0,0,0,0,0,0
</chunk>
   <chunk x="-32" y="-16" width="16" height="16">
0,0,0,0,0,0,0,0,0,0,0,0,0,0,0,0,
0,0,0,0,0,0,0,0,0,0,0,0,0,0,0,0,
0,0,0,0,0,0,0,0,0,0,0,0,0,0,0,0,
0,0,0,0,0,0,0,0,0,0,0,0,0,0,0,0,
0,0,0,0,0,0,0,0,0,0,0,0,0,0,0,0,
0,0,0,0,0,0,0,0,0,0,0,0,0,0,0,0,
0,0,0,0,0,0,0,0,0,0,0,0,0,0,0,0,
0,0,0,0,0,0,0,0,0,0,0,0,0,0,0,0,
0,0,0,0,0,0,0,0,0,0,0,0,0,0,0,0,
0,12,12,12,12,12,24,25,0,0,0,0,0,0,0,0,
0,12,12,12,12,12,12,12,12,12,12,12,12,12,12,12,
0,12,12,12,12,12,12,12,12,12,12,12,12,12,12,12,
0,12,12,12,12,12,12,12,12,12,12,12,12,12,12,12,
0,0,32,33,12,12,12,12,12,12,12,12,12,12,12,12,
0,0,0,0,32,33,12,12,12,12,12,12,12,12,12,12,
0,0,0,0,0,0,0,0,32,33,12,12,12,12,12,12
</chunk>
   <chunk x="-16" y="-16" width="16" height="16">
0,0,0,0,0,0,0,0,0,0,0,0,0,0,0,0,
0,0,0,0,0,0,0,0,0,0,0,0,0,0,0,0,
0,0,0,0,0,0,0,0,0,0,0,0,0,0,0,0,
0,0,0,0,0,0,0,0,0,0,0,0,0,0,0,0,
0,0,0,0,0,0,0,0,0,0,0,0,0,0,0,0,
5,12,12,12,12,12,12,6,0,0,0,0,0,0,0,0,
12,12,12,12,12,12,12,12,0,0,0,0,0,0,0,0,
12,12,12,12,12,12,12,12,0,0,0,0,0,0,0,0,
12,12,12,12,12,12,12,12,0,0,0,0,0,0,5,12,
12,12,12,12,12,12,12,12,12,12,0,0,22,23,12,12,
12,12,12,12,12,12,12,12,34,35,0,5,12,12,12,12,
12,12,12,12,12,12,12,0,0,0,0,12,12,12,12,12,
12,12,12,12,12,12,12,12,0,0,0,12,12,12,12,12,
12,12,12,12,12,12,12,12,0,0,0,32,33,12,12,16,
12,12,12,12,12,12,12,0,0,0,0,0,0,0,0,0,
12,12,12,12,12,12,12,12,0,0,0,0,0,0,0,0
</chunk>
   <chunk x="0" y="-16" width="16" height="16">
0,0,0,0,0,0,0,0,0,0,0,0,0,0,0,0,
0,0,0,0,0,0,0,0,0,0,0,0,0,0,0,0,
0,0,0,0,0,0,0,0,0,0,0,0,0,0,0,0,
0,0,0,0,0,0,0,0,0,0,0,0,0,0,0,0,
0,0,0,0,0,0,0,0,0,0,0,0,0,0,0,0,
0,0,0,0,0,0,0,0,0,0,0,0,0,0,0,0,
0,0,0,0,0,0,0,0,0,0,0,0,0,0,0,0,
0,0,0,0,0,0,0,0,0,0,0,0,0,0,0,5,
12,12,12,0,0,0,0,0,0,0,0,0,0,0,5,12,
12,12,12,0,0,0,0,0,0,0,0,0,0,5,12,12,
12,12,16,0,0,0,0,0,0,0,0,0,5,12,12,12,
12,16,0,0,0,0,0,0,0,0,0,5,12,12,12,12,
16,0,0,0,0,0,0,0,0,0,5,12,12,12,12,12,
0,0,0,0,0,0,0,0,0,5,12,12,12,12,12,12,
0,0,0,0,0,0,0,0,5,12,12,12,12,12,12,12,
0,0,0,0,0,0,22,23,12,12,12,12,12,12,12,12
</chunk>
   <chunk x="16" y="-16" width="16" height="16">
0,0,0,0,0,0,5,12,12,12,12,12,12,12,0,0,
0,0,0,0,0,5,12,12,12,12,12,12,12,12,12,12,
0,0,0,0,5,12,12,12,12,12,12,12,12,12,12,12,
0,0,0,5,12,12,12,12,12,12,12,12,12,12,12,12,
0,0,5,12,12,12,12,12,12,12,12,12,12,12,12,12,
0,5,12,12,12,12,12,12,12,12,12,12,12,12,12,16,
5,12,12,12,12,12,12,12,12,12,12,12,12,12,16,0,
12,12,12,12,12,12,12,12,12,12,12,12,12,16,0,0,
12,12,12,12,12,12,12,12,12,12,12,12,16,0,0,0,
12,12,12,12,12,12,12,12,12,12,12,12,0,0,0,0,
12,12,12,12,12,12,12,12,12,12,12,16,0,0,0,0,
12,12,12,12,12,12,12,12,12,12,12,0,0,0,0,0,
12,12,12,12,12,12,12,12,12,12,16,0,0,0,0,0,
12,12,12,12,12,12,12,12,12,16,0,0,0,0,0,0,
12,12,12,12,12,12,12,12,16,0,0,0,0,0,0,0,
12,12,12,12,12,12,12,16,0,0,0,0,0,0,0,0
</chunk>
   <chunk x="32" y="-16" width="16" height="16">
0,0,0,12,0,0,0,0,0,0,0,0,0,0,0,0,
0,0,0,12,0,0,0,0,0,0,0,0,0,0,0,0,
0,0,0,12,0,0,0,0,0,0,0,0,0,0,0,0,
0,0,0,12,0,0,0,0,0,0,0,0,0,0,0,0,
0,0,0,12,0,0,0,0,0,0,0,0,0,0,0,0,
0,0,0,0,0,0,0,0,0,0,0,0,0,0,0,0,
0,0,0,0,0,0,0,0,0,0,0,0,0,0,0,0,
0,0,0,0,0,0,0,0,0,0,0,0,0,0,0,0,
0,0,0,0,0,0,0,0,0,0,0,0,0,0,0,0,
0,0,0,0,0,0,0,0,0,0,0,0,0,0,0,0,
0,0,0,0,0,0,0,0,0,0,0,0,0,0,0,0,
0,0,0,0,0,0,0,0,0,0,0,0,0,0,0,0,
0,0,0,0,0,0,0,0,0,0,0,0,0,0,0,0,
0,0,0,0,0,0,0,0,0,0,0,0,0,0,0,0,
0,0,0,0,0,0,0,0,0,0,0,0,0,0,0,0,
0,0,0,0,0,0,0,0,0,0,0,0,0,0,0,0
</chunk>
   <chunk x="-48" y="0" width="16" height="16">
0,0,0,0,0,0,0,0,0,0,0,0,0,0,0,0,
0,0,0,0,0,0,0,0,0,0,0,0,0,0,0,0,
0,0,0,0,0,0,0,0,0,0,0,0,0,0,0,0,
0,0,0,0,0,0,0,0,0,0,0,0,0,0,0,0,
0,0,0,0,0,0,0,0,0,0,0,0,0,0,0,0,
0,0,0,0,0,0,0,0,0,0,0,0,0,0,0,0,
0,0,0,0,0,0,0,0,0,0,0,0,0,0,0,0,
0,0,0,0,0,0,0,0,0,0,0,0,0,0,0,0,
0,0,0,0,0,0,0,0,0,0,0,0,0,0,0,0,
0,0,0,0,0,0,0,0,0,0,0,0,0,0,0,0,
0,0,0,0,0,0,0,12,12,24,25,0,0,0,0,0,
0,0,0,0,0,0,0,15,12,12,12,12,12,24,25,0,
0,0,0,0,0,0,0,0,0,0,32,33,12,12,12,12,
0,0,0,0,0,0,0,0,0,0,0,0,0,0,0,0,
0,0,0,0,0,0,0,0,0,0,0,0,0,0,0,0,
0,0,0,0,0,0,0,0,0,0,0,0,0,0,0,0
</chunk>
   <chunk x="-32" y="0" width="16" height="16">
0,0,0,0,0,0,0,0,0,0,0,32,33,12,12,12,
0,0,0,0,0,0,0,0,0,0,0,0,0,32,33,12,
0,0,0,0,0,0,0,0,0,0,0,0,0,0,0,15,
0,0,0,0,0,0,0,0,0,0,0,0,0,0,0,0,
0,0,0,0,0,0,0,0,0,0,0,0,0,0,0,0,
0,0,0,0,0,0,0,0,0,0,0,0,0,0,0,0,
0,0,0,0,0,0,0,0,0,0,0,0,0,0,0,0,
0,0,0,0,0,0,0,0,0,0,0,0,0,0,0,0,
0,0,0,0,0,0,0,0,0,0,0,0,0,0,0,0,
0,0,0,0,0,0,0,0,0,0,0,0,0,0,0,0,
0,0,0,0,0,0,0,0,0,0,0,0,0,0,0,0,
0,0,0,22,23,12,12,12,12,12,12,12,12,0,0,0,
12,12,12,12,12,12,34,35,0,0,0,0,0,0,0,0,
0,0,0,0,0,0,0,0,0,0,0,0,0,0,0,0,
0,0,0,0,0,0,0,0,0,0,0,0,0,0,0,0,
0,0,0,0,0,0,0,0,0,0,0,0,0,0,0,0
</chunk>
   <chunk x="-16" y="0" width="16" height="16">
12,12,12,12,12,12,12,12,0,0,0,0,0,0,0,0,
12,12,12,12,12,12,12,0,0,0,0,0,0,0,0,0,
12,12,12,12,12,12,12,12,0,0,0,0,0,0,0,0,
12,12,12,12,12,12,12,12,0,0,0,0,0,0,0,0,
12,12,12,12,12,12,12,12,12,12,12,12,12,12,12,12,
12,12,12,12,12,12,12,12,12,12,12,12,12,12,12,12,
12,12,12,12,12,12,12,12,12,12,12,12,12,12,12,12,
12,12,12,12,12,12,12,12,12,12,12,12,12,12,12,12,
12,12,12,12,12,12,12,12,12,12,12,12,12,12,12,12,
12,12,12,12,12,12,12,12,12,12,12,12,12,12,12,12,
12,12,12,12,12,12,12,12,12,12,12,12,12,12,12,12,
12,12,12,12,12,12,12,12,12,12,12,12,12,12,12,12,
0,0,0,0,0,0,0,0,0,0,0,0,0,32,33,12,
0,0,0,0,0,0,0,0,0,0,0,0,0,0,0,0,
0,0,0,0,0,0,0,0,0,0,0,0,0,0,0,0,
0,0,0,0,0,0,0,0,0,0,0,0,0,0,0,0
</chunk>
   <chunk x="0" y="0" width="16" height="16">
0,0,0,0,0,0,12,12,12,12,12,12,12,12,12,12,
0,0,0,0,0,0,12,12,12,12,12,12,12,12,12,12,
0,0,0,0,5,12,12,12,12,12,12,12,12,12,12,12,
0,0,22,23,12,12,12,12,12,12,12,12,12,12,12,12,
12,12,12,12,12,12,12,12,12,12,12,12,12,12,12,12,
12,12,12,12,12,12,12,12,12,12,12,12,12,12,12,34,
12,12,12,12,12,12,12,12,12,12,12,12,12,12,16,0,
12,12,12,12,12,12,12,12,12,12,12,12,12,12,0,0,
12,12,12,12,12,12,12,12,12,12,12,12,12,12,0,0,
12,12,12,12,12,12,12,12,12,12,12,12,12,12,0,0,
12,12,12,12,12,12,12,12,12,12,12,12,12,16,0,0,
12,12,12,12,12,12,34,35,0,0,0,0,0,0,0,0,
34,35,0,0,0,0,0,0,0,0,0,0,0,0,0,0,
0,0,0,0,0,0,0,0,0,0,0,0,0,0,0,0,
0,0,0,0,0,0,0,0,0,0,0,0,0,0,0,0,
0,0,0,0,0,0,0,0,0,0,0,0,0,0,0,0
</chunk>
   <chunk x="16" y="0" width="16" height="16">
12,12,12,12,12,12,16,0,0,0,0,0,0,0,0,0,
12,12,12,12,12,16,0,0,0,0,0,0,0,0,0,0,
12,12,12,12,16,0,0,0,0,0,0,0,0,0,0,0,
12,12,34,35,0,0,0,0,0,0,0,0,0,0,0,0,
12,16,0,0,0,0,0,0,0,0,0,0,0,0,0,0,
35,0,0,0,0,0,0,0,0,0,0,0,0,0,0,0,
0,0,0,0,0,0,0,0,0,0,0,0,0,0,0,0,
0,0,0,0,0,0,0,0,0,0,0,0,0,0,0,0,
0,0,0,0,0,0,0,0,0,0,0,0,0,0,0,0,
0,0,0,0,0,0,0,0,0,0,0,0,0,0,0,0,
0,0,0,0,0,0,0,0,0,0,0,0,0,0,0,0,
0,0,0,0,0,0,0,0,0,0,0,0,0,0,0,0,
0,0,0,0,0,0,0,0,0,0,0,0,0,0,0,0,
0,0,0,0,0,0,0,0,0,0,0,0,0,0,0,0,
0,0,0,0,0,0,0,0,0,0,0,0,0,0,0,0,
0,0,0,0,0,0,0,0,0,0,0,0,0,0,0,0
</chunk>
   <chunk x="32" y="0" width="16" height="16">
0,0,0,0,0,0,12,12,12,12,12,12,12,12,12,12,
0,0,0,0,0,0,0,0,0,0,0,0,0,0,0,0,
0,0,0,0,0,0,0,0,0,0,0,0,0,0,0,0,
0,0,0,0,0,0,0,0,0,0,0,0,0,0,0,0,
0,0,0,0,0,0,0,0,0,0,0,0,0,0,0,0,
0,0,0,0,0,0,0,0,0,0,0,0,0,0,0,0,
0,0,0,0,0,0,0,0,0,0,0,0,0,0,0,0,
0,0,0,0,0,0,0,0,0,0,0,0,0,0,0,0,
0,0,0,0,0,0,0,0,0,0,0,0,0,0,0,0,
0,0,0,0,0,0,0,0,0,0,0,0,0,0,0,0,
0,0,0,0,0,0,0,0,0,0,0,0,0,0,0,0,
0,0,0,0,0,0,0,0,0,0,0,0,0,0,0,0,
0,0,0,0,0,0,0,0,0,0,0,0,0,0,0,0,
0,0,0,0,0,0,0,0,0,0,0,0,0,0,0,0,
0,0,0,0,0,0,0,0,0,0,0,0,0,0,0,0,
0,0,0,0,0,0,0,0,0,0,0,0,0,0,0,0
</chunk>
   <chunk x="48" y="0" width="16" height="16">
12,12,12,12,12,12,12,12,12,12,12,0,0,0,0,0,
0,0,0,0,0,0,0,0,0,0,0,0,0,0,0,0,
0,0,0,0,0,0,0,0,0,0,0,0,0,0,0,0,
0,0,0,0,0,0,0,0,0,0,0,0,0,0,0,0,
0,0,0,0,0,0,0,0,0,0,0,0,0,0,0,0,
0,0,0,0,0,0,0,0,0,0,0,0,0,0,0,0,
0,0,0,0,0,0,0,0,0,0,0,0,0,0,0,0,
0,0,0,0,0,0,0,0,0,0,0,0,0,0,0,0,
0,0,0,0,0,0,0,0,0,0,0,0,0,0,0,0,
0,0,0,0,0,0,0,0,0,0,0,0,0,0,0,0,
0,0,0,0,0,0,0,0,0,0,0,0,0,0,0,0,
0,0,0,0,0,0,0,0,0,0,0,0,0,0,0,0,
0,0,0,0,0,0,0,0,0,0,0,0,0,0,0,0,
0,0,0,0,0,0,0,0,0,0,0,0,0,0,0,0,
0,0,0,0,0,0,0,0,0,0,0,0,0,0,0,0,
0,0,0,0,0,0,0,0,0,0,0,0,0,0,0,0
</chunk>
   <chunk x="80" y="16" width="16" height="16">
0,0,0,0,0,0,0,0,0,0,0,0,0,0,0,0,
0,0,0,0,0,0,0,0,0,0,0,0,0,0,0,0,
0,0,0,0,0,0,0,0,0,0,0,0,0,0,0,0,
0,0,0,0,0,0,0,0,0,0,0,0,0,0,0,0,
0,12,12,12,12,12,12,12,12,12,12,12,12,12,12,12,
0,0,0,0,0,0,0,0,0,0,0,0,0,0,0,0,
0,0,0,0,0,0,0,0,0,0,0,0,0,0,0,0,
0,0,0,0,0,0,0,0,0,0,0,0,0,0,0,0,
0,0,0,0,0,0,0,0,0,0,0,0,0,0,0,0,
0,0,0,0,0,0,0,0,0,0,0,0,0,0,0,0,
0,0,0,0,0,0,0,0,0,0,0,0,0,0,0,0,
0,0,0,0,0,0,0,0,0,0,0,0,0,0,0,0,
0,0,0,0,0,0,0,0,0,0,0,0,0,0,0,0,
0,0,0,0,0,0,0,0,0,0,0,0,0,0,0,0,
0,0,0,0,0,0,0,0,0,0,0,0,0,0,0,0,
0,0,0,0,0,0,0,0,0,0,0,0,0,0,0,0
</chunk>
   <chunk x="96" y="16" width="16" height="16">
0,0,0,0,0,0,0,0,0,0,0,0,0,0,0,0,
0,0,0,0,0,0,0,0,0,0,0,0,0,0,0,0,
0,0,0,0,0,0,0,0,0,0,0,0,0,0,0,0,
0,0,0,0,0,0,0,0,0,0,0,0,0,0,0,0,
12,12,12,12,0,0,0,0,0,0,0,0,0,0,0,0,
0,0,0,0,0,0,0,0,0,0,0,0,0,0,0,0,
0,0,0,0,0,0,0,0,0,0,0,0,0,0,0,0,
0,0,0,0,0,0,0,0,0,0,0,0,0,0,0,0,
0,0,0,0,0,0,0,0,0,0,0,0,0,0,0,0,
0,0,0,0,0,0,0,0,0,0,0,0,0,0,0,0,
0,0,0,0,0,0,0,0,0,0,0,0,0,0,0,0,
0,0,0,0,0,0,0,0,0,0,0,0,0,0,0,0,
0,0,0,0,0,0,0,0,0,0,0,0,0,0,0,0,
0,0,0,0,0,0,0,0,0,0,0,0,0,0,0,0,
0,0,0,0,0,0,0,0,0,0,0,0,0,0,0,0,
0,0,0,0,0,0,0,0,0,0,0,0,0,0,0,0
</chunk>
  </data>
 </layer>
 <layer id="3" name="ground" width="4" height="4">
  <data encoding="csv">
   <chunk x="64" y="-96" width="16" height="16">
0,0,0,0,0,0,0,0,0,0,0,0,0,0,0,0,
0,0,0,0,0,0,0,0,0,0,0,0,0,0,0,0,
0,0,0,0,0,0,0,0,0,0,0,0,0,0,0,0,
0,0,0,0,0,0,0,0,0,0,0,0,0,0,0,0,
0,0,0,0,0,0,0,0,0,0,0,0,0,0,0,0,
0,0,0,0,0,0,0,0,0,0,0,0,0,0,0,0,
0,0,0,0,0,0,0,0,0,0,0,0,0,0,0,0,
0,0,0,0,0,0,0,0,0,0,0,0,0,0,0,0,
0,0,0,0,0,0,0,0,0,0,0,0,0,0,0,0,
0,0,0,0,0,0,0,0,0,0,0,0,0,0,0,0,
0,0,0,0,0,0,0,0,0,0,0,0,0,0,0,0,
0,0,0,0,0,0,0,0,0,0,0,0,0,0,0,0,
0,0,0,0,0,0,0,0,0,0,0,0,0,0,0,0,
0,0,0,0,0,0,0,0,0,0,0,0,0,0,0,0,
0,0,0,0,0,0,0,0,0,0,0,0,0,0,0,511,
0,0,0,0,0,0,0,0,0,0,0,0,0,0,0,531
</chunk>
   <chunk x="80" y="-96" width="16" height="16">
0,0,0,0,0,0,0,0,0,0,0,0,0,0,0,0,
0,0,0,0,0,0,0,0,0,0,0,0,0,0,0,0,
0,0,0,0,0,0,0,0,0,0,0,0,0,0,0,0,
0,0,0,0,0,0,0,0,0,0,0,0,0,0,0,0,
0,0,0,0,0,0,0,0,0,0,0,0,0,0,0,0,
0,0,0,0,0,0,0,0,0,0,0,0,0,0,0,0,
0,0,0,0,0,0,0,0,0,0,0,0,0,0,0,0,
0,0,0,0,0,0,0,0,0,0,0,0,0,0,0,0,
0,0,0,0,0,0,0,0,0,0,0,0,0,0,0,0,
0,0,0,0,0,0,0,0,0,0,0,0,0,0,0,0,
0,0,0,0,0,0,0,0,0,0,0,0,0,0,0,0,
0,0,0,0,0,0,0,0,0,0,0,0,0,0,0,0,
0,0,0,0,0,0,0,0,0,0,0,0,0,0,0,0,
0,0,0,0,0,0,0,0,0,0,0,0,0,0,0,0,
512,513,513,513,513,513,513,513,513,513,513,513,513,513,513,513,
532,533,533,533,533,533,533,533,533,533,533,533,533,533,533,533
</chunk>
   <chunk x="96" y="-96" width="16" height="16">
0,0,0,0,0,0,0,0,0,0,0,0,0,0,0,0,
0,0,0,0,0,0,0,0,0,0,0,0,0,0,0,0,
0,0,0,0,0,0,0,0,0,0,0,0,0,0,0,0,
0,0,0,0,0,0,0,0,0,0,0,0,0,0,0,0,
0,0,0,0,0,0,0,0,0,0,0,0,0,0,0,0,
0,0,0,0,0,0,0,0,0,0,0,0,0,0,0,0,
0,0,0,0,0,0,0,0,0,0,0,0,0,0,0,0,
0,0,0,0,0,0,0,0,0,0,0,0,0,0,0,0,
0,0,0,0,0,0,0,0,0,0,0,0,0,0,0,0,
0,0,0,0,0,0,0,0,0,0,0,0,0,0,0,0,
0,0,0,0,0,0,0,0,0,0,0,0,0,0,0,0,
0,0,0,0,0,0,0,0,0,0,0,0,0,0,0,0,
0,0,0,0,0,0,0,0,0,0,0,0,0,0,0,0,
0,0,0,0,0,0,0,0,0,0,0,0,0,0,0,0,
513,513,517,518,519,0,0,0,0,0,0,0,0,0,0,0,
533,533,537,538,539,0,0,0,0,0,0,0,0,0,0,0
</chunk>
   <chunk x="64" y="-80" width="16" height="16">
0,0,0,0,0,0,0,0,0,0,0,0,0,0,0,551,
0,0,0,0,0,0,0,0,0,0,0,0,0,0,0,0,
0,0,0,0,0,0,0,0,0,0,0,0,0,0,0,0,
0,0,0,0,0,0,0,0,0,0,0,0,0,0,0,0,
0,0,0,0,0,0,0,0,0,0,0,0,0,0,0,0,
0,0,0,0,0,0,0,0,0,0,0,0,0,0,0,0,
0,0,0,0,0,0,0,0,0,0,0,0,0,0,0,0,
0,0,0,0,0,0,0,0,0,0,0,0,0,0,0,0,
0,0,0,0,0,0,0,0,0,0,0,0,0,0,0,0,
0,0,0,0,0,0,0,0,0,0,0,0,0,0,0,0,
0,0,0,0,0,0,0,0,0,0,0,0,0,0,0,0,
0,0,0,0,0,0,0,0,0,0,0,0,0,0,0,0,
0,0,0,0,0,0,0,0,0,0,0,0,0,0,0,0,
0,0,0,0,0,0,0,0,0,0,0,0,0,0,0,0,
0,0,0,0,0,0,0,0,0,0,0,0,0,0,0,0,
0,0,0,0,0,0,0,0,0,0,0,0,0,0,0,0
</chunk>
   <chunk x="80" y="-80" width="16" height="16">
552,553,553,553,553,553,553,553,553,553,553,553,553,553,553,553,
0,0,0,0,0,0,0,0,0,0,0,0,0,0,0,0,
0,0,0,0,0,0,0,0,0,0,0,0,0,0,0,0,
0,0,0,0,0,0,0,0,0,0,0,0,0,0,0,0,
0,0,0,0,0,0,0,0,0,0,0,0,0,0,0,0,
0,0,0,0,0,0,0,0,0,0,0,0,0,0,0,0,
0,0,0,0,0,0,0,0,0,0,0,0,0,0,0,0,
0,0,0,0,0,0,0,0,0,0,0,0,0,0,0,0,
0,0,0,0,0,0,0,0,0,0,0,0,0,0,0,0,
0,0,0,0,0,0,0,0,0,0,0,0,0,0,0,0,
0,0,0,0,0,0,0,0,0,0,0,0,0,0,0,0,
0,0,0,0,0,0,0,0,0,0,0,0,0,0,0,0,
0,0,0,0,0,0,0,0,0,0,0,0,0,0,0,0,
0,0,0,0,0,0,0,0,0,0,0,0,0,0,0,0,
0,0,0,0,0,0,0,0,0,0,0,0,0,0,0,0,
0,0,0,0,0,0,0,0,0,0,0,0,0,0,0,0
</chunk>
   <chunk x="96" y="-80" width="16" height="16">
553,553,557,558,559,0,0,0,0,0,0,0,0,0,0,0,
0,0,0,0,0,0,0,0,0,0,0,0,0,0,0,0,
0,0,0,0,0,0,0,0,0,0,0,0,0,0,0,0,
0,0,0,0,0,0,0,0,0,0,0,0,0,0,0,0,
0,0,0,0,0,0,0,0,0,0,0,0,0,0,0,0,
0,0,0,0,0,0,0,0,0,0,0,0,0,0,0,0,
0,0,0,0,0,0,0,0,0,0,0,0,0,0,0,0,
0,0,0,0,0,0,0,0,0,0,0,0,0,0,0,0,
0,0,0,0,0,0,0,0,0,0,0,0,0,0,0,0,
0,0,0,0,0,0,0,0,0,0,0,0,0,0,0,0,
0,0,0,0,0,0,0,0,0,0,0,0,0,0,0,0,
0,0,0,0,0,0,0,0,0,0,0,0,0,0,0,0,
0,0,0,0,0,0,0,0,0,0,0,0,0,0,0,0,
0,0,0,0,0,0,0,0,0,0,0,0,0,0,0,0,
0,0,0,0,0,0,0,0,0,0,0,0,0,0,0,0,
0,0,0,0,0,0,0,0,0,0,0,0,0,0,0,0
</chunk>
   <chunk x="32" y="-64" width="16" height="16">
0,0,0,0,0,0,0,0,0,0,0,0,0,0,0,0,
0,0,0,0,0,0,0,0,0,0,0,0,0,0,0,0,
0,0,0,0,0,0,0,0,0,0,0,0,0,0,0,0,
0,0,0,0,0,0,0,0,0,0,0,0,0,0,0,0,
0,0,0,0,0,0,0,0,0,0,0,0,0,0,0,0,
0,0,0,0,0,0,0,0,0,0,0,0,0,0,0,0,
0,0,0,0,0,0,0,0,0,0,0,0,0,0,0,0,
0,0,0,0,0,0,0,0,0,0,0,0,0,0,0,0,
0,0,0,0,0,0,0,0,0,0,0,0,0,0,0,0,
0,0,0,0,0,0,0,0,0,0,0,0,0,0,0,0,
0,0,0,0,0,0,0,0,0,0,0,0,0,0,0,0,
0,0,0,0,0,0,0,0,0,338,95,95,95,95,339,340,
0,0,0,0,0,338,95,95,357,358,115,115,115,115,359,360,
0,0,0,333,357,358,115,115,377,378,504,504,504,504,379,380,
0,0,352,353,377,378,504,504,630,630,630,244,244,630,629,629,
0,0,372,373,523,630,630,244,244,244,227,155,155,221,244,244
</chunk>
   <chunk x="48" y="-64" width="16" height="16">
0,0,0,0,0,0,0,0,0,0,0,0,0,0,0,0,
0,0,0,0,0,0,0,0,0,0,0,0,0,0,0,0,
0,0,0,0,0,0,0,0,0,0,0,0,0,0,0,0,
0,0,0,0,0,0,0,0,0,0,0,0,0,0,0,0,
0,0,0,0,0,0,0,0,0,0,0,0,0,0,0,0,
0,0,0,0,0,0,0,0,0,0,0,0,0,0,0,0,
0,0,0,0,0,0,0,0,0,0,0,0,0,0,0,0,
0,0,0,0,0,0,0,0,0,0,0,0,0,0,0,0,
0,0,0,0,0,0,0,0,0,0,0,0,0,0,0,0,
0,0,0,0,0,0,0,0,0,0,0,0,0,0,0,0,
0,0,0,0,0,0,0,0,0,0,0,0,0,0,0,0,
0,0,0,0,0,0,0,0,0,0,0,0,0,0,0,0,
95,95,95,95,95,95,95,96,97,98,0,0,0,0,0,0,
115,115,115,115,115,115,115,116,117,118,0,0,0,0,0,0,
504,504,504,504,504,504,504,136,137,138,0,0,0,0,0,0,
244,244,244,244,244,244,628,525,157,158,0,0,0,0,0,0
</chunk>
   <chunk x="16" y="-48" width="16" height="16">
0,0,0,0,0,0,0,0,0,0,0,0,0,0,0,0,
0,0,0,0,0,0,0,0,0,0,0,0,0,0,0,0,
0,0,0,0,0,0,0,0,0,0,0,0,0,0,0,0,
0,0,0,0,0,0,0,0,0,0,0,0,0,0,0,0,
0,0,0,0,0,0,0,0,0,0,0,0,0,0,0,0,
0,0,0,0,0,0,0,0,0,0,0,0,0,0,0,0,
0,0,0,0,0,0,0,0,0,0,0,0,0,0,0,0,
0,0,0,0,0,0,0,0,0,0,0,0,0,0,0,0,
0,0,0,0,0,0,0,0,0,0,0,0,0,0,0,0,
0,0,0,0,0,0,0,0,0,0,0,0,0,0,0,511,
0,0,0,0,0,0,0,0,0,0,0,0,0,0,0,531,
0,0,0,0,0,0,0,0,0,0,0,0,0,0,0,551,
0,0,0,0,0,0,0,0,0,0,0,0,0,0,0,0,
0,0,0,0,0,0,0,0,0,0,0,0,0,0,0,0,
0,0,0,0,0,0,0,0,0,0,0,0,0,0,0,0,
0,0,0,0,0,0,0,0,0,0,0,0,0,0,0,0
</chunk>
   <chunk x="32" y="-48" width="16" height="16">
0,0,152,153,523,629,227,155,155,155,155,155,155,155,155,155,
0,0,152,153,523,167,155,155,155,155,155,155,155,155,155,155,
0,333,185,186,523,167,155,155,155,155,155,155,155,155,155,101,
352,353,114,206,567,227,155,155,155,155,155,155,155,101,104,628,
132,133,134,586,227,155,155,155,155,155,155,155,101,627,628,630,
152,153,523,167,155,155,155,155,155,155,101,104,629,629,439,399,
152,153,523,167,155,155,155,155,155,101,629,628,439,399,400,419,
152,153,523,167,155,155,155,155,101,630,164,439,394,419,0,0,
152,153,523,629,104,104,104,104,630,439,399,400,414,0,0,0,
512,186,523,628,628,627,628,630,415,394,419,0,0,0,0,0,
532,206,195,195,195,195,195,195,394,395,0,0,0,0,0,0,
552,215,215,215,215,215,215,215,414,0,0,0,0,0,0,0,
0,0,0,0,0,0,0,0,0,0,0,0,0,0,0,0,
0,0,0,0,0,0,0,0,0,0,0,0,0,0,0,0,
0,0,0,0,0,0,0,333,94,95,95,95,95,95,95,95,
0,0,0,0,0,0,333,353,114,115,115,115,115,115,115,115
</chunk>
   <chunk x="48" y="-48" width="16" height="16">
155,155,155,155,155,155,161,525,157,158,0,0,0,0,0,0,
155,101,104,104,104,104,629,525,157,158,0,0,0,0,0,0,
104,630,627,628,627,164,630,176,177,178,0,0,0,0,0,0,
627,630,439,195,195,195,195,196,197,198,0,0,0,0,0,0,
439,399,400,215,215,215,215,216,217,218,0,0,0,0,0,0,
400,419,0,0,0,0,0,0,0,0,0,0,0,0,0,0,
0,0,0,0,0,0,0,0,0,0,0,0,0,0,0,0,
0,0,0,0,0,0,0,0,0,0,0,0,0,0,0,0,
0,0,0,0,0,0,0,0,0,0,0,0,0,0,0,0,
0,0,0,0,0,0,0,0,0,0,0,0,0,0,0,0,
0,0,0,0,0,0,0,0,0,0,0,0,0,0,0,0,
0,0,0,0,0,0,0,0,0,0,0,0,0,0,0,0,
0,0,0,0,0,0,0,0,0,0,0,0,0,0,0,0,
0,0,0,0,0,0,0,0,0,0,0,0,0,0,0,0,
95,95,95,95,95,95,95,96,97,98,0,0,0,0,0,0,
115,115,115,115,115,115,115,116,117,118,0,0,0,0,0,0
</chunk>
   <chunk x="16" y="-32" width="16" height="16">
0,0,0,0,0,0,0,0,0,0,0,0,0,0,0,0,
0,0,0,0,0,0,0,0,0,0,0,0,0,0,0,0,
0,0,0,0,0,0,0,0,0,0,0,0,0,0,0,0,
0,0,0,0,0,0,0,0,0,0,0,0,0,0,0,0,
0,0,0,0,0,0,0,0,0,0,0,0,0,0,0,0,
0,0,0,0,0,0,0,0,0,0,0,0,0,0,0,0,
0,0,0,0,0,0,0,0,0,0,0,0,0,0,0,333,
0,0,0,0,0,0,0,0,0,0,0,0,0,0,333,353,
0,0,0,0,0,0,0,0,0,0,0,0,0,333,353,373,
0,0,0,0,0,0,0,0,0,0,0,0,333,353,373,164,
0,0,0,0,0,0,0,0,0,0,0,333,353,373,628,629,
0,0,0,0,0,0,0,0,0,0,333,353,373,627,164,630,
0,0,0,0,0,0,0,0,0,333,353,373,629,630,629,525,
0,0,0,0,0,0,0,0,333,353,373,628,164,628,628,415,
0,0,0,0,0,0,0,333,353,373,630,630,630,628,415,394,
0,0,0,0,0,0,333,353,373,164,164,629,630,122,123,198
</chunk>
   <chunk x="32" y="-32" width="16" height="16">
0,0,0,0,0,333,353,373,134,504,504,504,504,504,504,504,
0,0,0,0,333,353,373,627,630,244,244,244,244,630,630,628,
0,0,0,333,353,373,630,627,227,155,155,155,155,161,164,628,
0,0,333,353,373,629,628,167,155,155,155,101,104,628,628,628,
0,333,353,373,164,629,164,628,104,104,104,164,164,627,439,195,
333,353,373,629,630,630,629,164,164,628,630,628,439,399,400,215,
353,373,629,164,628,630,164,439,195,195,195,399,400,419,0,0,
373,628,629,164,627,439,399,400,215,215,215,419,0,0,0,0,
164,164,164,627,439,394,419,0,0,0,0,0,0,0,0,0,
629,628,439,399,400,414,0,0,0,0,0,0,0,0,0,0,
629,415,394,419,0,0,0,0,0,0,0,0,0,0,0,0,
415,394,395,0,0,0,0,0,0,0,0,0,0,0,0,0,
157,158,0,0,0,0,0,0,0,0,0,0,0,0,0,0,
394,395,0,0,0,0,0,0,0,0,0,0,0,0,0,0,
395,0,454,455,456,0,0,0,0,0,0,0,0,0,0,0,
0,0,474,475,476,0,0,0,0,0,0,0,0,0,0,0
</chunk>
   <chunk x="48" y="-32" width="16" height="16">
504,504,504,504,504,504,504,136,137,138,0,0,0,0,0,0,
627,628,164,628,629,164,627,525,157,158,0,0,0,0,0,0,
627,627,164,629,627,627,629,525,157,158,0,0,0,0,0,0,
630,628,164,630,629,627,630,176,177,178,0,0,0,0,0,0,
195,195,195,195,195,195,195,196,197,198,0,0,0,0,0,0,
215,215,215,215,215,215,215,216,217,218,0,0,0,0,0,0,
0,0,0,0,0,0,0,0,0,0,0,0,0,0,0,0,
0,0,0,0,0,0,0,0,0,0,0,0,0,0,0,0,
0,0,0,0,0,0,0,0,0,0,0,0,0,0,0,0,
0,0,0,0,0,0,0,0,0,0,0,0,0,0,0,0,
0,0,0,0,0,0,0,0,0,0,0,0,0,0,0,0,
0,0,0,0,0,0,0,0,0,0,0,0,0,0,0,0,
0,0,0,0,0,0,0,0,0,0,0,0,0,0,0,0,
0,0,0,0,0,0,0,0,0,0,0,0,0,0,0,0,
0,0,0,0,0,0,0,0,0,0,0,0,0,0,0,0,
0,0,0,0,0,0,0,0,0,0,0,0,0,0,0,0
</chunk>
   <chunk x="-32" y="-16" width="16" height="16">
0,0,0,0,0,0,0,0,0,0,0,0,0,0,0,0,
0,0,0,0,0,0,0,0,0,0,0,0,0,0,0,0,
0,0,0,0,0,0,0,0,0,0,0,0,0,0,0,0,
0,0,0,0,0,0,0,0,0,0,0,0,0,0,0,0,
0,0,0,0,0,0,0,0,0,0,0,0,0,0,0,0,
0,0,0,0,0,0,0,0,0,0,0,0,0,0,0,352,
0,0,0,0,0,0,0,0,0,0,0,0,0,0,0,132,
0,0,0,0,0,0,0,0,0,0,0,0,0,0,0,152,
92,93,94,95,95,95,339,340,0,0,0,0,0,0,0,152,
112,113,114,115,115,115,359,360,95,95,95,95,95,95,95,185,
132,133,134,504,504,504,379,380,115,115,115,115,115,115,115,205,
152,153,523,628,627,629,629,629,504,504,504,504,504,504,504,504,
192,193,438,630,628,627,164,630,628,628,629,628,164,244,244,244,
212,213,397,398,438,629,627,628,627,629,164,630,167,155,155,155,
0,0,0,418,397,398,195,195,438,628,627,630,629,104,107,155,
0,0,0,0,0,418,215,215,397,398,195,438,164,627,628,107
</chunk>
   <chunk x="-16" y="-16" width="16" height="16">
0,0,0,0,0,0,0,0,0,0,0,0,0,0,0,0,
0,0,0,0,0,0,0,0,0,0,0,0,0,0,0,0,
0,0,0,0,0,0,0,0,0,0,0,0,0,0,0,0,
0,0,0,0,0,0,0,0,0,0,0,0,0,0,0,0,
333,94,95,95,95,95,96,334,337,0,0,0,0,0,0,0,
353,114,115,115,115,115,116,354,355,0,0,0,0,0,0,0,
133,134,504,504,504,504,136,137,138,0,0,0,0,0,0,0,
153,523,630,244,244,629,525,157,158,0,0,0,0,0,333,94,
153,523,167,155,155,161,525,182,183,97,98,0,0,338,353,114,
186,523,167,155,155,161,164,202,203,117,118,333,357,358,332,134,
206,567,227,155,155,161,122,123,399,400,401,353,377,378,627,629,
586,227,155,155,101,525,142,143,98,0,372,373,523,628,627,630,
227,155,155,155,221,630,202,203,118,0,152,153,523,630,629,415,
155,155,155,155,155,161,122,123,198,0,396,397,398,195,195,394,
155,155,155,155,101,525,142,143,98,0,0,0,418,215,215,414,
155,155,155,155,221,627,202,203,118,0,0,0,0,0,0,0
</chunk>
   <chunk x="0" y="-16" width="16" height="16">
0,0,0,0,0,0,0,0,0,0,0,0,0,0,0,0,
0,0,0,0,0,0,0,0,0,0,0,0,0,0,0,0,
0,0,0,0,0,0,0,0,0,0,0,0,0,0,0,0,
0,0,0,0,0,0,0,0,0,0,0,0,0,0,0,0,
0,0,0,0,0,0,0,0,0,0,0,0,0,0,0,0,
0,0,0,0,0,0,0,0,0,0,0,0,0,0,0,0,
0,0,0,0,0,0,0,0,0,0,0,0,0,0,0,333,
95,95,97,98,0,0,0,0,0,0,0,0,0,0,333,353,
115,115,117,118,0,0,0,0,0,0,0,0,0,333,353,373,
504,504,157,158,0,0,0,0,0,0,0,0,333,353,373,629,
627,415,394,395,0,0,0,0,0,0,0,333,353,373,627,630,
415,394,395,0,0,0,0,0,0,0,333,353,373,628,164,227,
394,395,0,0,0,0,0,0,0,333,353,373,164,628,227,155,
395,0,0,0,0,0,0,0,333,353,373,630,627,227,155,155,
0,0,0,0,0,0,0,338,353,373,628,627,227,155,155,155,
0,0,0,0,0,356,357,358,332,629,164,227,155,155,155,155
</chunk>
   <chunk x="16" y="-16" width="16" height="16">
0,0,0,0,0,333,353,373,628,628,244,630,525,182,96,97,
0,0,0,0,333,353,373,164,164,227,155,221,561,202,116,117,
0,0,0,333,353,373,629,627,227,155,155,155,221,582,136,137,
0,0,333,353,373,630,630,227,155,155,155,155,155,161,525,157,
0,333,353,373,629,630,227,155,155,155,155,155,155,161,525,157,
333,353,373,630,164,227,155,155,155,155,155,155,101,627,415,394,
353,373,629,164,227,155,155,155,155,155,155,101,627,415,394,395,
373,627,629,227,155,155,155,155,155,155,101,627,415,394,395,0,
630,629,227,155,155,155,155,155,155,101,628,415,394,395,0,0,
630,227,155,155,155,155,155,155,155,161,525,157,158,0,0,0,
227,155,155,155,155,155,155,155,101,629,415,394,395,0,0,0,
155,155,155,155,155,155,155,155,161,525,157,158,0,0,0,0,
155,155,155,155,155,155,155,101,164,415,394,395,0,0,0,0,
155,155,155,155,155,155,101,164,415,394,395,0,0,0,0,0,
155,155,155,155,155,101,164,415,394,395,0,0,0,0,0,0,
155,155,155,155,101,627,415,394,395,0,0,0,0,0,0,0
</chunk>
   <chunk x="32" y="-16" width="16" height="16">
98,0,494,495,496,0,0,0,0,0,0,0,0,0,0,0,
118,0,574,575,576,0,0,0,0,0,0,0,0,0,0,0,
138,0,574,575,576,0,0,0,0,0,0,0,0,0,0,0,
158,0,574,575,576,0,0,0,0,0,0,0,0,0,0,0,
158,0,594,595,596,0,0,0,0,0,0,0,0,0,0,0,
395,0,614,615,616,0,0,0,0,0,0,0,0,0,0,0,
0,0,0,0,0,0,0,0,0,0,0,0,0,0,0,0,
0,0,0,0,0,0,0,0,0,0,0,0,0,0,0,0,
0,0,0,0,0,0,0,0,0,0,0,0,0,0,0,0,
0,0,0,0,0,0,0,0,0,0,0,0,0,0,0,0,
0,0,0,0,0,0,0,0,0,0,0,0,0,0,0,0,
0,0,0,0,0,0,0,0,0,0,0,0,0,0,0,0,
0,0,0,0,0,0,0,0,0,0,0,0,0,0,0,0,
0,0,0,0,0,0,0,0,0,0,0,0,0,0,0,0,
0,0,0,0,0,0,0,0,0,0,0,0,0,0,0,0,
0,0,0,0,0,511,512,513,513,513,513,513,513,513,513,513
</chunk>
   <chunk x="48" y="-16" width="16" height="16">
0,0,0,0,0,0,0,0,0,0,0,0,0,0,0,0,
0,0,0,0,0,0,0,0,0,0,0,0,0,0,0,0,
0,0,0,0,0,0,0,0,0,0,0,0,0,0,0,0,
0,0,0,0,0,0,0,0,0,0,0,0,0,0,0,0,
0,0,0,0,0,0,0,0,0,0,0,0,0,0,0,0,
0,0,0,0,0,0,0,0,0,0,0,0,0,0,0,0,
0,0,0,0,0,0,0,0,0,0,0,0,0,0,0,0,
0,0,0,0,0,0,0,0,0,0,0,0,0,0,0,0,
0,0,0,0,0,0,0,0,0,0,0,0,0,0,0,0,
0,0,0,0,0,0,0,0,0,0,0,0,0,0,0,0,
0,0,0,0,0,0,0,0,0,0,0,0,0,0,0,0,
0,0,0,0,0,0,0,0,0,0,0,0,0,0,0,0,
0,0,0,0,0,0,0,0,0,0,0,0,0,0,0,0,
0,0,0,0,0,0,0,0,0,0,0,0,0,0,0,0,
0,0,0,0,0,0,0,0,0,0,0,0,0,0,0,0,
513,513,513,513,513,513,513,513,513,517,518,519,0,0,0,0
</chunk>
   <chunk x="-48" y="0" width="16" height="16">
0,0,0,0,0,0,0,0,0,0,0,0,0,0,0,0,
0,0,0,0,0,0,0,0,0,0,0,0,0,0,0,0,
0,0,0,0,0,0,0,0,0,0,0,0,0,0,0,0,
0,0,0,0,0,0,0,0,0,0,0,0,0,0,0,0,
0,0,0,0,0,0,0,0,0,0,0,0,0,0,0,0,
0,0,0,0,0,0,0,0,0,0,0,0,0,0,0,0,
0,0,0,0,0,0,0,0,0,0,0,0,0,0,0,0,
0,0,0,0,0,0,0,0,0,0,0,0,0,0,0,0,
0,0,0,0,0,0,0,0,0,0,0,0,0,0,0,0,
0,0,0,0,0,0,92,93,95,339,0,0,0,0,0,0,
0,0,0,0,0,0,112,113,115,359,360,0,95,339,0,0,
0,0,0,0,0,0,392,393,195,630,627,164,115,359,360,513,
0,0,0,0,0,0,0,413,215,0,397,398,195,630,630,533,
0,0,0,0,0,0,0,0,0,0,0,418,215,0,0,553,
0,0,0,0,0,0,0,0,0,0,0,0,0,0,0,0,
0,0,0,0,0,0,0,0,0,0,0,0,0,0,0,0
</chunk>
   <chunk x="-32" y="0" width="16" height="16">
0,0,0,0,0,0,0,0,0,418,215,397,398,438,627,630,
0,0,0,0,0,0,0,0,0,0,0,0,418,397,398,438,
0,0,0,0,0,0,0,0,0,0,0,0,0,0,418,393,
0,0,0,0,0,0,0,0,0,0,0,0,0,0,0,152,
0,0,0,0,0,0,0,0,0,0,0,0,0,0,0,152,
0,0,0,0,0,0,0,0,0,0,0,0,0,0,0,152,
0,0,0,0,0,0,0,0,0,0,0,0,0,0,0,152,
0,0,0,0,0,0,0,0,0,0,0,0,0,0,0,152,
0,0,0,0,0,0,0,0,0,0,0,0,0,0,0,152,
0,0,0,0,0,0,0,0,0,0,0,0,0,0,0,152,
0,0,0,0,338,95,0,0,513,513,513,517,518,519,0,172,
513,513,513,357,358,115,627,630,533,533,533,537,538,539,0,192,
533,533,533,629,628,195,399,400,553,553,553,557,558,559,0,212,
553,553,553,0,0,215,419,0,0,0,0,0,0,0,0,0,
0,0,0,0,0,0,0,0,0,0,0,0,0,0,0,0,
0,0,0,0,0,0,0,0,0,0,0,0,0,0,0,0
</chunk>
   <chunk x="-16" y="0" width="16" height="16">
107,155,155,155,155,161,122,123,198,0,0,0,0,0,0,0,
630,107,155,155,101,525,182,263,264,0,0,0,0,0,0,0,
412,629,107,155,221,561,202,283,284,0,0,0,0,0,0,0,
153,523,167,155,155,161,582,303,304,95,95,95,95,95,95,95,
153,523,167,155,155,221,561,323,324,115,115,115,115,115,115,115,
153,523,167,155,155,155,221,582,504,504,504,504,504,504,504,504,
153,523,167,155,155,155,155,221,244,244,244,244,244,244,244,244,
153,523,167,155,155,155,155,155,155,155,155,155,155,155,155,155,
153,523,167,155,155,155,155,155,155,155,155,155,155,155,155,155,
153,523,629,104,104,104,104,104,104,104,104,104,104,104,107,155,
173,174,628,627,630,630,627,630,164,630,164,628,629,627,630,104,
193,194,195,195,195,195,195,195,195,195,195,195,195,438,627,629,
213,214,215,215,215,215,215,215,215,215,215,215,215,397,398,195,
0,0,0,0,0,0,0,0,0,0,0,0,0,0,418,215,
0,0,0,0,0,0,0,0,0,0,0,0,0,0,0,0,
0,0,0,0,0,0,0,0,0,0,0,0,0,0,0,0
</chunk>
   <chunk x="0" y="0" width="16" height="16">
0,0,0,0,0,376,318,378,629,164,227,155,155,155,155,155,
0,0,0,0,333,185,186,523,629,227,155,155,155,155,155,155,
0,0,0,338,353,114,206,567,227,155,155,155,155,155,155,101,
95,95,357,358,332,134,586,227,155,155,155,155,155,155,101,629,
115,115,377,378,630,629,227,155,155,155,155,155,155,101,627,627,
504,504,629,630,629,227,155,155,155,155,155,155,101,627,439,399,
244,244,244,244,227,155,155,155,155,155,155,101,628,415,394,419,
155,155,155,155,155,155,155,155,155,155,155,161,525,157,158,0,
155,155,155,155,155,155,101,104,104,104,104,629,525,157,158,0,
101,104,104,104,104,104,164,629,627,628,629,164,176,177,178,0,
630,630,164,630,627,629,629,439,195,195,195,195,196,394,395,0,
164,439,195,195,195,195,399,400,215,215,215,215,216,414,0,0,
399,400,215,215,215,215,419,0,0,0,0,0,0,0,0,0,
419,0,0,0,0,0,0,0,0,0,0,0,0,0,0,0,
0,0,0,0,0,0,0,0,0,0,0,0,0,0,0,0,
0,0,0,0,0,0,0,0,0,0,0,0,0,0,0,0
</chunk>
   <chunk x="16" y="0" width="16" height="16">
155,155,101,104,628,415,394,395,0,0,0,0,0,0,0,0,
155,101,627,627,415,394,395,0,0,0,0,0,0,0,0,0,
104,627,630,439,394,395,0,0,0,0,0,0,0,0,0,0,
627,439,399,400,414,0,0,0,0,0,0,0,0,0,0,0,
439,394,419,0,0,0,0,0,0,0,0,0,0,0,0,0,
400,414,0,0,0,0,0,0,0,0,0,0,0,0,0,0,
0,0,0,0,0,0,0,0,0,0,0,0,0,0,0,0,
0,0,0,0,0,0,0,0,0,0,0,0,0,0,0,0,
0,0,0,0,0,0,0,0,0,0,0,0,0,0,0,0,
0,0,0,0,0,0,0,0,0,0,0,0,0,0,0,0,
0,0,0,0,0,0,0,0,0,0,0,0,0,0,0,0,
0,0,0,0,0,0,0,0,0,0,0,0,0,0,0,0,
0,0,0,0,0,0,0,0,0,0,0,0,0,0,0,0,
0,0,0,0,0,0,0,0,0,0,0,0,0,0,0,0,
0,0,0,0,0,0,0,0,0,0,0,0,0,0,0,0,
0,0,0,0,0,0,0,0,0,0,0,0,0,0,0,0
</chunk>
   <chunk x="32" y="0" width="16" height="16">
0,0,0,0,0,531,532,533,533,533,533,533,533,533,533,533,
0,0,0,0,0,551,552,553,553,553,553,553,553,553,553,553,
0,0,0,0,0,0,0,0,0,0,0,0,0,0,0,0,
0,0,0,0,0,0,0,0,0,0,0,0,0,0,0,0,
0,0,0,0,0,0,0,0,0,0,0,0,0,0,0,0,
0,0,0,0,0,0,0,0,0,0,0,0,0,0,0,0,
0,0,0,0,0,0,0,0,0,0,0,0,0,0,0,0,
0,0,0,0,0,0,0,0,0,0,0,0,0,0,0,0,
0,0,0,0,0,0,0,0,0,0,0,0,0,0,0,0,
0,0,0,0,0,0,0,0,0,0,0,0,0,0,0,0,
0,0,0,0,0,0,0,0,0,0,0,0,0,0,0,0,
0,0,0,0,0,0,0,0,0,0,0,0,0,0,0,0,
0,0,0,0,0,0,0,0,0,0,0,0,0,0,0,0,
0,0,0,0,0,0,0,0,0,0,0,0,0,0,0,0,
0,0,0,0,0,0,0,0,0,0,0,0,0,0,0,0,
0,0,0,0,0,0,0,0,0,0,0,0,0,0,0,0
</chunk>
   <chunk x="48" y="0" width="16" height="16">
533,533,533,533,533,533,533,533,533,537,538,539,0,0,0,0,
553,553,553,553,553,553,553,553,553,557,558,559,0,0,0,0,
0,0,0,0,0,0,0,0,0,0,0,0,0,0,0,0,
0,0,0,0,0,0,0,0,0,0,0,0,0,0,0,0,
0,0,0,0,0,0,0,0,0,0,0,0,0,0,0,0,
0,0,0,0,0,0,0,0,0,0,0,0,0,0,0,0,
0,0,0,0,0,0,0,0,0,0,0,0,0,0,0,0,
0,0,0,0,0,0,0,0,0,0,0,0,0,0,0,0,
0,0,0,0,0,0,0,0,0,0,0,0,0,0,0,0,
0,0,0,0,0,0,0,0,0,0,0,0,0,0,0,0,
0,0,0,0,0,0,0,0,0,0,0,0,0,0,0,0,
0,0,0,0,0,0,0,0,0,0,0,0,0,0,0,0,
0,0,0,0,0,0,0,0,0,0,0,0,0,0,0,0,
0,0,0,0,0,0,0,0,0,0,0,0,0,0,0,0,
0,0,0,0,0,0,0,0,0,0,0,0,0,0,0,0,
0,0,0,0,0,0,0,0,0,0,0,0,0,0,0,0
</chunk>
   <chunk x="80" y="16" width="16" height="16">
0,0,0,0,0,0,0,0,0,0,0,0,0,0,0,0,
0,0,0,0,0,0,0,0,0,0,0,0,0,0,0,0,
0,0,0,0,0,0,0,0,0,0,0,0,0,0,0,0,
511,512,513,513,513,513,513,513,513,513,513,513,513,513,513,513,
531,532,533,533,533,533,533,533,533,533,533,533,533,533,533,533,
551,552,553,553,553,553,553,553,553,553,553,553,553,553,553,553,
0,0,0,0,0,0,0,0,0,0,0,0,0,0,0,0,
0,0,0,0,0,0,0,0,0,0,0,0,0,0,0,0,
0,0,0,0,0,0,0,0,0,0,0,0,0,0,0,0,
0,0,0,0,0,0,0,0,0,0,0,0,0,0,0,0,
0,0,0,0,0,0,0,0,0,0,0,0,0,0,0,0,
0,0,0,0,0,0,0,0,0,0,0,0,0,0,0,0,
0,0,0,0,0,0,0,0,0,0,0,0,0,0,0,0,
0,0,0,0,0,0,0,0,0,0,0,0,0,0,0,0,
0,0,0,0,0,0,0,0,0,0,0,0,0,0,0,0,
0,0,0,0,0,0,0,0,0,0,0,0,0,0,0,0
</chunk>
   <chunk x="96" y="16" width="16" height="16">
0,0,0,0,0,0,0,0,0,0,0,0,0,0,0,0,
0,0,0,0,0,0,0,0,0,0,0,0,0,0,0,0,
0,0,0,0,0,0,0,0,0,0,0,0,0,0,0,0,
513,513,517,518,519,0,0,0,0,0,0,0,0,0,0,0,
533,533,537,538,539,0,0,0,0,0,0,0,0,0,0,0,
553,553,557,558,559,0,0,0,0,0,0,0,0,0,0,0,
0,0,0,0,0,0,0,0,0,0,0,0,0,0,0,0,
0,0,0,0,0,0,0,0,0,0,0,0,0,0,0,0,
0,0,0,0,0,0,0,0,0,0,0,0,0,0,0,0,
0,0,0,0,0,0,0,0,0,0,0,0,0,0,0,0,
0,0,0,0,0,0,0,0,0,0,0,0,0,0,0,0,
0,0,0,0,0,0,0,0,0,0,0,0,0,0,0,0,
0,0,0,0,0,0,0,0,0,0,0,0,0,0,0,0,
0,0,0,0,0,0,0,0,0,0,0,0,0,0,0,0,
0,0,0,0,0,0,0,0,0,0,0,0,0,0,0,0,
0,0,0,0,0,0,0,0,0,0,0,0,0,0,0,0
</chunk>
  </data>
 </layer>
</map>
