<?xml version="1.0" encoding="UTF-8"?>
<map version="1.10" tiledversion="1.12.0" orientation="orthogonal" renderorder="right-down" width="4" height="4" tilewidth="16" tileheight="16" infinite="1" nextlayerid="5" nextobjectid="1">
 <tileset firstgid="1" source=":/automap-tiles.tsx"/>
 <tileset firstgid="6" source="../tileset template.tsx"/>
 <tileset firstgid="56" source="../tangled incomplete tileset.tsx"/>
 <layer id="1" name="template" width="4" height="4">
  <data encoding="csv">
   <chunk x="-32" y="-64" width="16" height="16">
0,0,0,0,17,17,17,17,17,17,17,17,17,17,17,17,
0,0,0,0,17,17,17,17,17,17,17,17,17,17,17,17,
0,0,0,0,17,17,17,17,17,17,17,17,17,17,17,17,
0,0,0,0,0,0,0,0,0,0,0,0,0,0,0,0,
0,0,0,0,0,0,0,0,0,0,0,0,0,0,0,0,
0,0,0,0,0,0,0,0,0,0,0,0,0,0,0,0,
0,0,0,0,0,0,0,0,0,0,0,0,0,0,0,0,
0,0,0,0,0,0,0,0,0,0,0,0,0,0,0,0,
0,0,0,0,0,0,0,0,0,0,0,0,0,0,0,0,
0,0,0,0,0,0,0,0,0,0,0,0,0,0,0,0,
0,0,0,0,0,0,0,0,0,0,0,0,0,0,0,0,
0,0,0,0,0,0,0,0,0,0,0,0,0,0,0,0,
0,0,0,0,0,0,0,0,0,0,0,0,0,0,0,0,
0,0,0,0,0,0,0,0,0,0,0,0,0,0,0,0,
0,0,0,0,0,0,0,0,0,0,0,0,0,0,0,0,
0,0,0,0,0,0,0,0,0,0,0,0,0,0,0,0
</chunk>
   <chunk x="-16" y="-64" width="16" height="16">
17,17,17,17,17,17,17,17,17,17,17,17,17,17,0,0,
17,17,17,17,17,17,17,17,17,17,17,17,17,17,0,0,
17,17,17,17,17,17,17,17,17,17,17,17,17,17,0,0,
0,0,0,0,0,0,0,0,0,0,0,0,0,0,0,0,
0,0,0,0,0,0,0,0,0,0,0,0,0,0,0,0,
0,0,0,0,0,0,0,0,0,0,0,0,0,0,0,0,
0,0,0,0,0,0,0,0,0,0,0,0,0,0,0,0,
0,0,0,0,0,0,0,0,0,0,0,0,0,0,0,0,
0,0,0,0,0,0,0,0,0,0,0,0,0,0,0,0,
0,0,0,0,0,0,0,0,0,0,0,0,0,0,0,0,
0,0,0,0,0,0,0,0,0,0,0,0,0,0,0,0,
0,0,0,0,0,0,0,0,0,0,0,0,0,0,0,0,
0,0,0,0,0,0,0,0,0,0,0,0,0,0,0,0,
0,0,0,0,0,0,0,0,0,0,0,0,0,0,0,0,
0,0,0,0,0,0,0,0,0,0,0,0,0,0,0,0,
0,0,0,0,0,0,0,0,0,0,0,0,0,0,0,0
</chunk>
   <chunk x="-32" y="-48" width="16" height="16">
0,0,0,0,0,0,0,0,0,0,0,0,0,0,0,0,
0,0,0,0,0,0,0,0,0,0,0,0,0,0,0,0,
0,0,0,0,0,0,0,0,0,0,0,0,0,0,0,0,
0,0,0,0,0,0,0,0,0,0,0,0,0,0,0,0,
0,0,0,0,0,0,0,0,0,0,17,17,17,17,17,17,
0,0,0,0,0,0,0,0,0,0,17,17,17,17,17,17,
0,0,0,0,0,0,0,0,0,0,17,17,17,17,17,17,
0,0,0,0,0,0,0,0,0,0,17,17,17,17,17,17,
0,0,0,0,0,0,0,0,0,17,17,17,17,17,17,17,
0,0,0,0,0,0,0,0,0,17,17,17,17,17,17,17,
0,0,0,0,0,0,0,0,0,17,17,17,17,17,17,17,
0,0,0,0,0,0,0,0,0,17,17,17,17,17,17,17,
0,0,0,0,0,0,0,0,0,17,17,17,17,17,17,17,
0,0,0,0,0,0,0,0,0,17,17,17,17,17,17,17,
0,0,0,0,0,0,0,0,0,17,17,17,17,17,17,17,
0,0,0,0,0,0,0,0,0,17,17,17,17,17,17,17
</chunk>
   <chunk x="-16" y="-48" width="16" height="16">
0,0,0,0,0,0,0,0,0,0,0,0,0,0,0,0,
0,0,0,0,0,0,0,0,0,0,0,0,0,0,0,0,
0,0,0,0,0,0,0,0,0,0,0,0,0,0,0,0,
0,0,0,0,0,0,0,0,0,0,0,0,0,0,0,0,
17,17,17,17,17,17,17,17,17,17,0,0,0,0,0,0,
17,17,17,17,17,17,17,17,17,17,0,0,0,0,0,0,
17,17,17,17,17,17,17,17,17,17,0,0,0,0,0,0,
17,17,17,17,17,17,17,17,17,17,0,0,0,0,0,0,
17,17,17,17,17,17,17,17,17,17,0,0,0,0,0,0,
17,17,17,17,17,17,17,17,17,17,0,0,0,0,0,0,
17,17,17,17,17,17,17,17,17,17,0,0,0,0,0,0,
17,17,17,17,17,17,17,17,17,0,0,0,0,0,0,0,
17,17,17,17,17,17,17,17,17,0,0,0,0,0,0,0,
17,17,17,17,17,17,17,17,17,0,0,0,0,0,0,0,
17,17,17,17,17,17,17,17,17,0,0,0,0,0,0,0,
17,17,17,17,17,17,17,17,17,0,0,0,0,0,0,0
</chunk>
   <chunk x="96" y="-48" width="16" height="16">
0,0,0,0,0,0,0,0,0,0,0,0,0,0,0,0,
0,0,0,0,0,0,0,0,0,0,0,0,0,0,0,0,
0,0,0,0,0,0,0,0,0,0,0,0,0,0,0,0,
0,0,0,0,0,0,0,0,0,0,0,0,0,0,0,0,
0,0,0,0,0,0,0,0,0,0,0,0,0,0,0,0,
0,0,0,0,0,0,0,0,0,0,0,0,0,0,0,0,
0,0,0,0,0,0,0,0,0,0,0,0,0,0,0,0,
0,0,0,0,0,0,0,0,0,0,0,0,0,0,0,0,
0,0,0,0,0,0,0,0,0,0,0,0,0,0,0,0,
0,0,0,0,0,0,0,0,0,0,0,0,0,0,0,0,
0,0,0,0,0,0,0,0,0,0,0,0,0,0,0,0,
0,0,0,0,0,0,0,0,0,0,0,0,0,0,0,0,
0,0,0,0,0,0,0,0,0,0,0,0,0,0,0,0,
0,0,17,17,17,17,17,17,17,17,17,0,0,0,0,0,
0,17,17,17,17,17,17,17,17,17,17,17,0,0,0,0,
17,17,17,17,17,17,17,17,17,17,17,0,0,0,0,0
</chunk>
   <chunk x="-32" y="-32" width="16" height="16">
0,0,0,0,0,0,0,0,0,17,17,17,17,17,17,17,
0,0,0,0,0,0,0,0,0,17,17,17,17,17,17,17,
0,0,0,0,0,0,0,0,0,0,17,17,17,17,17,17,
0,0,0,0,0,0,0,0,0,0,17,17,17,17,17,17,
0,0,0,0,0,0,0,0,0,0,17,17,17,17,17,17,
0,0,0,0,0,0,0,0,0,0,17,17,17,17,17,17,
0,0,0,0,0,0,0,0,0,0,17,17,17,17,17,17,
0,0,0,0,0,0,0,0,0,0,0,17,17,17,17,17,
0,0,0,0,0,0,0,0,0,0,0,17,17,17,17,17,
0,0,0,0,0,0,0,0,0,0,0,17,17,17,17,17,
0,0,0,0,0,0,0,0,0,0,0,17,17,17,17,17,
0,0,0,0,0,0,0,0,0,0,0,17,17,17,17,17,
0,0,0,0,0,0,0,0,0,0,0,0,17,17,17,17,
0,0,0,0,0,0,0,0,0,0,0,0,17,17,17,17,
0,0,0,0,0,0,0,0,0,0,0,0,17,17,17,17,
0,0,0,0,0,0,0,0,0,0,0,0,17,17,17,17
</chunk>
   <chunk x="-16" y="-32" width="16" height="16">
17,17,17,17,17,17,17,17,17,0,0,0,0,0,0,0,
17,17,17,17,17,17,17,17,17,0,0,0,0,0,0,0,
17,17,17,17,17,17,17,17,17,0,0,0,0,0,0,0,
17,17,17,17,17,17,17,17,17,0,0,0,0,0,0,0,
17,17,17,17,17,17,17,17,17,0,0,0,0,0,0,0,
17,17,17,17,17,17,17,17,17,0,0,0,0,0,0,0,
17,17,17,17,17,17,17,17,17,0,0,0,0,0,0,0,
17,17,17,17,17,17,17,17,17,0,0,0,0,0,0,0,
17,17,17,17,17,17,17,17,17,0,0,0,0,0,0,0,
17,17,17,17,17,17,17,17,17,0,0,0,0,0,0,0,
17,17,17,17,17,17,17,17,0,0,0,0,0,0,0,0,
17,17,17,17,17,17,17,17,0,0,0,0,0,0,0,0,
17,17,17,17,17,17,17,0,0,0,0,0,0,0,0,0,
17,17,17,17,17,17,17,0,0,0,0,0,0,0,0,0,
17,17,17,17,17,17,17,0,0,0,0,0,0,0,0,0,
17,17,17,17,17,17,17,0,0,0,0,0,0,0,0,0
</chunk>
   <chunk x="64" y="-32" width="16" height="16">
0,0,0,0,0,0,0,0,0,0,0,0,0,0,0,0,
0,0,0,0,0,0,0,0,0,0,0,0,0,0,0,0,
0,0,0,0,0,0,0,0,0,0,0,0,0,0,0,0,
0,0,0,0,0,0,0,0,0,17,0,0,0,0,0,0,
0,0,0,0,0,0,0,17,17,17,0,0,0,0,0,0,
0,0,0,0,0,0,17,17,17,17,0,0,0,0,0,0,
0,0,0,0,0,17,17,17,17,17,17,17,17,17,17,17,
0,0,0,0,0,17,17,17,17,17,17,17,17,17,17,17,
0,0,0,0,0,17,17,17,17,17,17,17,17,17,17,17,
0,0,0,0,0,17,17,17,17,17,17,17,17,17,17,0,
0,0,0,0,0,17,17,17,17,17,17,17,17,17,17,0,
0,0,0,0,0,17,17,17,17,17,17,17,17,17,17,17,
0,0,0,0,0,17,17,17,17,17,17,17,17,17,17,17,
0,0,0,0,0,17,17,17,17,17,17,17,17,17,17,17,
0,0,0,0,0,17,17,17,17,17,17,17,17,17,17,17,
0,0,0,0,0,17,17,17,17,17,17,17,17,17,17,17
</chunk>
   <chunk x="80" y="-32" width="16" height="16">
0,0,0,0,0,0,0,0,0,0,0,0,0,0,0,17,
0,0,0,0,0,0,0,0,0,0,0,0,0,0,17,17,
0,0,0,0,0,0,0,0,0,0,0,0,0,17,17,17,
0,0,0,0,0,0,0,0,0,0,17,17,17,17,17,17,
0,0,0,0,0,0,0,0,0,0,17,17,17,17,17,17,
0,0,0,0,0,0,0,0,0,17,17,17,17,17,17,17,
17,17,17,17,17,17,17,17,17,17,17,17,0,0,0,0,
17,17,17,17,17,17,17,17,17,17,0,0,0,0,0,0,
17,17,17,17,17,17,17,0,0,0,0,0,0,0,0,0,
0,0,0,17,17,0,0,0,0,0,0,0,0,0,0,0,
0,0,0,0,0,0,0,0,0,0,0,0,0,0,0,0,
0,0,0,0,0,0,0,0,0,17,17,17,17,17,17,17,
17,0,0,0,0,0,0,17,17,17,17,17,17,17,17,17,
17,17,0,0,0,0,17,17,17,17,17,17,17,17,17,17,
17,17,17,0,0,0,17,17,17,17,17,17,17,17,17,17,
17,17,17,0,0,0,17,17,17,17,17,17,17,17,17,17
</chunk>
   <chunk x="96" y="-32" width="16" height="16">
17,17,17,17,17,17,17,17,17,17,17,0,0,0,0,0,
17,17,17,17,17,17,17,17,17,17,17,0,0,0,0,0,
17,17,17,17,17,17,17,17,17,17,0,0,0,0,0,0,
17,17,17,17,17,17,17,17,17,0,0,0,0,0,0,0,
17,17,17,17,17,17,17,17,17,0,0,0,0,0,0,0,
17,17,17,17,17,17,17,17,0,0,0,0,0,0,0,0,
0,0,0,0,0,0,0,0,0,0,0,0,0,0,0,0,
0,0,0,0,0,0,0,0,0,0,0,0,0,0,0,0,
0,0,0,0,0,0,0,0,0,0,0,0,0,0,0,0,
0,0,0,0,0,0,0,0,0,0,0,0,0,0,0,0,
0,0,0,0,0,0,0,0,0,0,0,0,0,0,0,0,
17,17,17,17,17,17,17,17,17,17,17,17,17,17,17,17,
17,17,17,17,17,17,17,17,17,17,17,17,17,17,17,17,
17,17,17,17,17,17,17,17,17,17,17,17,17,17,17,17,
17,17,17,17,17,17,17,17,17,17,17,17,17,17,17,17,
17,17,17,17,17,17,17,17,17,17,17,17,17,17,17,17
</chunk>
   <chunk x="112" y="-32" width="16" height="16">
0,0,0,0,0,0,0,0,0,0,0,0,0,0,0,0,
0,0,0,0,0,0,0,0,0,0,0,0,0,0,0,0,
0,0,0,0,0,0,0,0,0,0,0,0,0,0,0,0,
0,0,0,0,0,0,0,0,0,0,0,0,0,0,0,0,
0,0,0,0,0,0,0,0,0,0,0,0,0,0,0,0,
0,0,0,0,0,0,0,0,0,0,0,0,0,0,0,0,
0,0,0,0,0,0,0,0,0,0,0,0,0,0,0,0,
0,0,0,0,0,0,0,0,0,0,0,0,0,0,0,0,
0,0,0,0,0,0,0,0,0,0,0,0,0,0,0,0,
0,0,0,0,0,0,0,0,0,0,0,0,0,0,0,0,
0,0,0,0,0,0,0,0,0,0,0,0,0,0,0,0,
17,17,0,0,0,0,0,0,0,0,0,0,0,0,0,0,
17,17,0,0,0,0,0,0,0,0,0,0,0,0,0,0,
17,17,0,0,0,0,0,0,0,0,0,0,0,0,0,0,
17,17,0,0,0,0,0,0,0,0,0,0,0,0,0,0,
17,17,0,0,0,0,0,0,0,0,0,0,0,0,0,0
</chunk>
   <chunk x="-32" y="-16" width="16" height="16">
0,0,0,0,0,0,0,0,0,0,0,0,17,17,17,17,
0,0,0,0,0,0,0,0,0,0,0,0,0,17,17,17,
0,0,0,0,0,0,0,0,0,0,0,0,0,17,17,17,
0,0,0,0,0,0,0,0,0,0,0,0,0,17,17,17,
0,0,0,0,0,0,0,0,0,0,0,0,0,0,17,17,
0,0,0,0,0,0,0,0,0,0,0,0,0,0,0,17,
0,0,0,0,0,0,0,0,0,0,0,0,0,0,0,0,
0,0,0,0,0,0,0,0,0,0,0,0,0,0,0,0,
0,0,0,0,0,0,0,0,0,0,0,0,0,0,0,0,
0,0,0,0,0,0,0,0,0,0,0,0,0,0,0,0,
0,0,0,0,0,0,0,0,0,0,0,0,0,0,0,0,
0,0,0,0,0,0,0,0,0,0,0,0,0,0,0,0,
0,0,0,0,0,0,0,0,0,0,0,0,0,0,0,0,
0,0,0,0,0,0,0,0,0,0,0,0,0,0,0,0,
0,0,0,0,0,0,0,0,0,0,0,0,0,0,0,0,
0,0,0,0,0,0,0,0,0,0,0,0,0,0,0,0
</chunk>
   <chunk x="-16" y="-16" width="16" height="16">
17,17,17,17,17,17,17,0,0,0,0,0,0,0,0,0,
17,17,17,17,17,17,17,0,0,0,0,0,0,0,0,0,
17,17,17,17,17,17,17,17,17,17,17,17,17,17,17,17,
17,17,17,17,17,17,17,17,17,17,17,17,17,17,17,17,
17,17,17,17,17,17,17,17,17,17,17,17,17,17,17,17,
17,17,17,17,17,17,17,17,17,17,17,17,17,17,17,17,
17,17,17,17,17,17,17,17,17,17,17,17,17,17,17,17,
0,0,0,0,17,17,17,17,17,17,17,17,17,17,17,17,
0,0,0,0,17,17,17,17,17,17,17,17,17,17,17,17,
0,0,0,0,17,17,17,17,17,17,17,17,17,17,17,17,
0,0,0,0,17,17,17,17,17,17,17,17,17,17,17,17,
0,0,0,0,17,17,17,17,17,17,17,17,17,17,17,17,
0,0,0,0,0,17,17,17,17,17,17,17,17,17,17,17,
0,0,0,0,0,17,17,17,17,17,17,17,17,17,17,17,
0,0,0,0,0,17,17,17,17,17,17,17,17,17,17,17,
0,0,0,0,0,0,17,17,17,17,17,17,17,17,17,17
</chunk>
   <chunk x="0" y="-16" width="16" height="16">
0,0,0,0,0,0,0,0,0,0,0,0,0,0,0,0,
0,0,0,0,0,0,0,0,0,0,0,0,0,0,0,0,
17,17,17,17,17,17,17,17,17,17,17,17,17,17,17,17,
17,17,17,17,17,17,17,17,17,17,17,17,17,17,17,17,
17,17,17,17,17,17,17,17,17,17,17,17,17,17,17,17,
17,17,17,17,17,17,17,17,17,17,17,17,17,17,17,17,
17,17,17,17,17,17,17,17,17,17,17,17,17,17,17,17,
17,17,17,17,17,17,17,17,17,17,17,17,17,17,17,17,
17,17,17,17,17,17,17,17,17,17,17,17,17,17,17,17,
17,17,17,17,17,17,17,17,17,17,17,17,17,17,17,17,
17,17,17,17,17,17,17,17,17,17,17,17,17,17,17,17,
17,17,17,17,17,17,17,17,17,17,17,17,17,17,17,17,
17,17,17,17,17,17,17,17,17,17,17,17,17,17,17,17,
17,17,17,17,17,17,17,17,17,17,17,17,17,17,17,17,
17,17,17,17,17,17,17,17,17,17,17,17,17,17,17,17,
17,17,17,17,17,17,17,17,17,17,17,17,17,17,17,17
</chunk>
   <chunk x="16" y="-16" width="16" height="16">
0,0,0,0,0,0,0,0,0,0,0,0,0,0,0,0,
0,0,0,0,0,0,0,17,17,17,17,17,17,0,0,0,
17,17,17,17,17,17,17,17,17,17,17,17,17,17,17,17,
17,17,17,17,17,17,17,17,17,17,17,17,17,17,17,17,
17,17,17,17,17,17,17,17,17,17,17,17,17,17,17,17,
17,17,17,17,17,17,17,17,17,17,17,17,17,17,17,17,
17,17,17,17,17,17,17,17,17,17,17,17,17,17,17,17,
17,17,17,17,17,17,17,17,17,17,17,17,17,17,17,17,
17,17,17,17,17,17,17,17,17,17,17,17,17,17,17,17,
17,17,17,17,17,17,17,17,17,17,17,17,17,17,17,17,
17,17,17,17,17,17,17,17,17,17,17,17,17,17,17,17,
17,17,17,17,17,17,17,17,17,17,17,17,17,17,17,17,
17,17,17,17,17,17,17,17,17,17,17,17,17,17,17,17,
17,17,17,17,17,17,17,17,17,17,17,17,17,17,17,17,
17,17,17,17,17,17,17,17,17,17,17,17,17,17,17,17,
17,17,17,17,17,17,17,17,17,17,17,17,17,17,17,17
</chunk>
   <chunk x="32" y="-16" width="16" height="16">
0,0,0,0,0,0,0,0,0,0,0,0,0,0,0,0,
0,0,0,0,0,0,0,0,0,0,0,0,0,0,0,0,
17,17,17,0,0,0,0,0,0,0,0,0,0,0,0,0,
17,17,17,17,17,0,0,0,0,0,0,0,0,0,0,0,
17,17,17,17,17,0,0,0,0,0,0,0,0,0,0,0,
17,17,17,17,17,17,17,0,0,0,0,0,0,0,0,0,
17,17,17,17,17,17,17,17,17,0,0,0,0,0,0,0,
17,17,17,17,17,17,17,17,17,17,17,0,0,0,0,0,
17,17,17,17,17,17,17,17,17,17,17,0,0,0,0,0,
17,17,17,17,17,17,17,17,17,17,0,0,0,0,0,0,
17,17,17,17,17,17,17,17,17,17,0,0,0,0,0,0,
17,17,17,17,17,17,17,17,17,17,17,0,0,0,0,0,
17,17,17,17,17,17,17,17,17,17,17,0,0,0,0,0,
17,17,17,17,17,17,17,0,0,0,0,0,0,0,0,0,
17,17,17,17,17,17,17,0,0,0,0,0,0,0,0,0,
17,17,17,17,17,17,17,0,0,0,0,0,0,0,0,0
</chunk>
   <chunk x="64" y="-16" width="16" height="16">
0,0,0,0,0,0,17,17,17,17,17,17,17,17,17,17,
0,0,0,0,0,0,0,17,17,17,17,17,17,17,17,17,
0,0,0,0,0,0,0,0,17,17,17,17,17,17,17,17,
0,0,0,0,0,0,0,0,17,17,17,17,17,17,17,17,
0,0,0,0,0,0,0,0,0,0,0,0,0,0,0,0,
0,0,0,0,0,0,0,0,0,0,0,0,0,0,0,0,
0,0,0,0,0,0,0,0,0,0,0,0,0,0,0,0,
0,0,0,0,0,0,0,0,0,0,0,0,0,0,0,0,
0,0,0,0,0,0,0,0,0,0,0,0,0,0,0,0,
0,0,0,0,0,0,0,0,0,0,0,0,0,0,0,0,
0,0,0,0,0,0,0,0,0,0,0,0,0,0,0,17,
0,0,0,0,0,0,0,0,0,0,0,0,0,0,17,17,
0,0,0,0,0,0,0,0,0,0,0,0,17,17,17,17,
0,0,0,0,0,0,0,0,0,0,0,17,17,17,17,17,
0,0,0,0,0,0,0,0,0,17,17,17,17,17,17,17,
0,0,0,0,0,0,0,0,17,17,17,17,17,17,17,17
</chunk>
   <chunk x="80" y="-16" width="16" height="16">
17,17,17,0,0,0,17,17,17,17,17,17,17,17,17,17,
17,0,0,0,0,0,17,17,17,17,17,17,17,17,17,17,
17,0,0,0,0,0,17,17,17,17,17,17,17,17,17,17,
0,0,0,0,0,0,17,17,17,17,17,17,17,17,17,17,
0,0,0,0,0,0,17,17,17,17,17,17,17,17,17,17,
0,0,0,0,0,0,17,17,17,17,17,17,17,17,17,0,
0,0,0,0,0,17,17,17,17,17,17,17,17,17,17,0,
0,0,0,0,17,17,17,17,17,17,17,17,17,17,17,0,
0,0,17,17,17,17,17,17,17,17,17,17,17,17,0,0,
17,17,17,17,17,17,17,17,17,17,17,17,17,17,0,0,
17,17,17,17,17,17,17,17,17,17,17,17,17,17,0,0,
17,17,17,17,17,17,17,17,17,17,17,17,17,17,0,0,
17,17,17,17,17,17,17,17,17,17,17,17,17,17,0,0,
17,17,17,17,17,17,17,17,17,17,17,17,17,17,0,0,
17,17,17,17,17,17,17,17,17,17,17,17,17,17,0,0,
17,17,17,17,17,17,17,17,17,17,17,17,17,0,0,0
</chunk>
   <chunk x="96" y="-16" width="16" height="16">
17,17,17,17,17,0,0,0,0,0,0,0,0,0,0,0,
17,17,17,17,0,0,0,0,0,0,0,0,0,0,0,0,
17,17,0,0,0,0,0,0,0,0,0,0,0,0,0,0,
0,0,0,0,0,0,0,0,0,0,0,0,0,0,0,0,
0,0,0,0,0,0,0,0,0,0,0,0,0,0,0,0,
0,0,0,0,0,0,0,0,0,0,0,0,0,0,0,0,
0,0,0,0,0,0,0,0,0,0,0,0,0,0,0,0,
0,0,0,0,0,0,0,0,0,0,0,0,0,0,0,0,
0,0,0,0,0,0,0,0,0,0,0,0,0,0,0,0,
0,0,0,0,0,0,0,0,0,0,0,0,0,0,0,0,
0,0,0,0,0,0,0,0,0,0,0,0,0,0,0,0,
0,0,0,0,0,0,0,0,0,0,0,0,0,0,0,0,
0,0,0,0,0,0,0,0,0,0,0,0,0,0,0,0,
0,0,0,0,0,0,0,0,0,0,0,0,0,0,0,0,
0,0,0,0,0,0,0,0,0,0,0,0,0,0,0,0,
0,0,0,0,0,0,0,0,0,0,0,0,0,0,0,0
</chunk>
   <chunk x="-16" y="0" width="16" height="16">
0,0,0,0,0,0,17,17,17,17,17,17,17,17,17,17,
0,0,0,0,0,0,0,17,17,17,17,17,17,17,17,17,
0,0,0,0,0,0,0,0,0,17,17,17,17,17,17,17,
0,0,0,0,0,0,0,0,0,0,17,17,17,17,17,17,
0,0,0,0,0,0,0,0,0,0,0,17,17,17,17,17,
0,0,0,0,0,0,0,0,0,0,0,17,17,17,17,17,
0,0,0,0,0,0,0,0,0,0,0,17,17,17,17,17,
0,0,0,0,0,0,0,0,0,0,0,0,17,17,17,17,
0,0,0,0,0,0,0,0,0,0,0,0,17,17,17,17,
0,0,0,0,0,0,0,0,0,0,0,0,0,17,17,17,
0,0,0,0,0,0,0,0,0,0,0,0,0,0,17,17,
0,0,0,0,0,0,0,0,0,0,0,0,0,0,0,17,
0,0,0,0,0,0,0,0,0,0,0,0,0,0,0,0,
0,0,0,0,0,0,0,0,0,0,0,0,0,0,0,0,
0,0,0,0,0,0,0,0,0,0,0,0,0,0,0,0,
0,0,0,0,0,0,0,0,0,0,0,0,0,0,0,0
</chunk>
   <chunk x="0" y="0" width="16" height="16">
17,17,17,17,17,17,17,17,17,17,17,17,17,17,17,17,
17,17,17,17,17,17,17,17,17,17,17,17,17,17,17,17,
17,17,17,17,17,17,17,17,17,17,17,17,17,17,17,17,
17,17,17,17,17,17,17,17,17,17,17,17,17,17,17,17,
17,17,17,17,17,17,17,17,17,17,17,17,17,17,17,17,
17,17,17,17,17,17,17,17,17,17,17,17,17,17,17,17,
17,17,17,17,17,17,17,17,17,17,17,17,17,17,17,17,
17,17,17,17,17,17,17,17,17,17,17,17,17,17,17,17,
17,17,17,17,17,17,17,17,17,17,17,17,17,17,17,17,
17,17,17,17,17,17,17,17,17,17,17,17,17,17,17,17,
17,17,17,17,17,17,17,17,17,17,17,17,17,17,17,17,
17,17,17,17,17,17,17,17,17,17,17,17,17,17,17,17,
17,17,17,17,17,17,17,17,17,17,17,17,17,17,17,17,
0,0,17,17,17,17,0,0,0,0,0,0,0,0,0,0,
0,0,0,0,0,0,0,0,0,0,0,0,0,0,0,0,
0,0,0,0,0,0,0,0,0,0,0,0,0,0,0,0
</chunk>
   <chunk x="16" y="0" width="16" height="16">
17,17,17,17,17,17,17,17,17,17,17,17,17,17,17,17,
17,17,17,17,17,17,17,17,17,17,17,17,17,17,17,17,
17,17,17,17,17,17,17,17,17,17,17,17,17,17,17,17,
17,17,17,17,17,17,17,17,17,17,17,17,17,17,17,17,
17,17,17,17,17,17,17,17,17,17,17,17,17,17,17,17,
17,17,17,17,17,17,17,17,17,17,17,17,17,17,17,17,
17,17,17,17,17,17,17,17,17,17,17,17,17,17,17,17,
17,17,17,17,17,17,17,17,17,17,17,17,17,17,17,17,
17,17,17,17,17,17,17,17,17,17,17,17,17,17,17,17,
17,17,17,17,17,17,17,17,17,17,17,17,17,17,17,17,
17,17,17,17,17,17,17,17,17,17,17,17,17,17,17,17,
17,17,17,17,17,17,17,17,17,17,17,17,17,17,17,17,
17,17,17,17,17,17,17,17,17,17,17,17,17,17,17,17,
0,0,0,0,0,0,0,0,17,17,17,17,17,17,17,17,
0,0,0,0,0,0,0,0,0,0,0,0,0,0,0,0,
0,0,0,0,0,0,0,0,0,0,0,0,0,0,0,0
</chunk>
   <chunk x="32" y="0" width="16" height="16">
17,17,17,17,17,17,17,0,0,0,0,0,0,0,0,0,
17,17,17,17,17,17,17,0,0,0,0,0,0,0,0,0,
17,17,17,17,17,17,17,0,0,0,0,0,0,0,0,0,
17,17,17,17,17,17,17,17,0,0,0,0,0,0,0,0,
17,17,17,17,17,17,17,17,0,0,0,0,0,0,0,0,
17,17,17,17,17,17,17,17,17,17,17,17,17,17,17,17,
17,17,17,17,17,17,17,17,17,17,17,17,17,17,17,17,
17,17,17,17,17,17,17,17,17,17,17,17,17,17,17,17,
17,17,17,17,17,17,17,17,17,17,17,17,17,17,17,17,
17,17,17,17,17,17,17,17,17,17,17,17,17,17,17,17,
17,17,17,17,17,17,17,17,17,17,17,17,17,17,17,17,
17,17,17,17,17,17,17,17,17,17,17,17,17,17,17,17,
17,17,17,17,17,17,17,17,17,17,17,17,17,17,17,17,
17,17,0,0,0,0,0,0,0,0,17,17,17,17,17,17,
0,0,0,0,0,0,0,0,0,0,0,0,0,0,17,17,
0,0,0,0,0,0,0,0,0,0,0,0,0,0,0,17
</chunk>
   <chunk x="48" y="0" width="16" height="16">
0,0,0,0,0,0,0,0,0,0,0,0,0,0,0,0,
0,0,0,0,0,0,0,0,0,0,0,0,0,0,0,0,
0,0,0,0,0,0,0,0,0,0,0,0,0,0,0,0,
0,0,0,0,0,0,0,0,0,0,0,0,0,0,17,17,
0,0,0,0,0,0,0,0,0,0,0,0,17,17,17,17,
17,17,0,0,0,0,0,17,17,17,17,17,17,17,17,17,
17,17,0,0,0,0,0,17,17,17,17,17,17,17,17,17,
17,17,0,0,0,0,0,17,17,17,17,17,17,17,17,17,
17,17,0,0,0,0,0,17,17,17,17,17,17,17,17,17,
17,17,0,0,0,0,0,17,17,17,17,17,17,17,17,17,
17,17,0,0,0,0,0,17,17,17,17,17,17,17,17,17,
17,17,0,0,0,0,0,17,17,17,17,17,17,17,17,17,
17,17,0,0,0,0,0,17,17,17,17,17,17,17,17,17,
17,17,0,0,0,0,0,0,0,0,0,0,0,0,0,0,
17,17,0,0,0,0,0,0,0,0,0,0,0,0,0,0,
17,17,0,0,0,0,0,0,0,0,0,0,0,0,0,0
</chunk>
   <chunk x="64" y="0" width="16" height="16">
0,0,0,0,0,0,17,17,17,17,17,17,17,17,17,17,
0,0,0,0,0,17,17,17,17,17,17,17,17,17,17,17,
0,17,17,17,17,17,17,17,17,17,17,17,17,17,17,17,
17,17,17,17,17,17,17,17,17,17,17,17,17,17,17,17,
17,17,17,17,17,17,17,17,17,17,17,17,17,17,17,17,
17,17,17,17,17,17,17,17,17,17,17,17,17,17,17,17,
17,17,17,17,17,17,17,17,17,17,17,17,17,17,17,17,
17,17,17,17,17,17,17,17,17,17,17,17,17,17,17,17,
17,17,17,17,17,17,17,17,17,17,17,17,17,17,17,17,
17,17,17,17,17,17,17,17,17,17,17,17,17,17,17,17,
17,17,17,17,17,17,17,17,17,17,17,17,17,17,17,17,
17,17,17,17,17,17,17,17,17,17,17,17,17,17,17,17,
17,17,17,17,17,17,17,17,17,17,17,17,17,17,17,17,
0,0,0,0,0,0,0,0,0,0,0,17,17,17,17,0,
0,0,0,0,0,0,0,0,0,0,0,0,0,0,0,0,
0,0,0,0,0,0,0,0,0,0,0,0,0,0,0,0
</chunk>
   <chunk x="80" y="0" width="16" height="16">
17,17,17,17,17,17,17,17,17,17,17,17,17,0,0,0,
17,17,17,17,17,17,17,17,17,17,17,17,17,0,0,0,
17,17,17,17,17,17,17,17,17,17,17,17,17,0,0,0,
17,17,17,17,17,17,17,17,17,17,17,17,0,0,0,0,
17,17,17,17,17,17,17,17,17,17,17,17,0,0,0,0,
17,17,17,17,17,17,17,17,17,17,17,0,0,0,0,0,
17,17,17,17,17,17,17,17,17,17,0,0,0,0,0,0,
17,17,17,17,17,17,17,17,17,0,0,0,0,0,0,0,
17,17,17,17,17,17,17,17,0,0,0,0,0,0,0,0,
17,17,17,17,17,17,17,0,0,0,0,0,0,0,0,0,
17,17,17,17,17,17,17,0,0,0,0,0,0,0,0,0,
17,17,17,17,17,0,0,0,0,0,0,0,0,0,0,0,
17,17,17,0,0,0,0,0,0,0,0,0,0,0,0,0,
0,0,0,0,0,0,0,0,0,0,0,0,0,0,0,0,
0,0,0,0,0,0,0,0,0,0,0,0,0,0,0,0,
0,0,0,0,0,0,0,0,0,0,0,0,0,0,0,0
</chunk>
   <chunk x="32" y="16" width="16" height="16">
0,0,0,0,0,0,0,0,0,0,0,0,0,0,0,17,
0,0,0,0,0,0,0,0,0,0,0,0,0,0,0,17,
0,0,0,0,0,0,0,0,0,0,0,0,0,0,0,17,
0,0,0,0,0,0,0,0,0,0,0,0,0,0,0,0,
0,0,0,0,0,0,0,0,0,0,0,0,0,0,0,0,
0,0,0,0,0,0,0,0,0,0,0,0,0,0,0,0,
0,0,0,0,0,0,0,0,0,0,0,0,0,0,0,0,
0,0,0,0,0,0,0,0,0,0,0,0,0,0,0,0,
0,0,0,0,0,0,0,0,0,0,0,0,0,0,0,0,
0,0,0,0,0,0,0,0,0,0,0,0,0,0,0,0,
0,0,0,0,0,0,0,0,0,0,0,0,0,0,0,0,
0,0,0,0,0,0,0,0,0,0,0,0,0,0,0,0,
0,0,0,0,0,0,0,0,0,0,0,0,0,0,0,0,
0,0,0,0,0,0,0,0,0,0,0,0,0,0,0,0,
0,0,0,0,0,0,0,0,0,0,0,0,0,0,0,0,
0,0,0,0,0,0,0,0,0,0,0,0,0,0,0,0
</chunk>
   <chunk x="48" y="16" width="16" height="16">
17,17,0,0,0,0,0,0,0,0,0,0,0,0,0,0,
17,0,0,0,0,0,0,0,0,0,0,0,0,0,0,0,
0,0,0,0,0,0,0,0,0,0,0,0,0,0,0,0,
0,0,0,0,0,0,0,0,0,0,0,0,0,0,0,0,
0,0,0,0,0,0,0,0,0,0,0,0,0,0,0,0,
0,0,0,0,0,0,0,0,0,0,0,0,0,0,0,0,
0,0,0,0,0,0,0,0,0,0,0,0,0,0,0,0,
0,0,0,0,0,0,0,0,0,0,0,0,0,0,0,0,
0,0,0,0,0,0,0,0,0,0,0,0,0,0,17,17,
0,0,0,0,0,0,0,0,0,0,0,0,17,17,17,17,
0,0,0,0,0,0,0,0,0,0,0,17,17,17,17,17,
0,0,0,0,0,0,0,0,0,0,0,17,17,17,17,17,
0,0,0,0,0,0,0,0,0,0,0,17,17,17,17,17,
0,0,0,0,0,0,0,0,0,0,0,17,17,17,17,17,
0,0,0,0,0,0,0,0,0,0,0,17,17,17,17,17,
0,0,0,0,0,0,0,0,0,0,0,17,17,17,17,17
</chunk>
   <chunk x="64" y="16" width="16" height="16">
0,0,0,0,0,0,0,0,0,0,0,0,0,0,0,0,
0,0,0,0,0,0,0,0,0,0,0,0,0,0,0,0,
0,0,0,0,0,0,0,0,0,0,0,0,0,0,0,0,
0,0,0,0,0,0,0,0,0,0,0,0,0,0,0,0,
0,0,0,0,0,0,0,0,0,0,0,0,0,0,0,0,
0,0,0,0,0,0,0,0,0,0,0,0,0,0,0,0,
0,0,0,0,0,0,0,0,0,0,0,0,0,0,0,0,
0,0,0,0,0,0,0,0,0,0,0,0,0,0,0,0,
17,17,17,17,17,0,0,0,0,0,0,0,0,0,0,0,
17,17,17,17,17,17,17,0,0,0,0,0,0,0,0,0,
17,17,17,17,17,17,17,0,0,0,0,0,0,0,0,0,
17,17,17,17,17,17,17,0,0,0,0,0,0,0,0,0,
17,17,17,17,17,17,17,0,0,0,0,0,0,0,0,0,
17,17,17,17,17,0,0,0,0,0,0,0,0,0,0,0,
17,17,17,17,17,17,0,0,0,0,0,0,0,0,0,0,
17,17,17,17,17,17,0,0,0,0,0,0,0,0,0,0
</chunk>
   <chunk x="32" y="32" width="16" height="16">
0,0,0,0,0,0,0,0,0,0,0,0,0,0,0,0,
0,0,0,0,0,0,0,0,0,0,0,0,0,0,0,0,
0,0,0,0,0,0,0,0,0,0,0,0,0,0,0,0,
0,0,0,0,0,0,0,0,0,0,0,0,0,0,0,0,
0,0,0,0,0,0,0,0,0,0,0,0,0,0,0,0,
0,0,0,0,0,0,0,0,0,17,17,17,17,0,0,0,
0,0,0,0,0,0,0,0,0,17,17,17,17,0,0,0,
0,0,0,0,0,0,0,0,0,17,17,17,17,0,0,0,
0,0,0,0,0,0,0,0,0,17,17,17,17,0,0,0,
0,0,0,0,0,0,0,0,0,17,17,17,17,0,0,0,
0,0,0,0,0,0,0,0,0,17,17,17,17,0,0,0,
0,0,0,0,0,0,0,0,0,17,17,17,17,17,17,0,
0,0,0,0,0,0,0,0,0,17,17,17,17,17,17,17,
0,0,0,0,0,0,0,0,0,0,0,0,0,0,0,0,
0,0,0,0,0,0,0,0,0,0,0,0,0,0,0,0,
0,0,0,0,0,0,0,0,0,0,0,0,0,0,0,0
</chunk>
   <chunk x="48" y="32" width="16" height="16">
0,0,0,0,0,0,0,0,0,0,0,17,17,17,17,17,
0,0,0,0,0,0,0,0,0,0,0,17,17,17,17,17,
0,0,0,0,0,0,0,0,0,0,0,17,17,17,17,17,
0,0,0,0,0,0,0,0,0,0,0,17,17,17,17,17,
0,0,0,0,0,0,0,0,0,0,0,17,17,17,17,17,
0,0,0,0,0,0,0,0,0,0,0,17,17,17,17,17,
0,0,0,0,0,0,0,0,0,0,17,17,17,17,17,17,
0,0,0,0,0,0,0,0,0,0,17,17,17,17,17,17,
0,0,0,0,0,0,0,0,0,0,17,17,17,17,17,17,
0,0,0,0,0,0,0,0,0,0,17,17,17,17,17,17,
0,0,0,0,0,0,0,0,0,0,17,17,17,17,17,17,
0,0,0,0,0,0,0,0,0,0,17,17,17,17,17,17,
17,0,0,0,0,0,0,0,0,0,17,17,17,17,17,17,
0,0,0,0,0,0,0,0,0,0,0,0,0,0,0,0,
0,0,0,0,0,0,0,0,0,0,0,0,0,0,0,0,
0,0,0,0,0,0,0,0,0,0,0,0,0,0,0,0
</chunk>
   <chunk x="64" y="32" width="16" height="16">
17,17,17,17,17,17,17,0,0,0,0,0,0,0,0,0,
17,17,17,17,17,17,17,0,0,0,0,0,0,0,0,0,
17,17,17,17,17,17,17,0,0,0,0,0,0,0,0,0,
17,17,17,17,17,17,17,0,0,0,0,0,0,0,0,0,
17,17,17,17,17,17,17,0,0,0,0,0,0,0,0,0,
17,17,17,17,17,17,17,0,0,0,0,0,0,0,0,0,
17,17,17,17,17,17,17,0,0,0,0,0,0,0,0,0,
17,17,17,17,17,17,17,0,0,0,0,0,0,0,0,0,
17,17,17,17,17,17,17,0,0,0,0,0,0,0,0,0,
17,17,17,17,17,17,17,0,0,0,0,0,0,0,0,0,
17,17,17,17,17,17,17,0,0,0,0,0,0,0,0,0,
17,17,17,17,17,17,17,17,17,17,17,17,17,17,17,17,
17,17,17,17,17,17,17,17,17,17,17,17,17,17,17,17,
0,0,0,0,0,0,0,0,0,0,0,0,0,0,0,0,
0,0,0,0,0,0,0,0,0,0,0,0,0,0,0,0,
0,0,0,0,0,0,0,0,0,0,0,0,0,0,0,0
</chunk>
  </data>
 </layer>
 <layer id="2" name="temp" width="4" height="4">
  <data encoding="csv">
   <chunk x="-32" y="-64" width="16" height="16">
0,0,0,0,17,17,17,17,17,17,17,17,17,17,17,17,
0,0,0,0,17,17,17,17,17,17,17,17,17,17,17,17,
0,0,0,0,17,17,17,17,17,17,17,17,17,17,17,17,
0,0,0,0,0,0,0,0,0,0,0,0,0,0,0,0,
0,0,0,0,0,0,0,0,0,0,0,0,0,0,0,0,
0,0,0,0,0,0,0,0,0,0,0,0,0,0,0,0,
0,0,0,0,0,0,0,0,0,0,0,0,0,0,0,0,
0,0,0,0,0,0,0,0,0,0,0,0,0,0,0,0,
0,0,0,0,0,0,0,0,0,0,0,0,0,0,0,0,
0,0,0,0,0,0,0,0,0,0,0,0,0,0,0,0,
0,0,0,0,0,0,0,0,0,0,0,0,0,0,0,0,
0,0,0,0,0,0,0,0,0,0,0,0,0,0,0,0,
0,0,0,0,0,0,0,0,0,0,0,0,0,0,0,0,
0,0,0,0,0,0,0,0,0,0,0,0,0,0,0,0,
0,0,0,0,0,0,0,0,0,0,0,0,0,0,0,0,
0,0,0,0,0,0,0,0,0,0,0,0,0,0,0,0
</chunk>
   <chunk x="-16" y="-64" width="16" height="16">
17,17,17,17,17,17,17,17,17,17,17,17,17,17,0,0,
17,17,17,17,17,17,17,17,17,17,17,17,17,17,0,0,
17,17,17,17,17,17,17,17,17,17,17,17,17,17,0,0,
0,0,0,0,0,0,0,0,0,0,0,0,0,0,0,0,
0,0,0,0,0,0,0,0,0,0,0,0,0,0,0,0,
0,0,0,0,0,0,0,0,0,0,0,0,0,0,0,0,
0,0,0,0,0,0,0,0,0,0,0,0,0,0,0,0,
0,0,0,0,0,0,0,0,0,0,0,0,0,0,0,0,
0,0,0,0,0,0,0,0,0,0,0,0,0,0,0,0,
0,0,0,0,0,0,0,0,0,0,0,0,0,0,0,0,
0,0,0,0,0,0,0,0,0,0,0,0,0,0,0,0,
0,0,0,0,0,0,0,0,0,0,0,0,0,0,0,0,
0,0,0,0,0,0,0,0,0,0,0,0,0,0,0,0,
0,0,0,0,0,0,0,0,0,0,0,0,0,0,0,0,
0,0,0,0,0,0,0,0,0,0,0,0,0,0,0,0,
0,0,0,0,0,0,0,0,0,0,0,0,0,0,0,0
</chunk>
   <chunk x="-32" y="-48" width="16" height="16">
0,0,0,0,0,0,0,0,0,0,0,0,0,0,0,0,
0,0,0,0,0,0,0,0,0,0,0,0,0,0,0,0,
0,0,0,0,0,0,0,0,0,0,0,0,0,0,0,0,
0,0,0,0,0,0,0,0,0,0,0,0,0,0,0,0,
0,0,0,0,0,0,0,0,0,0,17,17,17,17,17,17,
0,0,0,0,0,0,0,0,0,0,17,17,17,17,17,17,
0,0,0,0,0,0,0,0,0,0,17,17,17,17,17,17,
0,0,0,0,0,0,0,0,0,0,17,17,17,17,17,17,
0,0,0,0,0,0,0,0,0,17,17,17,17,17,17,17,
0,0,0,0,0,0,0,0,0,17,17,17,17,17,17,17,
0,0,0,0,0,0,0,0,0,17,17,17,17,17,17,17,
0,0,0,0,0,0,0,0,0,17,17,17,17,17,17,17,
0,0,0,0,0,0,0,0,0,17,17,17,17,17,17,17,
0,0,0,0,0,0,0,0,0,17,17,17,17,17,17,17,
0,0,0,0,0,0,0,0,0,17,17,17,17,17,17,17,
0,0,0,0,0,0,0,0,0,17,17,17,17,17,17,17
</chunk>
   <chunk x="-16" y="-48" width="16" height="16">
0,0,0,0,0,0,0,0,0,0,0,0,0,0,0,0,
0,0,0,0,0,0,0,0,0,0,0,0,0,0,0,0,
0,0,0,0,0,0,0,0,0,0,0,0,0,0,0,0,
0,0,0,0,0,0,0,0,0,0,0,0,0,0,0,0,
17,17,17,17,17,17,17,17,17,17,0,0,0,0,0,0,
17,17,17,17,17,17,17,17,17,17,0,0,0,0,0,0,
17,17,17,17,17,17,17,17,17,17,0,0,0,0,0,0,
17,17,17,17,17,17,17,17,17,17,0,0,0,0,0,0,
17,17,17,17,17,17,17,17,17,17,0,0,0,0,0,0,
17,17,17,17,17,17,17,17,17,17,0,0,0,0,0,0,
17,17,17,17,17,17,17,17,17,17,0,0,0,0,0,0,
17,17,17,17,17,17,17,17,17,21,0,0,0,0,0,0,
17,17,17,17,17,17,17,17,17,0,0,0,0,0,0,0,
17,17,17,17,17,17,17,17,17,0,0,0,0,0,0,0,
17,17,17,17,17,17,17,17,17,0,0,0,0,0,0,0,
17,17,17,17,17,17,17,17,17,0,0,0,0,0,0,0
</chunk>
   <chunk x="80" y="-48" width="16" height="16">
0,0,0,0,0,0,0,0,0,0,0,0,0,0,0,0,
0,0,0,0,0,0,0,0,0,0,0,0,0,0,0,0,
0,0,0,0,0,0,0,0,0,0,0,0,0,0,0,0,
0,0,0,0,0,0,0,0,0,0,0,0,0,0,0,0,
0,0,0,0,0,0,0,0,0,0,0,0,0,0,0,0,
0,0,0,0,0,0,0,0,0,0,0,0,0,0,0,0,
0,0,0,0,0,0,0,0,0,0,0,0,0,0,0,0,
0,0,0,0,0,0,0,0,0,0,0,0,0,0,0,0,
0,0,0,0,0,0,0,0,0,0,0,0,0,0,0,0,
0,0,0,0,0,0,0,0,0,0,0,0,0,0,0,0,
0,0,0,0,0,0,0,0,0,0,0,0,0,0,0,0,
0,0,0,0,0,0,0,0,0,0,0,0,0,0,0,0,
0,0,0,0,0,0,0,0,0,0,0,0,0,0,0,0,
0,0,0,0,0,0,0,0,0,0,0,0,0,0,0,0,
0,0,0,0,0,0,0,0,0,0,0,0,0,0,0,0,
0,0,0,0,0,0,0,0,0,0,0,0,0,0,0,10
</chunk>
   <chunk x="96" y="-48" width="16" height="16">
0,0,0,0,0,0,0,0,0,0,0,0,0,0,0,0,
0,0,0,0,0,0,0,0,0,0,0,0,0,0,0,0,
0,0,0,0,0,0,0,0,0,0,0,0,0,0,0,0,
0,0,0,0,0,0,0,0,0,0,0,0,0,0,0,0,
0,0,0,0,0,0,0,0,0,0,0,0,0,0,0,0,
0,0,0,0,0,0,0,0,0,0,0,0,0,0,0,0,
0,0,0,0,0,0,0,0,0,0,0,0,0,0,0,0,
0,0,0,0,0,0,0,0,0,0,0,0,0,0,0,0,
0,0,0,0,0,0,0,0,0,0,0,0,0,0,0,0,
0,0,0,0,0,0,0,0,0,0,0,0,0,0,0,0,
0,0,0,0,0,0,0,0,0,0,0,0,0,0,0,0,
0,0,0,0,0,0,0,0,0,0,0,0,0,0,0,0,
0,0,0,0,0,0,0,0,0,0,0,0,0,0,0,0,
0,10,17,17,17,17,17,17,17,17,17,11,0,0,0,0,
10,17,17,17,17,17,17,17,17,17,17,17,0,0,0,0,
17,17,17,17,17,17,17,17,17,17,17,21,0,0,0,0
</chunk>
   <chunk x="-32" y="-32" width="16" height="16">
0,0,0,0,0,0,0,0,0,17,17,17,17,17,17,17,
0,0,0,0,0,0,0,0,0,17,17,17,17,17,17,17,
0,0,0,0,0,0,0,0,0,20,17,17,17,17,17,17,
0,0,0,0,0,0,0,0,0,0,17,17,17,17,17,17,
0,0,0,0,0,0,0,0,0,0,17,17,17,17,17,17,
0,0,0,0,0,0,0,0,0,0,17,17,17,17,17,17,
0,0,0,0,0,0,0,0,0,0,17,17,17,17,17,17,
0,0,0,0,0,0,0,0,0,0,20,17,17,17,17,17,
0,0,0,0,0,0,0,0,0,0,0,17,17,17,17,17,
0,0,0,0,0,0,0,0,0,0,0,17,17,17,17,17,
0,0,0,0,0,0,0,0,0,0,0,17,17,17,17,17,
0,0,0,0,0,0,0,0,0,0,0,17,17,17,17,17,
0,0,0,0,0,0,0,0,0,0,0,20,17,17,17,17,
0,0,0,0,0,0,0,0,0,0,0,0,17,17,17,17,
0,0,0,0,0,0,0,0,0,0,0,0,17,17,17,17,
0,0,0,0,0,0,0,0,0,0,0,0,17,17,17,17
</chunk>
   <chunk x="-16" y="-32" width="16" height="16">
17,17,17,17,17,17,17,17,17,0,0,0,0,0,0,0,
17,17,17,17,17,17,17,17,17,0,0,0,0,0,0,0,
17,17,17,17,17,17,17,17,17,0,0,0,0,0,0,0,
17,17,17,17,17,17,17,17,17,0,0,0,0,0,0,0,
17,17,17,17,17,17,17,17,17,0,0,0,0,0,0,0,
17,17,17,17,17,17,17,17,17,0,0,0,0,0,0,0,
17,17,17,17,17,17,17,17,17,0,0,0,0,0,0,0,
17,17,17,17,17,17,17,17,17,0,0,0,0,0,0,0,
17,17,17,17,17,17,17,17,17,0,0,0,0,0,0,0,
17,17,17,17,17,17,17,17,17,0,0,0,0,0,0,0,
17,17,17,17,17,17,17,17,21,0,0,0,0,0,0,0,
17,17,17,17,17,17,17,17,0,0,0,0,0,0,0,0,
17,17,17,17,17,17,17,21,0,0,0,0,0,0,0,0,
17,17,17,17,17,17,17,0,0,0,0,0,0,0,0,0,
17,17,17,17,17,17,17,0,0,0,0,0,0,0,0,0,
17,17,17,17,17,17,17,0,0,0,0,0,0,0,0,0
</chunk>
   <chunk x="64" y="-32" width="16" height="16">
0,0,0,0,0,0,0,0,0,0,0,0,0,0,0,0,
0,0,0,0,0,0,0,0,0,0,0,0,0,0,0,0,
0,0,0,0,0,0,0,0,0,0,0,0,0,0,0,0,
0,0,0,0,0,0,0,27,28,17,0,0,0,0,0,0,
0,0,0,0,0,0,10,17,17,17,0,0,0,0,0,0,
0,0,0,0,0,10,17,17,17,17,0,0,0,0,0,0,
0,0,0,0,0,17,17,17,17,17,17,17,17,17,17,17,
0,0,0,0,0,17,17,17,17,17,17,17,17,17,17,17,
0,0,0,0,0,17,17,17,17,17,17,17,17,17,17,17,
0,0,0,0,0,17,17,17,17,17,17,17,17,17,17,39,
0,0,0,0,0,17,17,17,17,17,17,17,17,17,17,0,
0,0,0,0,0,17,17,17,17,17,17,17,17,17,17,17,
0,0,0,0,0,17,17,17,17,17,17,17,17,17,17,17,
0,0,0,0,0,17,17,17,17,17,17,17,17,17,17,17,
0,0,0,0,0,17,17,17,17,17,17,17,17,17,17,17,
0,0,0,0,0,17,17,17,17,17,17,17,17,17,17,17
</chunk>
   <chunk x="80" y="-32" width="16" height="16">
0,0,0,0,0,0,0,0,0,0,0,0,0,0,10,17,
0,0,0,0,0,0,0,0,0,0,0,0,0,10,17,17,
0,0,0,0,0,0,0,0,0,0,0,27,28,17,17,17,
0,0,0,0,0,0,0,0,0,0,17,17,17,17,17,17,
0,0,0,0,0,0,0,0,0,0,17,17,17,17,17,17,
0,0,0,0,0,0,0,27,28,17,17,17,17,17,17,17,
17,17,17,17,17,17,17,17,17,17,17,17,39,40,0,0,
17,17,17,17,17,17,17,17,17,17,39,40,0,0,0,0,
17,17,17,17,17,17,17,39,40,0,0,0,0,0,0,0,
40,37,38,17,17,39,40,0,0,0,0,0,0,0,0,0,
0,0,0,0,0,0,0,0,0,0,0,0,0,0,0,0,
11,0,0,0,0,0,0,27,28,17,17,17,17,17,17,17,
17,11,0,0,0,0,10,17,17,17,17,17,17,17,17,17,
17,17,11,0,0,0,17,17,17,17,17,17,17,17,17,17,
17,17,17,0,0,0,17,17,17,17,17,17,17,17,17,17,
17,17,17,0,0,0,17,17,17,17,17,17,17,17,17,17
</chunk>
   <chunk x="96" y="-32" width="16" height="16">
17,17,17,17,17,17,17,17,17,17,17,0,0,0,0,0,
17,17,17,17,17,17,17,17,17,17,17,0,0,0,0,0,
17,17,17,17,17,17,17,17,17,17,21,0,0,0,0,0,
17,17,17,17,17,17,17,17,17,21,0,0,0,0,0,0,
17,17,17,17,17,17,17,17,17,0,0,0,0,0,0,0,
17,17,17,17,17,17,17,17,21,0,0,0,0,0,0,0,
0,0,0,0,0,0,0,0,0,0,0,0,0,0,0,0,
0,0,0,0,0,0,0,0,0,0,0,0,0,0,0,0,
0,0,0,0,0,0,0,0,0,0,0,0,0,0,0,0,
0,0,0,0,0,0,0,0,0,0,0,0,0,0,0,0,
0,0,0,0,0,0,0,0,0,0,0,0,0,0,0,0,
17,17,17,17,17,17,17,17,17,17,17,17,17,17,17,17,
17,17,17,17,17,17,17,17,17,17,17,17,17,17,17,17,
17,17,17,17,17,17,17,17,17,17,17,17,17,17,17,17,
17,17,17,17,17,17,17,17,17,17,17,17,17,17,17,17,
17,17,17,17,17,17,17,17,17,17,17,17,17,17,17,17
</chunk>
   <chunk x="112" y="-32" width="16" height="16">
0,0,0,0,0,0,0,0,0,0,0,0,0,0,0,0,
0,0,0,0,0,0,0,0,0,0,0,0,0,0,0,0,
0,0,0,0,0,0,0,0,0,0,0,0,0,0,0,0,
0,0,0,0,0,0,0,0,0,0,0,0,0,0,0,0,
0,0,0,0,0,0,0,0,0,0,0,0,0,0,0,0,
0,0,0,0,0,0,0,0,0,0,0,0,0,0,0,0,
0,0,0,0,0,0,0,0,0,0,0,0,0,0,0,0,
0,0,0,0,0,0,0,0,0,0,0,0,0,0,0,0,
0,0,0,0,0,0,0,0,0,0,0,0,0,0,0,0,
0,0,0,0,0,0,0,0,0,0,0,0,0,0,0,0,
0,0,0,0,0,0,0,0,0,0,0,0,0,0,0,0,
17,17,0,0,0,0,0,0,0,0,0,0,0,0,0,0,
17,17,0,0,0,0,0,0,0,0,0,0,0,0,0,0,
17,17,0,0,0,0,0,0,0,0,0,0,0,0,0,0,
17,17,0,0,0,0,0,0,0,0,0,0,0,0,0,0,
17,17,0,0,0,0,0,0,0,0,0,0,0,0,0,0
</chunk>
   <chunk x="-32" y="-16" width="16" height="16">
0,0,0,0,0,0,0,0,0,0,0,0,17,17,17,17,
0,0,0,0,0,0,0,0,0,0,0,0,20,17,17,17,
0,0,0,0,0,0,0,0,0,0,0,0,0,17,17,17,
0,0,0,0,0,0,0,0,0,0,0,0,0,17,17,17,
0,0,0,0,0,0,0,0,0,0,0,0,0,20,17,17,
0,0,0,0,0,0,0,0,0,0,0,0,0,0,20,17,
0,0,0,0,0,0,0,0,0,0,0,0,0,0,0,20,
0,0,0,0,0,0,0,0,0,0,0,0,0,0,0,0,
0,0,0,0,0,0,0,0,0,0,0,0,0,0,0,0,
0,0,0,0,0,0,0,0,0,0,0,0,0,0,0,0,
0,0,0,0,0,0,0,0,0,0,0,0,0,0,0,0,
0,0,0,0,0,0,0,0,0,0,0,0,0,0,0,0,
0,0,0,0,0,0,0,0,0,0,0,0,0,0,0,0,
0,0,0,0,0,0,0,0,0,0,0,0,0,0,0,0,
0,0,0,0,0,0,0,0,0,0,0,0,0,0,0,0,
0,0,0,0,0,0,0,0,0,0,0,0,0,0,0,0
</chunk>
   <chunk x="-16" y="-16" width="16" height="16">
17,17,17,17,17,17,17,0,0,0,0,0,0,0,0,0,
17,17,17,17,17,17,17,0,0,0,0,0,0,0,0,0,
17,17,17,17,17,17,17,17,17,17,17,17,17,17,17,17,
17,17,17,17,17,17,17,17,17,17,17,17,17,17,17,17,
17,17,17,17,17,17,17,17,17,17,17,17,17,17,17,17,
17,17,17,17,17,17,17,17,17,17,17,17,17,17,17,17,
17,17,17,17,17,17,17,17,17,17,17,17,17,17,17,17,
0,0,37,38,17,17,17,17,17,17,17,17,17,17,17,17,
0,0,0,0,17,17,17,17,17,17,17,17,17,17,17,17,
0,0,0,0,17,17,17,17,17,17,17,17,17,17,17,17,
0,0,0,0,17,17,17,17,17,17,17,17,17,17,17,17,
0,0,0,0,17,17,17,17,17,17,17,17,17,17,17,17,
0,0,0,0,20,17,17,17,17,17,17,17,17,17,17,17,
0,0,0,0,0,17,17,17,17,17,17,17,17,17,17,17,
0,0,0,0,0,17,17,17,17,17,17,17,17,17,17,17,
0,0,0,0,0,20,17,17,17,17,17,17,17,17,17,17
</chunk>
   <chunk x="0" y="-16" width="16" height="16">
0,0,0,0,0,0,0,0,0,0,0,0,0,0,0,0,
0,0,0,0,0,0,0,0,0,0,0,0,0,0,0,0,
17,17,17,17,17,17,17,17,17,17,17,17,17,17,17,17,
17,17,17,17,17,17,17,17,17,17,17,17,17,17,17,17,
17,17,17,17,17,17,17,17,17,17,17,17,17,17,17,17,
17,17,17,17,17,17,17,17,17,17,17,17,17,17,17,17,
17,17,17,17,17,17,17,17,17,17,17,17,17,17,17,17,
17,17,17,17,17,17,17,17,17,17,17,17,17,17,17,17,
17,17,17,17,17,17,17,17,17,17,17,17,17,17,17,17,
17,17,17,17,17,17,17,17,17,17,17,17,17,17,17,17,
17,17,17,17,17,17,17,17,17,17,17,17,17,17,17,17,
17,17,17,17,17,17,17,17,17,17,17,17,17,17,17,17,
17,17,17,17,17,17,17,17,17,17,17,17,17,17,17,17,
17,17,17,17,17,17,17,17,17,17,17,17,17,17,17,17,
17,17,17,17,17,17,17,17,17,17,17,17,17,17,17,17,
17,17,17,17,17,17,17,17,17,17,17,17,17,17,17,17
</chunk>
   <chunk x="16" y="-16" width="16" height="16">
0,0,0,0,0,0,0,0,0,0,0,0,0,0,0,0,
0,0,0,0,0,27,28,17,17,17,17,17,17,29,30,0,
17,17,17,17,17,17,17,17,17,17,17,17,17,17,17,17,
17,17,17,17,17,17,17,17,17,17,17,17,17,17,17,17,
17,17,17,17,17,17,17,17,17,17,17,17,17,17,17,17,
17,17,17,17,17,17,17,17,17,17,17,17,17,17,17,17,
17,17,17,17,17,17,17,17,17,17,17,17,17,17,17,17,
17,17,17,17,17,17,17,17,17,17,17,17,17,17,17,17,
17,17,17,17,17,17,17,17,17,17,17,17,17,17,17,17,
17,17,17,17,17,17,17,17,17,17,17,17,17,17,17,17,
17,17,17,17,17,17,17,17,17,17,17,17,17,17,17,17,
17,17,17,17,17,17,17,17,17,17,17,17,17,17,17,17,
17,17,17,17,17,17,17,17,17,17,17,17,17,17,17,17,
17,17,17,17,17,17,17,17,17,17,17,17,17,17,17,17,
17,17,17,17,17,17,17,17,17,17,17,17,17,17,17,17,
17,17,17,17,17,17,17,17,17,17,17,17,17,17,17,17
</chunk>
   <chunk x="32" y="-16" width="16" height="16">
0,0,0,0,0,0,0,0,0,0,0,0,0,0,0,0,
0,0,0,0,0,0,0,0,0,0,0,0,0,0,0,0,
17,17,17,29,30,0,0,0,0,0,0,0,0,0,0,0,
17,17,17,17,17,0,0,0,0,0,0,0,0,0,0,0,
17,17,17,17,17,0,0,0,0,0,0,0,0,0,0,0,
17,17,17,17,17,17,17,29,30,0,0,0,0,0,0,0,
17,17,17,17,17,17,17,17,17,29,30,0,0,0,0,0,
17,17,17,17,17,17,17,17,17,17,17,0,0,0,0,0,
17,17,17,17,17,17,17,17,17,17,17,0,0,0,0,0,
17,17,17,17,17,17,17,17,17,17,0,0,0,0,0,0,
17,17,17,17,17,17,17,17,17,17,0,0,0,0,0,0,
17,17,17,17,17,17,17,17,17,17,17,0,0,0,0,0,
17,17,17,17,17,17,17,17,17,17,17,0,0,0,0,0,
17,17,17,17,17,17,17,39,40,0,0,0,0,0,0,0,
17,17,17,17,17,17,17,0,0,0,0,0,0,0,0,0,
17,17,17,17,17,17,17,0,0,0,0,0,0,0,0,0
</chunk>
   <chunk x="64" y="-16" width="16" height="16">
0,0,0,0,0,20,17,17,17,17,17,17,17,17,17,17,
0,0,0,0,0,0,20,17,17,17,17,17,17,17,17,17,
0,0,0,0,0,0,0,20,17,17,17,17,17,17,17,17,
0,0,0,0,0,0,0,0,17,17,17,17,17,17,17,17,
0,0,0,0,0,0,0,0,0,0,0,0,0,0,0,0,
0,0,0,0,0,0,0,0,0,0,0,0,0,0,0,0,
0,0,0,0,0,0,0,0,0,0,0,0,0,0,0,0,
0,0,0,0,0,0,0,0,0,0,0,0,0,0,0,0,
0,0,0,0,0,0,0,0,0,0,0,0,0,0,0,0,
0,0,0,0,0,0,0,0,0,0,0,0,0,0,0,10,
0,0,0,0,0,0,0,0,0,0,0,0,0,0,10,17,
0,0,0,0,0,0,0,0,0,0,0,0,27,28,17,17,
0,0,0,0,0,0,0,0,0,0,0,10,17,17,17,17,
0,0,0,0,0,0,0,0,0,27,28,17,17,17,17,17,
0,0,0,0,0,0,0,0,10,17,17,17,17,17,17,17,
0,0,0,0,0,0,27,28,17,17,17,17,17,17,17,17
</chunk>
   <chunk x="80" y="-16" width="16" height="16">
17,17,17,0,0,0,17,17,17,17,17,17,17,17,17,17,
17,39,40,0,0,0,17,17,17,17,17,17,17,17,17,17,
17,0,0,0,0,0,17,17,17,17,17,17,17,17,17,17,
21,0,0,0,0,0,17,17,17,17,17,17,17,17,17,17,
0,0,0,0,0,0,17,17,17,17,17,17,17,17,17,17,
0,0,0,0,0,0,17,17,17,17,17,17,17,17,17,21,
0,0,0,0,10,17,17,17,17,17,17,17,17,17,17,0,
0,0,27,28,17,17,17,17,17,17,17,17,17,17,17,0,
27,28,17,17,17,17,17,17,17,17,17,17,17,17,21,0,
17,17,17,17,17,17,17,17,17,17,17,17,17,17,0,0,
17,17,17,17,17,17,17,17,17,17,17,17,17,17,0,0,
17,17,17,17,17,17,17,17,17,17,17,17,17,17,0,0,
17,17,17,17,17,17,17,17,17,17,17,17,17,17,0,0,
17,17,17,17,17,17,17,17,17,17,17,17,17,17,0,0,
17,17,17,17,17,17,17,17,17,17,17,17,17,17,0,0,
17,17,17,17,17,17,17,17,17,17,17,17,17,21,0,0
</chunk>
   <chunk x="96" y="-16" width="16" height="16">
17,17,17,17,17,39,40,0,0,0,0,0,0,0,0,0,
17,17,17,17,21,0,0,0,0,0,0,0,0,0,0,0,
17,17,39,40,0,0,0,0,0,0,0,0,0,0,0,0,
39,40,0,0,0,0,0,0,0,0,0,0,0,0,0,0,
0,0,0,0,0,0,0,0,0,0,0,0,0,0,0,0,
0,0,0,0,0,0,0,0,0,0,0,0,0,0,0,0,
0,0,0,0,0,0,0,0,0,0,0,0,0,0,0,0,
0,0,0,0,0,0,0,0,0,0,0,0,0,0,0,0,
0,0,0,0,0,0,0,0,0,0,0,0,0,0,0,0,
0,0,0,0,0,0,0,0,0,0,0,0,0,0,0,0,
0,0,0,0,0,0,0,0,0,0,0,0,0,0,0,0,
0,0,0,0,0,0,0,0,0,0,0,0,0,0,0,0,
0,0,0,0,0,0,0,0,0,0,0,0,0,0,0,0,
0,0,0,0,0,0,0,0,0,0,0,0,0,0,0,0,
0,0,0,0,0,0,0,0,0,0,0,0,0,0,0,0,
0,0,0,0,0,0,0,0,0,0,0,0,0,0,0,0
</chunk>
   <chunk x="-16" y="0" width="16" height="16">
0,0,0,0,0,0,17,17,17,17,17,17,17,17,17,17,
0,0,0,0,0,0,20,17,17,17,17,17,17,17,17,17,
0,0,0,0,0,0,0,37,38,17,17,17,17,17,17,17,
0,0,0,0,0,0,0,0,0,20,17,17,17,17,17,17,
0,0,0,0,0,0,0,0,0,0,20,17,17,17,17,17,
0,0,0,0,0,0,0,0,0,0,0,17,17,17,17,17,
0,0,0,0,0,0,0,0,0,0,0,17,17,17,17,17,
0,0,0,0,0,0,0,0,0,0,0,20,17,17,17,17,
0,0,0,0,0,0,0,0,0,0,0,0,17,17,17,17,
0,0,0,0,0,0,0,0,0,0,0,0,20,17,17,17,
0,0,0,0,0,0,0,0,0,0,0,0,0,20,17,17,
0,0,0,0,0,0,0,0,0,0,0,0,0,0,20,17,
0,0,0,0,0,0,0,0,0,0,0,0,0,0,0,20,
0,0,0,0,0,0,0,0,0,0,0,0,0,0,0,0,
0,0,0,0,0,0,0,0,0,0,0,0,0,0,0,0,
0,0,0,0,0,0,0,0,0,0,0,0,0,0,0,0
</chunk>
   <chunk x="0" y="0" width="16" height="16">
17,17,17,17,17,17,17,17,17,17,17,17,17,17,17,17,
17,17,17,17,17,17,17,17,17,17,17,17,17,17,17,17,
17,17,17,17,17,17,17,17,17,17,17,17,17,17,17,17,
17,17,17,17,17,17,17,17,17,17,17,17,17,17,17,17,
17,17,17,17,17,17,17,17,17,17,17,17,17,17,17,17,
17,17,17,17,17,17,17,17,17,17,17,17,17,17,17,17,
17,17,17,17,17,17,17,17,17,17,17,17,17,17,17,17,
17,17,17,17,17,17,17,17,17,17,17,17,17,17,17,17,
17,17,17,17,17,17,17,17,17,17,17,17,17,17,17,17,
17,17,17,17,17,17,17,17,17,17,17,17,17,17,17,17,
17,17,17,17,17,17,17,17,17,17,17,17,17,17,17,17,
17,17,17,17,17,17,17,17,17,17,17,17,17,17,17,17,
17,17,17,17,17,17,17,17,17,17,17,17,17,17,17,17,
37,38,17,17,17,17,39,40,0,0,0,0,0,0,0,0,
0,0,0,0,0,0,0,0,0,0,0,0,0,0,0,0,
0,0,0,0,0,0,0,0,0,0,0,0,0,0,0,0
</chunk>
   <chunk x="16" y="0" width="16" height="16">
17,17,17,17,17,17,17,17,17,17,17,17,17,17,17,17,
17,17,17,17,17,17,17,17,17,17,17,17,17,17,17,17,
17,17,17,17,17,17,17,17,17,17,17,17,17,17,17,17,
17,17,17,17,17,17,17,17,17,17,17,17,17,17,17,17,
17,17,17,17,17,17,17,17,17,17,17,17,17,17,17,17,
17,17,17,17,17,17,17,17,17,17,17,17,17,17,17,17,
17,17,17,17,17,17,17,17,17,17,17,17,17,17,17,17,
17,17,17,17,17,17,17,17,17,17,17,17,17,17,17,17,
17,17,17,17,17,17,17,17,17,17,17,17,17,17,17,17,
17,17,17,17,17,17,17,17,17,17,17,17,17,17,17,17,
17,17,17,17,17,17,17,17,17,17,17,17,17,17,17,17,
17,17,17,17,17,17,17,17,17,17,17,17,17,17,17,17,
17,17,17,17,17,17,17,17,17,17,17,17,17,17,17,17,
0,0,0,0,0,0,37,38,17,17,17,17,17,17,17,17,
0,0,0,0,0,0,0,0,0,0,0,0,0,0,0,0,
0,0,0,0,0,0,0,0,0,0,0,0,0,0,0,0
</chunk>
   <chunk x="32" y="0" width="16" height="16">
17,17,17,17,17,17,17,0,0,0,0,0,0,0,0,0,
17,17,17,17,17,17,17,0,0,0,0,0,0,0,0,0,
17,17,17,17,17,17,17,0,0,0,0,0,0,0,0,0,
17,17,17,17,17,17,17,17,0,0,0,0,0,0,0,0,
17,17,17,17,17,17,17,17,0,0,0,0,0,0,0,0,
17,17,17,17,17,17,17,17,17,17,17,17,17,17,17,17,
17,17,17,17,17,17,17,17,17,17,17,17,17,17,17,17,
17,17,17,17,17,17,17,17,17,17,17,17,17,17,17,17,
17,17,17,17,17,17,17,17,17,17,17,17,17,17,17,17,
17,17,17,17,17,17,17,17,17,17,17,17,17,17,17,17,
17,17,17,17,17,17,17,17,17,17,17,17,17,17,17,17,
17,17,17,17,17,17,17,17,17,17,17,17,17,17,17,17,
17,17,17,17,17,17,17,17,17,17,17,17,17,17,17,17,
17,17,39,40,0,0,0,0,37,38,17,17,17,17,17,17,
0,0,0,0,0,0,0,0,0,0,0,0,37,38,17,17,
0,0,0,0,0,0,0,0,0,0,0,0,0,0,20,17
</chunk>
   <chunk x="48" y="0" width="16" height="16">
0,0,0,0,0,0,0,0,0,0,0,0,0,0,0,0,
0,0,0,0,0,0,0,0,0,0,0,0,0,0,0,0,
0,0,0,0,0,0,0,0,0,0,0,0,0,0,0,27,
0,0,0,0,0,0,0,0,0,0,0,0,27,28,17,17,
0,0,0,0,0,0,0,0,0,0,27,28,17,17,17,17,
17,17,0,0,0,0,0,17,17,17,17,17,17,17,17,17,
17,17,0,0,0,0,0,17,17,17,17,17,17,17,17,17,
17,17,0,0,0,0,0,17,17,17,17,17,17,17,17,17,
17,17,0,0,0,0,0,17,17,17,17,17,17,17,17,17,
17,17,0,0,0,0,0,17,17,17,17,17,17,17,17,17,
17,17,0,0,0,0,0,17,17,17,17,17,17,17,17,17,
17,17,0,0,0,0,0,17,17,17,17,17,17,17,17,17,
17,17,0,0,0,0,0,17,17,17,17,17,17,17,17,17,
17,17,0,0,0,0,0,0,0,0,0,0,0,0,0,0,
17,17,0,0,0,0,0,0,0,0,0,0,0,0,0,0,
17,17,0,0,0,0,0,0,0,0,0,0,0,0,0,0
</chunk>
   <chunk x="64" y="0" width="16" height="16">
0,0,0,0,0,10,17,17,17,17,17,17,17,17,17,17,
0,0,0,27,28,17,17,17,17,17,17,17,17,17,17,17,
28,17,17,17,17,17,17,17,17,17,17,17,17,17,17,17,
17,17,17,17,17,17,17,17,17,17,17,17,17,17,17,17,
17,17,17,17,17,17,17,17,17,17,17,17,17,17,17,17,
17,17,17,17,17,17,17,17,17,17,17,17,17,17,17,17,
17,17,17,17,17,17,17,17,17,17,17,17,17,17,17,17,
17,17,17,17,17,17,17,17,17,17,17,17,17,17,17,17,
17,17,17,17,17,17,17,17,17,17,17,17,17,17,17,17,
17,17,17,17,17,17,17,17,17,17,17,17,17,17,17,17,
17,17,17,17,17,17,17,17,17,17,17,17,17,17,17,17,
17,17,17,17,17,17,17,17,17,17,17,17,17,17,17,17,
17,17,17,17,17,17,17,17,17,17,17,17,17,17,17,17,
0,0,0,0,0,0,0,0,0,37,38,17,17,17,17,39,
0,0,0,0,0,0,0,0,0,0,0,0,0,0,0,0,
0,0,0,0,0,0,0,0,0,0,0,0,0,0,0,0
</chunk>
   <chunk x="80" y="0" width="16" height="16">
17,17,17,17,17,17,17,17,17,17,17,17,17,0,0,0,
17,17,17,17,17,17,17,17,17,17,17,17,17,0,0,0,
17,17,17,17,17,17,17,17,17,17,17,17,17,0,0,0,
17,17,17,17,17,17,17,17,17,17,17,17,21,0,0,0,
17,17,17,17,17,17,17,17,17,17,17,17,0,0,0,0,
17,17,17,17,17,17,17,17,17,17,17,21,0,0,0,0,
17,17,17,17,17,17,17,17,17,17,21,0,0,0,0,0,
17,17,17,17,17,17,17,17,17,21,0,0,0,0,0,0,
17,17,17,17,17,17,17,17,21,0,0,0,0,0,0,0,
17,17,17,17,17,17,17,21,0,0,0,0,0,0,0,0,
17,17,17,17,17,17,17,0,0,0,0,0,0,0,0,0,
17,17,17,17,17,39,40,0,0,0,0,0,0,0,0,0,
17,17,17,39,40,0,0,0,0,0,0,0,0,0,0,0,
40,0,0,0,0,0,0,0,0,0,0,0,0,0,0,0,
0,0,0,0,0,0,0,0,0,0,0,0,0,0,0,0,
0,0,0,0,0,0,0,0,0,0,0,0,0,0,0,0
</chunk>
   <chunk x="32" y="16" width="16" height="16">
0,0,0,0,0,0,0,0,0,0,0,0,0,0,0,17,
0,0,0,0,0,0,0,0,0,0,0,0,0,0,0,17,
0,0,0,0,0,0,0,0,0,0,0,0,0,0,0,17,
0,0,0,0,0,0,0,0,0,0,0,0,0,0,0,0,
0,0,0,0,0,0,0,0,0,0,0,0,0,0,0,0,
0,0,0,0,0,0,0,0,0,0,0,0,0,0,0,0,
0,0,0,0,0,0,0,0,0,0,0,0,0,0,0,0,
0,0,0,0,0,0,0,0,0,0,0,0,0,0,0,0,
0,0,0,0,0,0,0,0,0,0,0,0,0,0,0,0,
0,0,0,0,0,0,0,0,0,0,0,0,0,0,0,0,
0,0,0,0,0,0,0,0,0,0,0,0,0,0,0,0,
0,0,0,0,0,0,0,0,0,0,0,0,0,0,0,0,
0,0,0,0,0,0,0,0,0,0,0,0,0,0,0,0,
0,0,0,0,0,0,0,0,0,0,0,0,0,0,0,0,
0,0,0,0,0,0,0,0,0,0,0,0,0,0,0,0,
0,0,0,0,0,0,0,0,0,0,0,0,0,0,0,0
</chunk>
   <chunk x="48" y="16" width="16" height="16">
17,17,0,0,0,0,0,0,0,0,0,0,0,0,0,0,
17,21,0,0,0,0,0,0,0,0,0,0,0,0,0,0,
21,0,0,0,0,0,0,0,0,0,0,0,0,0,0,0,
0,0,0,0,0,0,0,0,0,0,0,0,0,0,0,0,
0,0,0,0,0,0,0,0,0,0,0,0,0,0,0,0,
0,0,0,0,0,0,0,0,0,0,0,0,0,0,0,0,
0,0,0,0,0,0,0,0,0,0,0,0,0,0,0,0,
0,0,0,0,0,0,0,0,0,0,0,0,0,0,0,0,
0,0,0,0,0,0,0,0,0,0,0,0,27,28,17,17,
0,0,0,0,0,0,0,0,0,0,0,10,17,17,17,17,
0,0,0,0,0,0,0,0,0,0,0,17,17,17,17,17,
0,0,0,0,0,0,0,0,0,0,0,17,17,17,17,17,
0,0,0,0,0,0,0,0,0,0,0,17,17,17,17,17,
0,0,0,0,0,0,0,0,0,0,0,17,17,17,17,17,
0,0,0,0,0,0,0,0,0,0,0,17,17,17,17,17,
0,0,0,0,0,0,0,0,0,0,0,17,17,17,17,17
</chunk>
   <chunk x="64" y="16" width="16" height="16">
0,0,0,0,0,0,0,0,0,0,0,0,0,0,0,0,
0,0,0,0,0,0,0,0,0,0,0,0,0,0,0,0,
0,0,0,0,0,0,0,0,0,0,0,0,0,0,0,0,
0,0,0,0,0,0,0,0,0,0,0,0,0,0,0,0,
0,0,0,0,0,0,0,0,0,0,0,0,0,0,0,0,
0,0,0,0,0,0,0,0,0,0,0,0,0,0,0,0,
0,0,0,0,0,0,0,0,0,0,0,0,0,0,0,0,
0,0,0,0,0,0,0,0,0,0,0,0,0,0,0,0,
17,17,17,17,17,29,30,0,0,0,0,0,0,0,0,0,
17,17,17,17,17,17,17,0,0,0,0,0,0,0,0,0,
17,17,17,17,17,17,17,0,0,0,0,0,0,0,0,0,
17,17,17,17,17,17,17,0,0,0,0,0,0,0,0,0,
17,17,17,17,17,17,17,0,0,0,0,0,0,0,0,0,
17,17,17,17,17,0,0,0,0,0,0,0,0,0,0,0,
17,17,17,17,17,17,0,0,0,0,0,0,0,0,0,0,
17,17,17,17,17,17,0,0,0,0,0,0,0,0,0,0
</chunk>
   <chunk x="32" y="32" width="16" height="16">
0,0,0,0,0,0,0,0,0,0,0,0,0,0,0,0,
0,0,0,0,0,0,0,0,0,0,0,0,0,0,0,0,
0,0,0,0,0,0,0,0,0,0,0,0,0,0,0,0,
0,0,0,0,0,0,0,0,0,0,0,0,0,0,0,0,
0,0,0,0,0,0,0,0,0,0,0,0,0,0,0,0,
0,0,0,0,0,0,0,0,0,17,17,17,17,0,0,0,
0,0,0,0,0,0,0,0,0,17,17,17,17,0,0,0,
0,0,0,0,0,0,0,0,0,17,17,17,17,0,0,0,
0,0,0,0,0,0,0,0,0,17,17,17,17,0,0,0,
0,0,0,0,0,0,0,0,0,17,17,17,17,0,0,0,
0,0,0,0,0,0,0,0,0,17,17,17,17,0,0,0,
0,0,0,0,0,0,0,0,0,17,17,17,17,17,17,29,
0,0,0,0,0,0,0,0,0,17,17,17,17,17,17,17,
0,0,0,0,0,0,0,0,0,0,0,0,0,0,0,0,
0,0,0,0,0,0,0,0,0,0,0,0,0,0,0,0,
0,0,0,0,0,0,0,0,0,0,0,0,0,0,0,0
</chunk>
   <chunk x="48" y="32" width="16" height="16">
0,0,0,0,0,0,0,0,0,0,0,17,17,17,17,17,
0,0,0,0,0,0,0,0,0,0,0,17,17,17,17,17,
0,0,0,0,0,0,0,0,0,0,0,17,17,17,17,17,
0,0,0,0,0,0,0,0,0,0,0,17,17,17,17,17,
0,0,0,0,0,0,0,0,0,0,0,17,17,17,17,17,
0,0,0,0,0,0,0,0,0,0,0,17,17,17,17,17,
0,0,0,0,0,0,0,0,0,0,17,17,17,17,17,17,
0,0,0,0,0,0,0,0,0,0,17,17,17,17,17,17,
0,0,0,0,0,0,0,0,0,0,17,17,17,17,17,17,
0,0,0,0,0,0,0,0,0,0,17,17,17,17,17,17,
0,0,0,0,0,0,0,0,0,0,17,17,17,17,17,17,
30,0,0,0,0,0,0,0,0,0,17,17,17,17,17,17,
17,29,30,0,0,0,0,0,0,0,17,17,17,17,17,17,
0,0,0,0,0,0,0,0,0,0,0,0,0,0,0,0,
0,0,0,0,0,0,0,0,0,0,0,0,0,0,0,0,
0,0,0,0,0,0,0,0,0,0,0,0,0,0,0,0
</chunk>
   <chunk x="64" y="32" width="16" height="16">
17,17,17,17,17,17,17,0,0,0,0,0,0,0,0,0,
17,17,17,17,17,17,17,0,0,0,0,0,0,0,0,0,
17,17,17,17,17,17,17,0,0,0,0,0,0,0,0,0,
17,17,17,17,17,17,17,0,0,0,0,0,0,0,0,0,
17,17,17,17,17,17,17,0,0,0,0,0,0,0,0,0,
17,17,17,17,17,17,17,0,0,0,0,0,0,0,0,0,
17,17,17,17,17,17,17,0,0,0,0,0,0,0,0,0,
17,17,17,17,17,17,17,0,0,0,0,0,0,0,0,0,
17,17,17,17,17,17,17,0,0,0,0,0,0,0,0,0,
17,17,17,17,17,17,17,0,0,0,0,0,0,0,0,0,
17,17,17,17,17,17,17,0,0,0,0,0,0,0,0,0,
17,17,17,17,17,17,17,17,17,17,17,17,17,17,17,17,
17,17,17,17,17,17,17,17,17,17,17,17,17,17,17,17,
0,0,0,0,0,0,0,0,0,0,0,0,0,0,0,0,
0,0,0,0,0,0,0,0,0,0,0,0,0,0,0,0,
0,0,0,0,0,0,0,0,0,0,0,0,0,0,0,0
</chunk>
  </data>
 </layer>
 <layer id="4" name="ground" width="4" height="4">
  <data encoding="csv">
   <chunk x="-32" y="-80" width="16" height="16">
0,0,0,0,0,0,0,0,0,0,0,0,0,0,0,0,
0,0,0,0,0,0,0,0,0,0,0,0,0,0,0,0,
0,0,0,0,0,0,0,0,0,0,0,0,0,0,0,0,
0,0,0,0,0,0,0,0,0,0,0,0,0,0,0,0,
0,0,0,0,0,0,0,0,0,0,0,0,0,0,0,0,
0,0,0,0,0,0,0,0,0,0,0,0,0,0,0,0,
0,0,0,0,0,0,0,0,0,0,0,0,0,0,0,0,
0,0,0,0,0,0,0,0,0,0,0,0,0,0,0,0,
0,0,0,0,0,0,0,0,0,0,0,0,0,0,0,0,
0,0,0,0,0,0,0,0,0,0,0,0,0,0,0,0,
0,0,0,0,0,0,0,0,0,0,0,0,0,0,0,0,
0,0,0,0,0,0,0,0,0,0,0,0,0,0,0,0,
0,0,0,0,0,0,0,0,0,0,0,0,0,0,0,0,
0,0,0,0,0,0,0,0,0,0,0,0,0,0,0,0,
0,0,0,0,0,0,0,0,0,0,0,0,0,0,0,0,
0,0,0,97,98,99,100,100,100,100,100,100,100,100,100,100
</chunk>
   <chunk x="-16" y="-80" width="16" height="16">
0,0,0,0,0,0,0,0,0,0,0,0,0,0,0,0,
0,0,0,0,0,0,0,0,0,0,0,0,0,0,0,0,
0,0,0,0,0,0,0,0,0,0,0,0,0,0,0,0,
0,0,0,0,0,0,0,0,0,0,0,0,0,0,0,0,
0,0,0,0,0,0,0,0,0,0,0,0,0,0,0,0,
0,0,0,0,0,0,0,0,0,0,0,0,0,0,0,0,
0,0,0,0,0,0,0,0,0,0,0,0,0,0,0,0,
0,0,0,0,0,0,0,0,0,0,0,0,0,0,0,0,
0,0,0,0,0,0,0,0,0,0,0,0,0,0,0,0,
0,0,0,0,0,0,0,0,0,0,0,0,0,0,0,0,
0,0,0,0,0,0,0,0,0,0,0,0,0,0,0,0,
0,0,0,0,0,0,0,0,0,0,0,0,0,0,0,0,
0,0,0,0,0,0,0,0,0,0,0,0,0,0,0,0,
0,0,0,0,0,0,0,0,0,0,0,0,0,0,0,0,
0,0,0,0,0,0,0,0,0,0,0,0,0,0,0,0,
100,100,100,100,100,100,100,100,100,100,100,100,101,102,103,0
</chunk>
   <chunk x="-32" y="-64" width="16" height="16">
0,0,0,117,118,119,120,120,120,120,120,120,120,120,120,120,
0,0,0,137,138,139,509,509,509,509,509,509,509,509,509,509,
0,0,0,197,198,199,200,200,200,200,200,200,200,200,200,200,
0,0,0,217,218,219,220,220,220,220,220,220,220,220,220,220,
0,0,0,0,0,0,0,0,0,0,0,0,0,0,0,0,
0,0,0,0,0,0,0,0,0,0,0,0,0,0,0,0,
0,0,0,0,0,0,0,0,0,0,0,0,0,0,0,0,
0,0,0,0,0,0,0,0,0,0,0,0,0,0,0,0,
0,0,0,0,0,0,0,0,0,0,0,0,0,0,0,0,
0,0,0,0,0,0,0,0,0,0,0,0,0,0,0,0,
0,0,0,0,0,0,0,0,0,0,0,0,0,0,0,0,
0,0,0,0,0,0,0,0,0,0,0,0,0,0,0,0,
0,0,0,0,0,0,0,0,0,0,0,0,0,0,0,0,
0,0,0,0,0,0,0,0,0,0,0,0,0,0,0,0,
0,0,0,0,0,0,0,0,0,0,0,0,0,0,0,0,
0,0,0,0,0,0,0,0,0,0,0,0,0,0,0,0
</chunk>
   <chunk x="-16" y="-64" width="16" height="16">
120,120,120,120,120,120,120,120,120,120,120,120,121,122,123,0,
509,509,509,509,509,509,509,509,509,509,509,509,141,142,143,0,
200,200,200,200,200,200,200,200,200,200,200,200,201,202,203,0,
220,220,220,220,220,220,220,220,220,220,220,220,221,222,223,0,
0,0,0,0,0,0,0,0,0,0,0,0,0,0,0,0,
0,0,0,0,0,0,0,0,0,0,0,0,0,0,0,0,
0,0,0,0,0,0,0,0,0,0,0,0,0,0,0,0,
0,0,0,0,0,0,0,0,0,0,0,0,0,0,0,0,
0,0,0,0,0,0,0,0,0,0,0,0,0,0,0,0,
0,0,0,0,0,0,0,0,0,0,0,0,0,0,0,0,
0,0,0,0,0,0,0,0,0,0,0,0,0,0,0,0,
0,0,0,0,0,0,0,0,0,0,0,0,0,0,0,0,
0,0,0,0,0,0,0,0,0,0,0,0,0,0,0,0,
0,0,0,0,0,0,0,0,0,0,0,0,0,0,0,0,
0,0,0,0,0,0,0,0,0,0,0,0,0,0,0,0,
0,0,0,0,0,0,0,0,0,0,0,0,0,0,0,0
</chunk>
   <chunk x="-32" y="-48" width="16" height="16">
0,0,0,0,0,0,0,0,0,0,0,0,0,0,0,0,
0,0,0,0,0,0,0,0,0,0,0,0,0,0,0,0,
0,0,0,0,0,0,0,0,0,0,0,0,0,0,0,0,
0,0,0,0,0,0,0,0,0,97,98,99,100,100,100,100,
0,0,0,0,0,0,0,0,0,117,118,119,120,120,120,120,
0,0,0,0,0,0,0,0,0,137,138,139,509,509,509,509,
0,0,0,0,0,0,0,0,0,157,158,528,632,249,249,249,
0,0,0,0,0,0,0,0,97,190,191,528,172,160,160,160,
0,0,0,0,0,0,0,0,117,210,211,572,232,160,160,160,
0,0,0,0,0,0,0,0,157,158,591,172,160,160,160,160,
0,0,0,0,0,0,0,0,157,158,528,172,160,160,160,160,
0,0,0,0,0,0,0,0,157,158,528,172,160,160,160,160,
0,0,0,0,0,0,0,0,157,158,528,172,160,160,160,160,
0,0,0,0,0,0,0,0,157,158,528,172,160,160,160,160,
0,0,0,0,0,0,0,0,157,158,528,172,160,160,160,160,
0,0,0,0,0,0,0,0,157,158,528,172,160,160,160,160
</chunk>
   <chunk x="-16" y="-48" width="16" height="16">
0,0,0,0,0,0,0,0,0,0,0,0,0,0,0,0,
0,0,0,0,0,0,0,0,0,0,0,0,0,0,0,0,
0,0,0,0,0,0,0,0,0,0,0,0,0,0,0,0,
100,100,100,100,100,100,100,100,101,102,103,0,0,0,0,0,
120,120,120,120,120,120,120,120,121,122,123,0,0,0,0,0,
509,509,509,509,509,509,509,509,141,142,143,0,0,0,0,0,
249,249,249,249,249,249,249,634,530,162,163,0,0,0,0,0,
160,160,160,160,160,160,160,166,530,162,163,0,0,0,0,0,
160,160,160,160,160,160,160,166,530,162,163,0,0,0,0,0,
160,160,160,160,160,160,160,166,530,162,163,0,0,0,0,0,
160,160,160,160,160,160,160,166,530,162,163,0,0,0,0,0,
160,160,160,160,160,160,106,634,420,399,400,0,0,0,0,0,
160,160,160,160,160,160,166,530,162,163,0,0,0,0,0,0,
160,160,160,160,160,160,166,530,162,163,0,0,0,0,0,0,
160,160,160,160,160,160,166,530,162,163,0,0,0,0,0,0,
160,160,160,160,160,160,166,530,162,163,0,0,0,0,0,0
</chunk>
   <chunk x="80" y="-48" width="16" height="16">
0,0,0,0,0,0,0,0,0,0,0,0,0,0,0,0,
0,0,0,0,0,0,0,0,0,0,0,0,0,0,0,0,
0,0,0,0,0,0,0,0,0,0,0,0,0,0,0,0,
0,0,0,0,0,0,0,0,0,0,0,0,0,0,0,0,
0,0,0,0,0,0,0,0,0,0,0,0,0,0,0,0,
0,0,0,0,0,0,0,0,0,0,0,0,0,0,0,0,
0,0,0,0,0,0,0,0,0,0,0,0,0,0,0,0,
0,0,0,0,0,0,0,0,0,0,0,0,0,0,0,0,
0,0,0,0,0,0,0,0,0,0,0,0,0,0,0,0,
0,0,0,0,0,0,0,0,0,0,0,0,0,0,0,0,
0,0,0,0,0,0,0,0,0,0,0,0,0,0,0,0,
0,0,0,0,0,0,0,0,0,0,0,0,0,0,0,0,
0,0,0,0,0,0,0,0,0,0,0,0,0,0,0,0,
0,0,0,0,0,0,0,0,0,0,0,0,0,0,0,0,
0,0,0,0,0,0,0,0,0,0,0,0,0,0,0,338,
0,0,0,0,0,0,0,0,0,0,0,0,0,0,338,358
</chunk>
   <chunk x="96" y="-48" width="16" height="16">
0,0,0,0,0,0,0,0,0,0,0,0,0,0,0,0,
0,0,0,0,0,0,0,0,0,0,0,0,0,0,0,0,
0,0,0,0,0,0,0,0,0,0,0,0,0,0,0,0,
0,0,0,0,0,0,0,0,0,0,0,0,0,0,0,0,
0,0,0,0,0,0,0,0,0,0,0,0,0,0,0,0,
0,0,0,0,0,0,0,0,0,0,0,0,0,0,0,0,
0,0,0,0,0,0,0,0,0,0,0,0,0,0,0,0,
0,0,0,0,0,0,0,0,0,0,0,0,0,0,0,0,
0,0,0,0,0,0,0,0,0,0,0,0,0,0,0,0,
0,0,0,0,0,0,0,0,0,0,0,0,0,0,0,0,
0,0,0,0,0,0,0,0,0,0,0,0,0,0,0,0,
0,0,0,0,0,0,0,0,0,0,0,0,0,0,0,0,
0,338,99,100,100,100,100,100,100,100,100,339,0,0,0,0,
338,358,119,120,120,120,120,120,120,120,120,359,360,0,0,0,
358,378,139,509,509,509,509,509,509,509,509,379,380,0,0,0,
378,169,635,249,249,249,249,249,632,634,420,399,400,0,0,0
</chunk>
   <chunk x="-32" y="-32" width="16" height="16">
0,0,0,0,0,0,0,0,157,158,528,172,160,160,160,160,
0,0,0,0,0,0,0,0,157,158,528,172,160,160,160,160,
0,0,0,0,0,0,0,0,397,398,417,169,112,160,160,160,
0,0,0,0,0,0,0,0,0,157,158,528,172,160,160,160,
0,0,0,0,0,0,0,0,0,157,158,528,172,160,160,160,
0,0,0,0,0,0,0,0,0,157,158,528,172,160,160,160,
0,0,0,0,0,0,0,0,0,157,158,528,172,160,160,160,
0,0,0,0,0,0,0,0,0,397,398,417,635,112,160,160,
0,0,0,0,0,0,0,0,0,0,157,158,528,172,160,160,
0,0,0,0,0,0,0,0,0,0,157,158,528,172,160,160,
0,0,0,0,0,0,0,0,0,0,157,158,528,172,160,160,
0,0,0,0,0,0,0,0,0,0,157,158,528,172,160,160,
0,0,0,0,0,0,0,0,0,0,397,398,417,169,112,160,
0,0,0,0,0,0,0,0,0,0,0,157,158,528,172,160,
0,0,0,0,0,0,0,0,0,0,0,157,158,528,172,160,
0,0,0,0,0,0,0,0,0,0,0,157,158,528,172,160
</chunk>
   <chunk x="-16" y="-32" width="16" height="16">
160,160,160,160,160,160,166,530,162,163,0,0,0,0,0,0,
160,160,160,160,160,160,166,530,162,163,0,0,0,0,0,0,
160,160,160,160,160,160,166,530,162,163,0,0,0,0,0,0,
160,160,160,160,160,160,166,530,162,163,0,0,0,0,0,0,
160,160,160,160,160,160,166,530,162,163,0,0,0,0,0,0,
160,160,160,160,160,160,166,530,162,163,0,0,0,0,0,0,
160,160,160,160,160,160,166,530,162,163,0,0,0,0,0,0,
160,160,160,160,160,160,166,530,162,163,0,0,0,0,0,0,
160,160,160,160,160,160,166,530,162,163,0,0,0,0,0,0,
160,160,160,160,160,160,166,530,162,163,0,0,0,0,0,0,
160,160,160,160,160,106,634,420,399,400,0,0,0,0,0,0,
160,160,160,160,160,166,530,162,163,0,0,0,0,0,0,0,
160,160,160,160,106,169,420,399,400,0,0,0,0,0,0,0,
160,160,160,160,166,530,162,163,0,0,0,0,0,0,0,0,
160,160,160,160,166,530,162,163,0,0,0,0,0,0,0,0,
160,160,160,160,166,530,162,163,0,0,0,0,0,0,0,0
</chunk>
   <chunk x="64" y="-32" width="16" height="16">
0,0,0,0,0,0,0,0,0,0,0,0,0,0,0,0,
0,0,0,0,0,0,0,0,0,0,0,0,0,0,0,0,
0,0,0,0,0,0,0,0,343,102,103,0,0,0,0,0,
0,0,0,0,0,0,338,362,363,122,123,0,0,0,0,0,
0,0,0,0,0,338,358,382,383,162,163,0,0,0,0,0,
0,0,0,0,357,358,378,635,530,187,188,100,100,100,100,100,
0,0,0,0,377,378,528,635,566,207,208,120,120,120,120,120,
0,0,0,0,157,158,528,633,249,587,509,509,509,509,509,509,
0,0,0,0,157,158,528,172,160,226,249,249,169,169,634,633,
0,0,0,0,157,158,528,172,160,160,160,160,166,635,444,404,
0,0,0,0,157,158,528,172,160,160,160,160,166,530,187,188,
0,0,0,0,157,158,528,172,160,160,160,160,226,566,207,121,
0,0,0,0,157,158,528,172,160,160,160,160,160,226,587,141,
0,0,0,0,157,158,528,172,160,160,160,160,160,160,226,634,
0,0,0,0,157,158,528,172,160,160,160,160,160,160,160,226,
0,0,0,0,157,158,528,172,160,160,160,160,160,160,160,160
</chunk>
   <chunk x="80" y="-32" width="16" height="16">
0,0,0,0,0,0,0,0,0,0,0,0,0,338,358,378,
0,0,0,0,0,0,0,0,0,0,0,0,343,358,378,634,
0,0,0,0,0,0,0,0,0,97,98,362,363,337,632,633,
0,0,0,0,0,0,0,0,0,117,118,382,383,635,632,635,
0,0,0,0,0,0,0,0,343,190,191,528,169,635,169,632,
100,100,100,100,100,100,100,362,363,210,211,633,169,444,200,200,
120,120,120,120,120,120,120,382,383,509,169,444,404,405,220,220,
509,509,509,509,509,509,509,632,444,200,404,405,424,0,0,0,
444,443,633,633,632,169,444,404,405,220,424,0,0,0,0,0,
405,402,403,200,200,404,405,424,0,0,0,0,0,0,0,0,
339,0,423,220,220,424,0,0,343,100,100,100,100,100,100,100,
359,339,0,0,0,0,338,362,363,120,120,120,120,120,120,120,
379,359,339,0,0,357,358,382,383,509,509,509,509,509,509,509,
169,379,359,360,0,377,378,528,632,169,249,249,249,249,249,249,
633,530,379,380,0,157,158,528,169,232,160,160,160,160,160,160,
166,530,162,163,0,157,158,528,172,160,160,160,160,160,160,160
</chunk>
   <chunk x="96" y="-32" width="16" height="16">
169,632,232,160,160,160,160,160,166,530,162,163,0,0,0,0,
633,232,160,160,160,160,160,160,166,530,162,163,0,0,0,0,
172,160,160,160,160,160,160,106,169,420,399,400,0,0,0,0,
635,109,109,109,109,109,109,635,420,399,400,0,0,0,0,0,
633,632,169,632,169,169,169,181,182,183,0,0,0,0,0,0,
200,200,200,200,200,200,200,201,399,400,0,0,0,0,0,0,
220,220,220,220,220,220,220,221,419,0,0,0,0,0,0,0,
0,0,0,0,0,0,0,0,0,0,0,0,0,0,0,0,
0,0,0,0,0,0,0,0,0,0,0,0,0,0,0,0,
0,0,0,0,0,0,0,0,0,0,0,0,0,0,0,0,
100,100,100,100,100,100,100,100,100,100,100,100,100,100,100,100,
120,120,120,120,120,120,120,120,120,120,120,120,120,120,120,120,
509,509,509,509,509,509,509,509,509,509,509,509,509,509,509,509,
249,249,249,249,169,634,635,169,634,633,632,632,635,633,635,635,
160,160,160,160,166,169,633,634,169,169,632,634,169,169,632,633,
160,160,106,109,633,635,444,200,200,200,200,200,200,200,200,200
</chunk>
   <chunk x="112" y="-32" width="16" height="16">
0,0,0,0,0,0,0,0,0,0,0,0,0,0,0,0,
0,0,0,0,0,0,0,0,0,0,0,0,0,0,0,0,
0,0,0,0,0,0,0,0,0,0,0,0,0,0,0,0,
0,0,0,0,0,0,0,0,0,0,0,0,0,0,0,0,
0,0,0,0,0,0,0,0,0,0,0,0,0,0,0,0,
0,0,0,0,0,0,0,0,0,0,0,0,0,0,0,0,
0,0,0,0,0,0,0,0,0,0,0,0,0,0,0,0,
0,0,0,0,0,0,0,0,0,0,0,0,0,0,0,0,
0,0,0,0,0,0,0,0,0,0,0,0,0,0,0,0,
0,0,0,0,0,0,0,0,0,0,0,0,0,0,0,0,
101,102,103,0,0,0,0,0,0,0,0,0,0,0,0,0,
121,122,123,0,0,0,0,0,0,0,0,0,0,0,0,0,
141,142,143,0,0,0,0,0,0,0,0,0,0,0,0,0,
530,162,163,0,0,0,0,0,0,0,0,0,0,0,0,0,
181,182,183,0,0,0,0,0,0,0,0,0,0,0,0,0,
201,202,203,0,0,0,0,0,0,0,0,0,0,0,0,0
</chunk>
   <chunk x="-32" y="-16" width="16" height="16">
0,0,0,0,0,0,0,0,0,0,0,157,158,528,172,160,
0,0,0,0,0,0,0,0,0,0,0,397,398,417,635,112,
0,0,0,0,0,0,0,0,0,0,0,0,157,158,528,172,
0,0,0,0,0,0,0,0,0,0,0,0,157,158,528,172,
0,0,0,0,0,0,0,0,0,0,0,0,397,398,417,634,
0,0,0,0,0,0,0,0,0,0,0,0,0,397,398,417,
0,0,0,0,0,0,0,0,0,0,0,0,0,0,397,398,
0,0,0,0,0,0,0,0,0,0,0,0,0,0,0,418,
0,0,0,0,0,0,0,0,0,0,0,0,0,0,0,0,
0,0,0,0,0,0,0,0,0,0,0,0,0,0,0,0,
0,0,0,0,0,0,0,0,0,0,0,0,0,0,0,0,
0,0,0,0,0,0,0,0,0,0,0,0,0,0,0,0,
0,0,0,0,0,0,0,0,0,0,0,0,0,0,0,0,
0,0,0,0,0,0,0,0,0,0,0,0,0,0,0,0,
0,0,0,0,0,0,0,0,0,0,0,0,0,0,0,0,
0,0,0,0,0,0,0,0,0,0,0,0,0,0,0,0
</chunk>
   <chunk x="-16" y="-16" width="16" height="16">
160,160,160,160,166,530,162,163,0,0,0,0,0,0,0,0,
160,160,160,160,166,530,187,188,100,100,100,100,100,100,100,100,
160,160,160,160,226,566,207,208,120,120,120,120,120,120,120,120,
160,160,160,160,160,226,587,509,509,509,509,509,509,509,509,509,
109,109,109,112,160,160,226,249,249,249,249,249,249,249,249,249,
169,632,633,169,112,160,160,160,160,160,160,160,160,160,160,160,
200,200,443,634,634,112,160,160,160,160,160,160,160,160,160,160,
220,220,402,403,443,634,112,160,160,160,160,160,160,160,160,160,
0,0,0,423,158,528,172,160,160,160,160,160,160,160,160,160,
0,0,0,157,158,528,172,160,160,160,160,160,160,160,160,160,
0,0,0,157,158,528,172,160,160,160,160,160,160,160,160,160,
0,0,0,157,158,528,172,160,160,160,160,160,160,160,160,160,
0,0,0,397,398,417,635,112,160,160,160,160,160,160,160,160,
0,0,0,0,157,158,528,172,160,160,160,160,160,160,160,160,
0,0,0,0,157,158,528,172,160,160,160,160,160,160,160,160,
0,0,0,0,397,398,417,632,112,160,160,160,160,160,160,160
</chunk>
   <chunk x="0" y="-16" width="16" height="16">
0,0,0,0,0,0,0,0,0,0,0,0,0,0,0,0,
100,100,100,100,100,100,100,100,100,100,100,100,100,100,100,100,
120,120,120,120,120,120,120,120,120,120,120,120,120,120,120,120,
509,509,509,509,509,509,509,509,509,509,509,509,509,509,509,509,
249,249,249,249,249,249,249,249,249,249,249,249,249,249,249,249,
160,160,160,160,160,160,160,160,160,160,160,160,160,160,160,160,
160,160,160,160,160,160,160,160,160,160,160,160,160,160,160,160,
160,160,160,160,160,160,160,160,160,160,160,160,160,160,160,160,
160,160,160,160,160,160,160,160,160,160,160,160,160,160,160,160,
160,160,160,160,160,160,160,160,160,160,160,160,160,160,160,160,
160,160,160,160,160,160,160,160,160,160,160,160,160,160,160,160,
160,160,160,160,160,160,160,160,160,160,160,160,160,160,160,160,
160,160,160,160,160,160,160,160,160,160,160,160,160,160,160,160,
160,160,160,160,160,160,160,160,160,160,160,160,160,160,160,160,
160,160,160,160,160,160,160,160,160,160,160,160,160,160,160,160,
160,160,160,160,160,160,160,160,160,160,160,160,160,160,160,160
</chunk>
   <chunk x="16" y="-16" width="16" height="16">
0,0,0,0,0,0,343,100,100,100,100,100,100,344,345,0,
100,100,100,100,100,362,363,120,120,120,120,120,120,364,365,100,
120,120,120,120,120,382,383,509,509,509,509,509,509,384,385,120,
509,509,509,509,509,634,169,634,249,249,249,249,633,634,169,509,
249,249,249,249,249,249,249,232,160,160,160,160,226,249,249,249,
160,160,160,160,160,160,160,160,160,160,160,160,160,160,160,160,
160,160,160,160,160,160,160,160,160,160,160,160,160,160,160,160,
160,160,160,160,160,160,160,160,160,160,160,160,160,160,160,160,
160,160,160,160,160,160,160,160,160,160,160,160,160,160,160,160,
160,160,160,160,160,160,160,160,160,160,160,160,160,160,160,160,
160,160,160,160,160,160,160,160,160,160,160,160,160,160,160,160,
160,160,160,160,160,160,160,160,160,160,160,160,160,160,160,160,
160,160,160,160,160,160,160,160,160,160,160,160,160,160,160,160,
160,160,160,160,160,160,160,160,160,160,160,160,160,160,160,160,
160,160,160,160,160,160,160,160,160,160,160,160,160,160,160,160,
160,160,160,160,160,160,160,160,160,160,160,160,160,160,160,160
</chunk>
   <chunk x="32" y="-16" width="16" height="16">
0,0,0,0,0,0,0,0,0,0,0,0,0,0,0,0,
100,100,100,344,0,0,0,0,0,0,0,0,0,0,0,0,
120,120,120,364,365,366,0,0,0,0,0,0,0,0,0,0,
509,509,509,384,324,386,0,0,0,0,0,0,0,0,0,0,
249,249,635,530,187,188,100,344,345,0,0,0,0,0,0,0,
160,160,226,566,207,208,120,364,365,344,0,0,0,0,0,0,
160,160,160,226,587,509,509,384,385,364,365,366,0,0,0,0,
160,160,160,160,226,249,169,634,169,384,324,386,0,0,0,0,
160,160,160,160,160,160,226,634,632,127,128,203,0,0,0,0,
160,160,160,160,160,160,160,166,530,147,148,223,0,0,0,0,
160,160,160,160,160,160,160,166,530,187,188,103,0,0,0,0,
160,160,160,160,160,160,106,169,169,207,208,123,0,0,0,0,
160,160,160,160,160,106,632,633,444,200,202,203,0,0,0,0,
160,160,160,160,106,634,444,404,405,220,222,223,0,0,0,0,
160,160,160,160,166,530,162,424,0,0,0,0,0,0,0,0,
160,160,160,160,166,530,162,163,0,0,0,0,0,0,0,0
</chunk>
   <chunk x="64" y="-16" width="16" height="16">
0,0,0,0,397,398,417,634,112,160,160,160,160,160,160,106,
0,0,0,0,0,397,398,417,634,109,109,109,109,109,109,634,
0,0,0,0,0,0,397,398,417,633,632,634,634,635,169,181,
0,0,0,0,0,0,0,197,198,200,200,200,200,200,200,201,
0,0,0,0,0,0,0,217,218,220,220,220,220,220,220,221,
0,0,0,0,0,0,0,0,0,0,0,0,0,0,0,0,
0,0,0,0,0,0,0,0,0,0,0,0,0,0,0,0,
0,0,0,0,0,0,0,0,0,0,0,0,0,0,0,0,
0,0,0,0,0,0,0,0,0,0,0,0,0,0,0,338,
0,0,0,0,0,0,0,0,0,0,0,0,0,0,338,358,
0,0,0,0,0,0,0,0,0,0,0,0,0,343,358,378,
0,0,0,0,0,0,0,0,0,0,0,338,362,363,337,169,
0,0,0,0,0,0,0,0,0,0,343,358,382,383,169,634,
0,0,0,0,0,0,0,0,338,362,363,337,635,634,632,232,
0,0,0,0,0,0,0,343,358,382,383,632,634,249,232,160,
0,0,0,0,0,338,362,363,337,634,635,632,232,160,160,160
</chunk>
   <chunk x="80" y="-16" width="16" height="16">
635,530,162,163,0,157,158,528,172,160,160,160,160,160,160,160,
444,404,405,406,0,157,158,528,172,160,160,160,160,160,160,106,
182,183,0,0,0,157,158,528,172,160,160,160,160,160,106,635,
399,400,0,0,0,157,158,528,172,160,160,160,160,106,635,444,
419,0,0,0,0,157,158,528,172,160,160,160,160,166,530,162,
0,0,0,0,338,190,191,528,172,160,160,160,106,169,420,399,
0,0,0,343,358,119,211,572,232,160,160,160,166,530,162,163,
0,343,362,363,337,139,591,232,160,160,160,160,166,530,162,163,
362,363,382,383,635,634,232,160,160,160,160,106,632,420,399,400,
382,383,632,169,633,232,160,160,160,160,160,166,530,162,163,0,
632,169,634,249,232,160,160,160,160,160,160,166,530,162,163,0,
634,249,232,160,160,160,160,160,160,160,160,166,530,162,163,0,
232,160,160,160,160,160,160,160,160,160,160,166,530,162,163,0,
160,160,160,160,160,160,160,160,160,160,160,166,530,162,163,0,
160,160,160,160,160,160,160,160,160,160,160,166,530,162,163,0,
160,160,160,160,160,160,160,160,160,160,106,632,420,399,400,0
</chunk>
   <chunk x="96" y="-16" width="16" height="16">
106,109,169,635,444,404,405,220,220,220,220,220,220,220,220,220,
169,635,632,444,399,424,0,0,0,0,0,0,0,0,0,0,
635,444,404,405,419,0,0,0,0,0,0,0,0,0,0,0,
404,405,424,0,0,0,0,0,0,0,0,0,0,0,0,0,
424,0,0,0,0,0,0,0,0,0,0,0,0,0,0,0,
400,0,0,0,0,0,0,0,0,0,0,0,0,0,0,0,
0,0,0,0,0,0,0,0,0,0,0,0,0,0,0,0,
0,0,0,0,0,0,0,0,0,0,0,0,0,0,0,0,
0,0,0,0,0,0,0,0,0,0,0,0,0,0,0,0,
0,0,0,0,0,0,0,0,0,0,0,0,0,0,0,0,
0,0,0,0,0,0,0,0,0,0,0,0,0,0,0,0,
0,0,0,0,0,0,0,0,0,0,0,0,0,0,0,0,
0,0,0,0,0,0,0,0,0,0,0,0,0,0,0,0,
0,0,0,0,0,0,0,0,0,0,0,0,0,0,0,0,
0,0,0,0,0,0,0,0,0,0,0,0,0,0,0,0,
0,0,0,0,0,0,0,0,0,0,0,0,0,0,0,0
</chunk>
   <chunk x="112" y="-16" width="16" height="16">
221,222,223,0,0,0,0,0,0,0,0,0,0,0,0,0,
0,0,0,0,0,0,0,0,0,0,0,0,0,0,0,0,
0,0,0,0,0,0,0,0,0,0,0,0,0,0,0,0,
0,0,0,0,0,0,0,0,0,0,0,0,0,0,0,0,
0,0,0,0,0,0,0,0,0,0,0,0,0,0,0,0,
0,0,0,0,0,0,0,0,0,0,0,0,0,0,0,0,
0,0,0,0,0,0,0,0,0,0,0,0,0,0,0,0,
0,0,0,0,0,0,0,0,0,0,0,0,0,0,0,0,
0,0,0,0,0,0,0,0,0,0,0,0,0,0,0,0,
0,0,0,0,0,0,0,0,0,0,0,0,0,0,0,0,
0,0,0,0,0,0,0,0,0,0,0,0,0,0,0,0,
0,0,0,0,0,0,0,0,0,0,0,0,0,0,0,0,
0,0,0,0,0,0,0,0,0,0,0,0,0,0,0,0,
0,0,0,0,0,0,0,0,0,0,0,0,0,0,0,0,
0,0,0,0,0,0,0,0,0,0,0,0,0,0,0,0,
0,0,0,0,0,0,0,0,0,0,0,0,0,0,0,0
</chunk>
   <chunk x="-16" y="0" width="16" height="16">
0,0,0,0,0,157,158,528,632,112,160,160,160,160,160,160,
0,0,0,0,0,397,398,443,635,634,112,160,160,160,160,160,
0,0,0,0,0,0,418,402,403,443,634,112,160,160,160,160,
0,0,0,0,0,0,0,0,423,398,417,635,112,160,160,160,
0,0,0,0,0,0,0,0,0,397,398,417,169,112,160,160,
0,0,0,0,0,0,0,0,0,0,157,158,528,172,160,160,
0,0,0,0,0,0,0,0,0,0,157,158,528,172,160,160,
0,0,0,0,0,0,0,0,0,0,397,398,417,633,112,160,
0,0,0,0,0,0,0,0,0,0,0,157,158,528,172,160,
0,0,0,0,0,0,0,0,0,0,0,397,398,417,634,112,
0,0,0,0,0,0,0,0,0,0,0,0,397,398,417,632,
0,0,0,0,0,0,0,0,0,0,0,0,0,397,398,417,
0,0,0,0,0,0,0,0,0,0,0,0,0,0,397,398,
0,0,0,0,0,0,0,0,0,0,0,0,0,0,0,418,
0,0,0,0,0,0,0,0,0,0,0,0,0,0,0,0,
0,0,0,0,0,0,0,0,0,0,0,0,0,0,0,0
</chunk>
   <chunk x="0" y="0" width="16" height="16">
160,160,160,160,160,160,160,160,160,160,160,160,160,160,160,160,
160,160,160,160,160,160,160,160,160,160,160,160,160,160,160,160,
160,160,160,160,160,160,160,160,160,160,160,160,160,160,160,160,
160,160,160,160,160,160,160,160,160,160,160,160,160,160,160,160,
160,160,160,160,160,160,160,160,160,160,160,160,160,160,160,160,
160,160,160,160,160,160,160,160,160,160,160,160,160,160,160,160,
160,160,160,160,160,160,160,160,160,160,160,160,160,160,160,160,
160,160,160,160,160,160,160,160,160,160,160,160,160,160,160,160,
160,160,160,160,160,160,160,160,160,160,160,160,160,160,160,160,
160,160,160,160,160,160,160,160,160,160,160,160,160,160,160,160,
109,112,160,160,160,160,106,109,109,109,109,109,109,109,109,109,
169,169,109,109,109,109,633,633,634,169,633,634,635,169,634,634,
443,169,633,632,634,169,635,444,200,200,200,200,200,200,200,200,
402,403,200,200,200,200,404,405,220,220,220,220,220,220,220,220,
0,423,220,220,220,220,424,0,0,0,0,0,0,0,0,0,
0,0,0,0,0,0,0,0,0,0,0,0,0,0,0,0
</chunk>
   <chunk x="16" y="0" width="16" height="16">
160,160,160,160,160,160,160,160,160,160,160,160,160,160,160,160,
160,160,160,160,160,160,160,160,160,160,160,160,160,160,160,160,
160,160,160,160,160,160,160,160,160,160,160,160,160,160,160,160,
160,160,160,160,160,160,160,160,160,160,160,160,160,160,160,160,
160,160,160,160,160,160,160,160,160,160,160,160,160,160,160,160,
160,160,160,160,160,160,160,160,160,160,160,160,160,160,160,160,
160,160,160,160,160,160,160,160,160,160,160,160,160,160,160,160,
160,160,160,160,160,160,160,160,160,160,160,160,160,160,160,160,
160,160,160,160,160,160,160,160,160,160,160,160,160,160,160,160,
160,160,160,160,160,160,160,160,160,160,160,160,160,160,160,160,
109,109,109,109,109,109,109,112,160,160,160,160,160,160,160,160,
634,632,169,632,635,635,169,169,109,109,109,109,109,109,109,109,
200,200,200,200,200,200,443,634,633,635,635,169,635,632,633,634,
220,220,220,220,220,220,402,403,200,200,200,200,200,200,200,200,
0,0,0,0,0,0,0,423,220,220,220,220,220,220,220,220,
0,0,0,0,0,0,0,0,0,0,0,0,0,0,0,0
</chunk>
   <chunk x="32" y="0" width="16" height="16">
160,160,160,160,166,530,162,163,0,0,0,0,0,0,0,0,
160,160,160,160,166,530,162,163,0,0,0,0,0,0,0,0,
160,160,160,160,166,530,187,268,269,0,0,0,0,0,0,0,
160,160,160,160,226,566,207,288,289,0,0,0,0,0,0,0,
160,160,160,160,160,166,587,308,309,100,100,100,100,100,100,100,
160,160,160,160,160,226,566,328,329,120,120,120,120,120,120,120,
160,160,160,160,160,160,226,587,509,509,509,509,509,509,509,509,
160,160,160,160,160,160,160,226,249,249,249,249,249,249,249,169,
160,160,160,160,160,160,160,160,160,160,160,160,160,160,160,166,
160,160,160,160,160,160,160,160,160,160,160,160,160,160,160,166,
160,160,106,109,109,109,109,109,109,112,160,160,160,160,160,166,
109,109,635,632,632,169,169,169,634,169,109,109,109,112,160,166,
169,635,169,444,200,200,200,200,443,635,633,633,169,169,109,632,
200,200,404,405,220,220,220,220,402,403,200,200,443,632,632,635,
220,220,424,0,0,0,0,0,0,423,220,220,402,403,443,633,
0,0,0,0,0,0,0,0,0,0,0,0,0,423,398,417
</chunk>
   <chunk x="48" y="0" width="16" height="16">
0,0,0,0,0,0,0,0,0,0,0,0,0,0,0,0,
0,0,0,0,0,0,0,0,0,0,0,0,0,0,0,0,
0,0,0,0,0,0,0,0,0,0,0,0,0,343,100,362,
0,0,0,0,0,0,0,0,0,0,0,343,362,363,120,382,
101,102,103,0,0,0,97,98,99,100,362,363,382,383,509,169,
121,122,123,0,0,0,117,118,119,120,382,383,632,169,633,249,
141,142,143,0,0,0,137,138,139,509,169,632,633,249,232,160,
530,162,163,0,0,0,157,158,528,635,249,249,232,160,160,160,
530,162,163,0,0,0,157,158,528,172,160,160,160,160,160,160,
530,162,163,0,0,0,157,158,528,172,160,160,160,160,160,160,
530,162,163,0,0,0,157,158,528,169,109,109,109,109,109,109,
530,162,163,0,0,0,177,178,179,169,632,634,634,169,632,632,
530,162,163,0,0,0,197,198,199,200,200,200,200,200,200,200,
530,162,163,0,0,0,217,218,219,220,220,220,220,220,220,220,
530,162,163,0,0,0,0,0,0,0,0,0,0,0,0,0,
530,162,163,0,0,0,0,0,0,0,0,0,0,0,0,0
</chunk>
   <chunk x="64" y="0" width="16" height="16">
0,0,0,0,343,358,382,383,632,169,249,232,160,160,160,160,
343,100,100,362,363,337,169,633,632,232,160,160,160,160,160,160,
363,120,120,382,383,633,635,249,232,160,160,160,160,160,160,160,
383,509,509,632,169,633,232,160,160,160,160,160,160,160,160,160,
632,635,249,249,249,232,160,160,160,160,160,160,160,160,160,160,
249,232,160,160,160,160,160,160,160,160,160,160,160,160,160,160,
160,160,160,160,160,160,160,160,160,160,160,160,160,160,160,160,
160,160,160,160,160,160,160,160,160,160,160,160,160,160,160,160,
160,160,160,160,160,160,160,160,160,160,160,160,160,160,160,160,
160,160,160,160,160,160,160,160,160,160,160,160,160,160,160,160,
109,109,109,109,109,109,109,109,109,109,112,160,160,160,160,106,
633,634,633,635,634,634,632,634,169,634,633,109,109,109,109,632,
200,200,200,200,200,200,200,200,200,443,633,633,633,169,169,169,
220,220,220,220,220,220,220,220,220,402,403,200,200,200,200,404,
0,0,0,0,0,0,0,0,0,0,423,220,220,220,220,424,
0,0,0,0,0,0,0,0,0,0,0,0,0,0,0,0
</chunk>
   <chunk x="80" y="0" width="16" height="16">
160,160,160,160,160,160,160,160,160,160,166,530,162,163,0,0,
160,160,160,160,160,160,160,160,160,160,166,530,162,163,0,0,
160,160,160,160,160,160,160,160,160,160,166,530,162,163,0,0,
160,160,160,160,160,160,160,160,160,106,635,420,399,400,0,0,
160,160,160,160,160,160,160,160,160,166,530,162,163,0,0,0,
160,160,160,160,160,160,160,160,106,632,420,399,400,0,0,0,
160,160,160,160,160,160,160,106,633,420,399,400,0,0,0,0,
160,160,160,160,160,160,106,635,420,399,400,0,0,0,0,0,
160,160,160,160,160,106,169,420,399,400,0,0,0,0,0,0,
160,160,160,106,109,632,420,399,400,0,0,0,0,0,0,0,
109,109,109,169,634,530,162,163,0,0,0,0,0,0,0,0,
633,634,632,635,444,404,405,406,0,0,0,0,0,0,0,0,
444,200,200,404,405,424,0,0,0,0,0,0,0,0,0,0,
405,220,220,424,0,0,0,0,0,0,0,0,0,0,0,0,
0,0,0,0,0,0,0,0,0,0,0,0,0,0,0,0,
0,0,0,0,0,0,0,0,0,0,0,0,0,0,0,0
</chunk>
   <chunk x="32" y="16" width="16" height="16">
0,0,0,0,0,0,0,0,0,0,0,0,0,0,157,158,
0,0,0,0,0,0,0,0,0,0,0,0,0,0,157,158,
0,0,0,0,0,0,0,0,0,0,0,0,0,0,197,198,
0,0,0,0,0,0,0,0,0,0,0,0,0,0,217,218,
0,0,0,0,0,0,0,0,0,0,0,0,0,0,0,0,
0,0,0,0,0,0,0,0,0,0,0,0,0,0,0,0,
0,0,0,0,0,0,0,0,0,0,0,0,0,0,0,0,
0,0,0,0,0,0,0,0,0,0,0,0,0,0,0,0,
0,0,0,0,0,0,0,0,0,0,0,0,0,0,0,0,
0,0,0,0,0,0,0,0,0,0,0,0,0,0,0,0,
0,0,0,0,0,0,0,0,0,0,0,0,0,0,0,0,
0,0,0,0,0,0,0,0,0,0,0,0,0,0,0,0,
0,0,0,0,0,0,0,0,0,0,0,0,0,0,0,0,
0,0,0,0,0,0,0,0,0,0,0,0,0,0,0,0,
0,0,0,0,0,0,0,0,0,0,0,0,0,0,0,0,
0,0,0,0,0,0,0,0,0,0,0,0,0,0,0,0
</chunk>
   <chunk x="48" y="16" width="16" height="16">
530,162,163,0,0,0,0,0,0,0,0,0,0,0,0,0,
420,399,400,0,0,0,0,0,0,0,0,0,0,0,0,0,
399,400,0,0,0,0,0,0,0,0,0,0,0,0,0,0,
419,0,0,0,0,0,0,0,0,0,0,0,0,0,0,0,
0,0,0,0,0,0,0,0,0,0,0,0,0,0,0,0,
0,0,0,0,0,0,0,0,0,0,0,0,0,0,0,0,
0,0,0,0,0,0,0,0,0,0,0,0,0,0,0,0,
0,0,0,0,0,0,0,0,0,0,0,0,0,343,100,100,
0,0,0,0,0,0,0,0,0,0,0,338,362,363,120,120,
0,0,0,0,0,0,0,0,0,0,357,358,382,383,509,509,
0,0,0,0,0,0,0,0,0,0,377,378,528,635,633,249,
0,0,0,0,0,0,0,0,0,0,157,158,528,635,232,160,
0,0,0,0,0,0,0,0,0,0,157,158,528,172,160,160,
0,0,0,0,0,0,0,0,0,0,157,158,528,172,160,160,
0,0,0,0,0,0,0,0,0,0,157,158,528,172,160,160,
0,0,0,0,0,0,0,0,0,0,157,158,528,172,160,160
</chunk>
   <chunk x="64" y="16" width="16" height="16">
0,0,0,0,0,0,0,0,0,0,0,0,0,0,0,0,
0,0,0,0,0,0,0,0,0,0,0,0,0,0,0,0,
0,0,0,0,0,0,0,0,0,0,0,0,0,0,0,0,
0,0,0,0,0,0,0,0,0,0,0,0,0,0,0,0,
0,0,0,0,0,0,0,0,0,0,0,0,0,0,0,0,
0,0,0,0,0,0,0,0,0,0,0,0,0,0,0,0,
0,0,0,0,0,0,0,0,0,0,0,0,0,0,0,0,
100,100,100,100,100,344,0,0,0,0,0,0,0,0,0,0,
120,120,120,120,120,364,365,366,0,0,0,0,0,0,0,0,
509,509,509,509,509,384,324,386,0,0,0,0,0,0,0,0,
249,249,249,249,635,530,162,163,0,0,0,0,0,0,0,0,
160,160,160,160,166,181,182,183,0,0,0,0,0,0,0,0,
160,160,160,106,127,201,202,203,0,0,0,0,0,0,0,0,
160,160,106,530,147,221,222,223,0,0,0,0,0,0,0,0,
160,160,226,566,207,208,123,0,0,0,0,0,0,0,0,0,
160,160,160,166,587,187,188,103,0,0,0,0,0,0,0,0
</chunk>
   <chunk x="32" y="32" width="16" height="16">
0,0,0,0,0,0,0,0,0,0,0,0,0,0,0,0,
0,0,0,0,0,0,0,0,0,0,0,0,0,0,0,0,
0,0,0,0,0,0,0,0,0,0,0,0,0,0,0,0,
0,0,0,0,0,0,0,0,0,0,0,0,0,0,0,0,
0,0,0,0,0,0,0,0,97,98,99,101,102,103,0,0,
0,0,0,0,0,0,0,0,117,118,119,121,122,123,0,0,
0,0,0,0,0,0,0,0,137,138,139,141,142,143,0,0,
0,0,0,0,0,0,0,0,157,158,528,530,162,163,0,0,
0,0,0,0,0,0,0,0,157,158,528,530,162,163,0,0,
0,0,0,0,0,0,0,0,157,158,528,530,162,163,0,0,
0,0,0,0,0,0,0,0,157,158,528,530,187,188,100,344,
0,0,0,0,0,0,0,0,157,158,528,566,207,208,120,364,
0,0,0,0,0,0,0,0,157,158,528,633,587,509,509,384,
0,0,0,0,0,0,0,0,217,218,219,220,220,220,220,0,
0,0,0,0,0,0,0,0,0,0,0,0,0,0,0,0,
0,0,0,0,0,0,0,0,0,0,0,0,0,0,0,0
</chunk>
   <chunk x="48" y="32" width="16" height="16">
0,0,0,0,0,0,0,0,0,0,157,158,528,172,160,160,
0,0,0,0,0,0,0,0,0,0,157,158,528,172,160,160,
0,0,0,0,0,0,0,0,0,0,157,158,528,172,160,160,
0,0,0,0,0,0,0,0,0,0,157,158,528,172,160,160,
0,0,0,0,0,0,0,0,0,0,157,158,528,172,160,160,
0,0,0,0,0,0,0,0,0,97,190,191,528,172,160,160,
0,0,0,0,0,0,0,0,0,117,210,211,572,232,160,160,
0,0,0,0,0,0,0,0,0,157,158,591,172,160,160,160,
0,0,0,0,0,0,0,0,0,157,158,528,172,160,160,160,
0,0,0,0,0,0,0,0,0,157,158,528,172,160,160,160,
345,0,0,0,0,0,0,0,0,157,158,528,172,160,160,160,
365,344,345,0,0,0,0,0,0,157,158,528,172,160,160,160,
385,364,365,344,345,0,0,0,0,157,158,528,172,160,160,160,
0,0,0,0,0,0,0,0,0,217,218,219,220,220,220,220,
0,0,0,0,0,0,0,0,0,0,0,0,0,0,0,0,
0,0,0,0,0,0,0,0,0,0,0,0,0,0,0,0
</chunk>
   <chunk x="64" y="32" width="16" height="16">
160,160,160,226,566,207,208,123,0,0,0,0,0,0,0,0,
160,160,160,160,166,587,162,163,0,0,0,0,0,0,0,0,
160,160,160,160,166,530,162,163,0,0,0,0,0,0,0,0,
160,160,160,160,166,530,162,163,0,0,0,0,0,0,0,0,
160,160,160,160,166,530,162,163,0,0,0,0,0,0,0,0,
160,160,160,160,166,530,162,163,0,0,0,0,0,0,0,0,
160,160,160,160,166,530,162,163,0,0,0,0,0,0,0,0,
160,160,160,160,166,530,162,163,0,0,0,0,0,0,0,0,
160,160,160,160,166,530,162,163,0,0,0,0,0,0,0,0,
160,160,160,160,166,530,162,163,0,0,0,0,0,0,0,0,
160,160,160,160,166,530,187,188,100,100,100,100,100,100,101,102,
160,160,160,160,226,566,207,208,120,120,120,120,120,120,121,122,
160,160,160,160,160,226,587,509,509,509,509,509,509,509,141,142,
220,220,220,220,220,220,220,220,220,220,220,220,220,220,220,222,
0,0,0,0,0,0,0,0,0,0,0,0,0,0,0,0,
0,0,0,0,0,0,0,0,0,0,0,0,0,0,0,0
</chunk>
   <chunk x="80" y="32" width="16" height="16">
0,0,0,0,0,0,0,0,0,0,0,0,0,0,0,0,
0,0,0,0,0,0,0,0,0,0,0,0,0,0,0,0,
0,0,0,0,0,0,0,0,0,0,0,0,0,0,0,0,
0,0,0,0,0,0,0,0,0,0,0,0,0,0,0,0,
0,0,0,0,0,0,0,0,0,0,0,0,0,0,0,0,
0,0,0,0,0,0,0,0,0,0,0,0,0,0,0,0,
0,0,0,0,0,0,0,0,0,0,0,0,0,0,0,0,
0,0,0,0,0,0,0,0,0,0,0,0,0,0,0,0,
0,0,0,0,0,0,0,0,0,0,0,0,0,0,0,0,
0,0,0,0,0,0,0,0,0,0,0,0,0,0,0,0,
103,0,0,0,0,0,0,0,0,0,0,0,0,0,0,0,
123,0,0,0,0,0,0,0,0,0,0,0,0,0,0,0,
143,0,0,0,0,0,0,0,0,0,0,0,0,0,0,0,
223,0,0,0,0,0,0,0,0,0,0,0,0,0,0,0,
0,0,0,0,0,0,0,0,0,0,0,0,0,0,0,0,
0,0,0,0,0,0,0,0,0,0,0,0,0,0,0,0
</chunk>
  </data>
 </layer>
</map>
