<?xml version="1.0" encoding="UTF-8"?>
<map version="1.10" tiledversion="1.12.0" orientation="orthogonal" renderorder="right-down" width="4" height="4" tilewidth="16" tileheight="16" infinite="1" nextlayerid="4" nextobjectid="1">
 <tileset firstgid="1" source="../tileset template.tsx"/>
 <tileset firstgid="51" source="../tangled incomplete tileset.tsx"/>
 <layer id="1" name="template" width="4" height="4">
  <data encoding="csv">
   <chunk x="-16" y="-64" width="16" height="16">
0,0,0,0,0,0,0,0,0,0,0,0,0,0,0,0,
0,0,0,0,0,0,0,0,0,0,0,0,0,0,0,0,
0,0,0,0,0,0,0,0,0,0,0,0,0,0,0,0,
0,0,0,0,0,0,0,0,0,0,0,0,0,0,0,0,
0,0,0,0,0,0,0,0,0,0,0,0,0,0,0,0,
0,0,0,0,0,0,0,0,0,0,0,0,0,0,0,0,
0,0,0,0,0,0,0,0,0,0,0,0,0,0,0,0,
0,0,0,0,0,0,0,0,0,0,0,0,0,0,0,0,
0,0,0,0,0,0,0,0,0,0,0,0,0,0,0,0,
0,0,0,0,0,0,0,0,0,0,0,0,0,0,0,0,
0,0,0,0,0,0,0,0,0,0,0,0,0,0,0,0,
0,0,0,0,0,0,0,0,0,0,0,0,0,0,0,0,
0,0,0,0,0,0,0,0,0,0,0,0,0,0,0,0,
0,0,0,0,0,0,0,0,0,0,0,0,0,0,0,0,
0,0,0,0,0,0,0,0,0,0,0,0,0,0,0,0,
0,0,0,0,0,0,0,0,0,0,0,0,0,12,12,12
</chunk>
   <chunk x="0" y="-64" width="16" height="16">
0,0,0,0,0,0,0,0,0,0,0,0,0,0,0,0,
0,0,0,0,0,0,0,0,0,0,0,0,0,0,0,0,
0,0,0,0,0,0,0,0,0,0,0,0,0,0,0,0,
0,0,0,0,0,0,0,0,0,0,0,0,0,0,0,0,
0,0,0,0,0,0,0,0,0,0,0,0,0,0,0,0,
0,0,0,0,0,0,0,0,0,0,0,0,0,0,0,0,
0,0,0,0,0,0,0,0,0,0,0,0,0,0,0,0,
0,0,0,0,0,0,0,0,0,0,0,0,0,0,0,0,
0,0,0,0,0,0,0,0,0,0,0,0,0,0,0,0,
0,0,0,0,0,0,0,0,0,0,0,0,0,0,0,0,
0,0,0,0,0,0,0,0,0,0,0,0,0,0,0,0,
0,0,0,0,0,0,0,0,0,0,0,0,0,0,0,0,
0,0,0,0,0,0,0,0,0,0,0,0,0,0,0,0,
0,0,0,0,0,0,0,0,0,0,0,0,0,0,0,0,
0,0,0,0,0,0,0,0,0,0,12,12,12,12,0,0,
12,0,0,0,0,0,0,0,0,0,12,12,12,12,0,0
</chunk>
   <chunk x="-16" y="-48" width="16" height="16">
0,0,0,0,0,0,0,0,0,0,0,0,0,12,12,12,
0,0,0,0,0,0,0,0,0,0,0,0,0,12,12,12,
0,0,0,0,0,0,0,0,0,0,0,0,12,12,12,12,
0,0,0,0,0,0,0,0,0,0,0,0,12,12,12,12,
0,0,0,0,0,0,0,0,0,0,0,0,12,12,12,12,
0,0,0,0,0,0,0,0,0,0,0,0,12,12,12,12,
0,0,0,0,0,0,0,0,0,0,0,0,12,12,12,12,
0,0,0,0,0,0,0,0,0,0,0,12,12,12,12,12,
0,0,0,0,0,0,0,0,0,0,0,12,12,12,12,12,
0,0,0,0,0,0,0,0,0,0,0,12,12,12,12,12,
0,0,0,0,0,0,0,0,0,0,0,12,12,12,12,12,
0,0,0,0,0,0,0,0,0,0,12,12,12,12,12,12,
0,0,0,0,0,0,0,0,0,12,12,12,12,12,12,12,
0,0,0,0,0,0,0,0,12,12,12,12,12,12,12,12,
0,0,0,0,0,0,0,12,12,12,12,12,12,12,12,12,
0,0,0,0,0,0,12,12,12,12,12,12,12,12,12,12
</chunk>
   <chunk x="0" y="-48" width="16" height="16">
12,0,0,0,0,0,0,0,0,0,12,12,12,12,0,0,
12,0,0,0,0,0,0,0,0,0,12,12,12,12,0,0,
12,0,0,0,0,0,0,0,0,0,12,12,12,12,0,0,
12,0,0,0,0,0,0,0,0,0,12,12,12,12,0,0,
12,0,0,0,0,0,0,0,0,0,12,12,12,12,12,0,
12,0,0,0,0,0,0,0,0,0,12,12,12,12,12,0,
12,0,0,0,0,0,0,0,0,0,12,12,12,12,12,0,
12,0,0,0,0,0,0,0,0,0,12,12,12,12,12,12,
0,0,0,0,0,0,0,0,0,0,12,12,12,12,12,12,
0,0,0,0,0,0,0,0,0,0,12,12,12,12,12,12,
0,0,0,0,0,0,0,0,0,0,12,12,12,12,12,12,
0,0,0,0,0,0,0,0,0,0,12,12,12,12,12,12,
0,0,0,0,0,0,0,0,0,0,12,12,12,12,12,12,
0,0,0,0,0,0,0,0,0,0,0,12,12,12,12,12,
0,0,0,0,0,0,0,0,0,0,0,12,12,12,12,12,
0,0,0,0,0,0,0,0,0,0,0,0,12,12,12,12
</chunk>
   <chunk x="16" y="-48" width="16" height="16">
0,0,0,0,0,0,0,0,0,0,0,0,0,0,0,0,
0,0,0,0,0,0,0,0,0,0,0,0,0,0,0,0,
0,0,0,0,0,0,0,0,0,0,0,0,0,0,0,0,
0,0,0,0,0,0,0,0,0,0,0,0,0,0,0,0,
0,0,0,0,0,0,0,0,0,0,0,0,0,0,0,0,
0,0,0,0,0,0,0,0,0,0,0,0,0,0,0,0,
0,0,0,0,0,0,0,0,0,0,0,0,0,0,0,0,
0,0,0,0,0,0,0,0,0,0,0,0,0,0,0,0,
0,0,0,0,0,0,0,0,0,0,0,0,0,0,0,0,
12,0,0,0,0,0,0,0,0,0,0,0,0,0,0,0,
12,0,0,0,0,0,0,0,0,0,0,0,0,0,0,0,
12,12,0,0,0,0,0,0,0,0,0,0,0,0,0,0,
12,12,12,0,0,0,0,0,0,0,0,0,0,0,0,0,
12,12,12,0,0,0,0,0,0,0,0,0,0,0,0,0,
12,12,12,0,0,0,0,0,0,0,0,0,0,0,0,0,
12,12,12,12,12,12,0,0,0,0,0,0,0,0,0,0
</chunk>
   <chunk x="-32" y="-32" width="16" height="16">
0,0,0,0,0,0,0,0,0,0,0,0,0,0,0,0,
0,0,0,0,0,0,0,0,0,0,0,0,0,0,0,0,
0,0,0,0,0,0,0,0,0,0,0,0,0,0,0,0,
0,0,0,0,0,0,0,0,0,0,0,0,0,0,0,0,
0,0,0,0,0,0,0,0,0,0,0,0,0,0,0,0,
0,0,0,0,0,0,0,0,0,0,0,0,0,0,0,0,
0,0,0,0,0,0,0,0,0,0,0,0,0,0,0,12,
0,0,0,0,0,0,0,0,0,0,0,0,0,0,0,12,
0,0,0,0,0,0,0,0,0,0,0,0,0,0,0,12,
0,0,0,0,0,0,0,0,0,0,0,0,0,0,0,12,
0,0,0,0,0,0,0,0,0,0,0,0,0,0,12,12,
0,0,0,0,0,0,0,0,0,0,0,0,0,12,12,12,
0,0,0,0,0,0,0,0,0,0,0,0,0,12,12,12,
0,0,0,0,0,0,0,0,0,0,0,0,0,12,12,12,
0,0,0,0,0,0,0,0,0,0,0,0,0,12,12,12,
0,0,0,0,0,0,0,0,0,0,0,0,12,12,12,12
</chunk>
   <chunk x="-16" y="-32" width="16" height="16">
0,0,0,0,0,0,12,12,12,12,12,12,12,12,12,0,
0,0,0,0,0,12,12,12,12,12,12,12,12,12,12,0,
0,0,0,12,12,12,12,12,12,12,12,12,12,12,12,0,
0,0,12,12,12,12,12,12,12,12,12,12,12,12,12,0,
0,12,12,12,12,12,12,12,12,12,12,12,12,12,12,0,
12,12,12,12,12,12,12,12,12,12,12,12,12,12,0,0,
12,12,12,12,12,12,12,12,12,12,12,12,12,12,0,0,
12,12,12,12,12,12,12,12,12,12,12,12,12,12,0,0,
12,12,12,12,12,12,12,12,12,12,12,12,12,12,0,0,
12,12,12,12,12,12,12,12,12,12,12,12,12,0,0,0,
12,12,12,12,12,12,12,12,12,12,12,12,12,12,12,12,
12,12,12,12,12,12,12,12,12,12,12,12,12,12,12,12,
12,12,12,12,12,12,12,12,12,12,12,12,12,12,12,12,
12,12,12,12,12,12,12,12,12,12,12,12,12,12,12,12,
12,12,12,12,12,12,12,12,12,12,12,12,12,12,12,12,
12,12,12,12,12,12,12,12,12,12,12,12,12,12,12,12
</chunk>
   <chunk x="0" y="-32" width="16" height="16">
0,0,0,0,0,0,0,0,0,0,0,0,12,12,12,12,
0,0,0,0,0,0,0,0,0,0,0,0,0,12,12,12,
0,0,0,0,0,0,0,0,0,0,0,0,0,0,12,12,
0,0,0,0,0,0,0,0,0,0,0,0,0,0,0,12,
0,0,0,0,0,0,0,0,0,0,0,0,0,0,0,12,
0,0,0,0,0,0,0,0,0,0,0,0,0,0,0,0,
0,0,0,0,0,0,0,0,0,0,0,0,0,0,0,0,
0,0,0,0,0,0,0,0,0,0,0,0,0,0,0,0,
0,0,0,0,0,0,0,0,0,0,0,0,0,0,0,0,
0,0,0,0,0,0,0,0,0,0,0,0,0,0,0,0,
12,0,0,0,0,0,0,0,0,0,0,0,0,0,0,0,
12,12,12,12,12,12,0,0,0,0,0,0,0,0,0,0,
12,12,12,12,12,12,0,0,0,0,0,0,0,0,0,0,
12,12,12,12,12,12,0,0,0,0,0,0,0,0,0,0,
12,12,12,12,12,12,0,0,0,0,0,0,0,0,0,0,
12,12,12,12,12,12,12,12,0,0,0,0,0,0,0,0
</chunk>
   <chunk x="16" y="-32" width="16" height="16">
12,12,12,12,12,12,0,0,0,0,0,0,0,0,0,0,
12,12,12,12,12,12,12,0,0,0,0,0,0,0,0,0,
12,12,12,12,12,12,12,12,0,0,0,0,0,0,0,0,
12,12,12,12,12,12,12,12,0,0,0,0,0,0,0,0,
12,12,12,12,12,12,12,0,0,0,0,0,0,0,0,0,
12,12,12,12,12,12,12,0,0,0,0,0,0,0,0,0,
0,12,12,12,12,12,12,0,0,0,0,0,0,0,0,0,
0,12,12,12,12,12,12,0,0,0,0,0,0,0,0,0,
0,0,0,0,12,12,12,12,0,0,0,0,0,0,0,0,
0,0,0,0,12,12,12,12,0,0,0,0,0,0,0,0,
0,0,0,0,12,12,12,12,0,0,0,0,0,0,0,0,
0,0,0,0,12,12,12,12,0,0,0,0,0,0,0,0,
0,0,0,0,12,12,12,12,0,0,0,0,0,0,0,0,
0,0,0,0,12,12,12,12,0,0,0,0,0,0,0,0,
0,0,0,0,12,12,12,12,12,12,0,0,0,0,0,0,
0,0,0,0,12,12,12,12,12,12,0,0,0,0,0,0
</chunk>
   <chunk x="32" y="-32" width="16" height="16">
0,0,0,0,0,0,0,0,0,0,0,0,0,0,0,0,
0,0,0,0,0,0,0,0,0,0,0,0,0,0,0,0,
0,0,0,0,0,0,0,0,0,0,0,0,0,0,0,0,
0,0,0,0,0,0,0,0,0,0,0,0,0,0,0,0,
0,0,0,0,0,0,0,0,0,0,0,0,0,0,0,0,
0,0,0,0,0,0,0,0,0,0,0,0,0,0,0,0,
0,0,0,0,0,0,0,0,0,0,0,0,0,0,0,0,
0,0,0,0,0,0,0,0,0,0,0,0,0,0,0,0,
0,0,0,0,0,0,0,0,0,0,0,0,0,0,0,0,
0,0,0,0,0,0,0,0,0,0,0,0,0,0,0,0,
0,0,0,0,0,0,0,0,0,0,0,0,0,0,0,0,
0,0,0,0,0,0,0,0,0,0,0,0,0,0,0,0,
0,0,0,0,0,0,0,0,0,0,0,0,0,0,0,0,
0,0,0,0,0,0,0,0,0,0,0,0,0,0,0,0,
0,0,0,0,0,0,0,0,0,0,0,0,12,12,0,0,
0,0,0,0,0,0,0,0,0,0,12,12,12,12,0,0
</chunk>
   <chunk x="-64" y="-16" width="16" height="16">
0,0,0,0,0,0,0,0,0,0,0,0,0,0,0,0,
0,0,0,0,0,0,0,0,0,0,0,0,0,0,0,0,
0,0,0,0,0,0,0,0,0,0,0,0,0,0,0,0,
0,0,0,0,0,0,0,0,0,0,0,0,0,0,0,0,
0,0,0,0,0,0,0,0,0,0,0,0,0,0,0,0,
0,0,0,0,0,0,0,0,0,0,0,0,0,0,0,0,
0,0,0,0,0,0,0,0,0,0,0,0,0,0,0,0,
0,0,0,0,0,0,0,0,0,0,0,0,0,0,0,0,
0,0,0,0,0,0,0,0,0,0,0,0,0,0,0,0,
0,0,0,0,0,0,0,0,0,0,0,0,0,0,0,12,
0,0,0,0,0,0,0,0,0,0,0,0,0,0,12,12,
0,0,0,0,0,0,0,0,0,0,0,0,0,0,12,12,
0,0,0,0,0,0,0,0,0,0,0,0,0,0,12,12,
0,0,0,0,0,0,0,0,0,0,0,0,0,0,12,12,
0,0,0,0,0,0,0,0,0,0,0,0,0,0,12,12,
0,0,0,0,0,0,0,0,0,0,0,0,0,0,12,12
</chunk>
   <chunk x="-48" y="-16" width="16" height="16">
0,0,0,0,0,0,0,0,0,0,0,0,0,0,0,0,
0,0,0,0,0,0,0,0,0,0,0,0,0,0,0,0,
0,0,0,0,0,0,0,0,0,0,0,0,0,0,0,0,
0,0,0,0,0,0,0,0,0,0,0,0,0,0,0,0,
0,0,0,0,0,0,0,0,0,0,0,0,0,0,0,0,
0,0,0,0,0,0,0,0,0,0,0,0,0,0,0,0,
0,0,0,0,0,0,0,0,0,0,0,0,0,0,0,0,
0,0,12,0,0,0,0,0,0,0,0,0,0,0,0,0,
12,12,12,0,0,0,0,0,0,0,0,0,0,0,0,0,
12,12,12,0,0,0,0,0,0,0,0,0,0,0,0,0,
12,12,12,12,12,12,12,12,12,12,12,12,12,12,12,12,
12,12,12,12,12,12,12,12,12,12,12,12,12,12,12,12,
12,12,12,12,12,12,12,12,12,12,12,12,12,12,12,12,
12,12,12,12,12,12,12,12,0,0,0,0,12,12,0,0,
12,12,12,12,12,12,12,12,0,0,0,0,0,0,0,0,
12,12,12,12,12,12,12,12,12,0,0,0,0,0,0,0
</chunk>
   <chunk x="-32" y="-16" width="16" height="16">
0,0,0,0,0,0,0,0,0,0,0,0,12,12,12,12,
0,0,0,0,0,0,0,0,0,0,0,12,12,12,12,12,
0,0,0,0,0,0,0,0,0,0,12,12,12,12,12,12,
0,0,0,0,0,0,0,0,0,12,12,12,12,12,12,12,
0,0,0,0,0,0,0,0,12,12,12,12,12,12,12,12,
0,0,0,0,0,0,0,12,12,12,12,12,12,12,12,12,
0,0,0,0,0,0,12,12,12,12,12,12,12,12,12,12,
0,0,0,12,12,12,12,12,12,12,12,12,12,12,12,12,
0,0,0,12,12,12,12,12,12,12,12,12,12,12,12,12,
0,0,12,12,12,12,12,12,12,12,12,12,12,12,12,12,
12,12,12,12,12,0,0,0,0,0,0,0,0,0,0,0,
12,12,12,0,0,0,0,0,0,0,0,0,0,0,0,0,
0,0,0,0,0,0,0,0,0,0,0,0,0,0,0,0,
0,0,0,0,0,0,0,0,0,0,0,0,0,0,0,0,
0,0,0,0,0,0,0,0,0,0,0,0,0,0,0,0,
0,0,12,12,12,12,12,12,12,12,12,12,12,12,12,12
</chunk>
   <chunk x="-16" y="-16" width="16" height="16">
12,12,12,12,12,12,12,12,12,12,12,12,12,12,12,12,
12,12,12,12,12,12,12,12,12,12,12,12,0,0,0,0,
12,12,12,12,12,12,0,0,0,0,0,0,0,0,0,0,
12,12,12,12,0,0,0,0,0,0,0,0,0,0,0,0,
12,12,12,12,0,0,0,0,0,0,0,0,0,0,0,0,
12,12,12,12,0,0,0,0,0,0,0,0,0,0,0,0,
12,12,12,0,0,0,0,0,0,0,0,0,0,0,0,0,
12,12,0,0,0,0,0,0,0,0,0,0,0,0,0,0,
12,12,0,0,0,0,0,0,0,0,0,0,0,0,0,0,
12,0,0,0,0,0,0,0,0,0,0,0,0,0,0,0,
0,0,0,0,0,0,0,0,0,0,0,0,0,0,0,0,
0,0,0,0,0,0,0,0,0,0,0,0,0,0,0,0,
0,0,0,0,0,0,0,0,0,0,0,0,0,0,0,0,
0,0,0,0,0,0,0,0,0,0,0,0,0,0,0,0,
0,0,0,0,0,0,0,0,0,0,0,0,0,0,0,0,
12,12,12,12,12,12,12,12,12,12,12,12,12,0,0,0
</chunk>
   <chunk x="0" y="-16" width="16" height="16">
12,12,12,12,12,12,12,12,0,0,0,0,0,0,0,0,
12,12,12,12,12,12,12,12,0,0,0,0,0,0,0,0,
0,0,12,12,12,12,12,12,0,0,0,0,0,0,0,0,
0,0,0,12,12,12,12,12,0,0,0,0,0,0,0,0,
0,0,0,12,12,12,12,12,0,0,0,0,0,0,0,12,
0,0,0,12,12,12,12,12,0,0,0,0,0,0,0,12,
0,0,0,0,0,12,12,12,12,0,0,0,0,0,0,12,
0,0,0,0,0,12,12,12,12,12,12,0,0,0,0,0,
0,0,0,0,0,0,0,12,12,12,12,12,0,0,0,0,
0,0,0,0,0,0,0,0,12,12,12,12,0,0,0,0,
0,0,0,0,0,0,0,0,0,0,12,12,0,0,0,0,
0,0,0,0,0,0,0,0,0,0,0,0,0,0,0,0,
0,0,0,0,0,0,0,0,0,0,0,0,0,0,0,0,
0,0,0,0,0,0,0,0,0,0,0,0,0,0,0,0,
0,0,0,0,0,0,0,0,0,0,0,0,0,0,0,0,
92,92,92,92,0,0,0,12,12,12,92,92,92,92,93,12
</chunk>
   <chunk x="16" y="-16" width="16" height="16">
0,12,12,12,12,12,12,12,12,12,12,0,0,0,0,0,
0,12,12,12,12,12,12,12,12,12,12,0,0,0,0,0,
0,12,12,12,12,12,12,12,12,12,12,0,0,0,0,0,
0,12,12,12,12,12,12,12,12,12,12,0,0,0,0,0,
12,12,12,12,12,12,12,12,12,12,12,12,0,0,0,0,
12,12,12,12,12,12,12,12,12,12,12,12,0,0,0,0,
12,12,12,12,12,12,12,12,12,12,12,12,0,0,0,0,
12,12,12,12,12,12,12,12,12,12,12,12,0,0,0,0,
0,12,12,12,12,12,12,12,12,12,12,12,12,12,12,12,
0,0,12,12,12,12,12,12,12,12,12,12,12,12,12,12,
0,0,12,12,12,12,12,12,12,12,12,12,12,12,12,12,
0,0,12,12,12,12,12,12,12,12,12,12,12,12,12,12,
0,0,12,12,12,12,12,12,12,12,12,12,12,12,12,0,
0,0,0,12,12,12,12,12,12,12,12,12,12,12,0,0,
0,0,0,0,12,12,0,0,0,12,12,12,12,0,0,0,
12,0,0,0,12,12,0,0,0,12,12,12,12,0,0,0
</chunk>
   <chunk x="32" y="-16" width="16" height="16">
0,0,0,0,0,0,0,0,0,0,12,12,12,12,0,0,
0,0,0,0,0,0,0,0,0,12,12,12,12,12,0,0,
0,0,0,0,0,0,0,12,12,12,12,12,12,12,0,0,
0,0,0,0,0,0,0,12,12,12,12,12,12,12,0,0,
0,0,0,0,0,0,12,12,12,12,12,12,12,0,0,0,
0,0,0,0,0,0,12,12,12,12,12,12,12,0,0,0,
0,0,0,0,0,0,12,12,12,12,12,12,12,0,0,0,
0,0,0,0,0,0,12,12,12,12,12,12,0,0,0,0,
12,12,12,12,12,12,12,12,12,12,12,12,0,0,0,0,
12,12,12,12,12,12,12,12,12,12,12,0,0,0,0,0,
12,12,12,12,12,12,12,12,0,0,0,0,0,0,0,0,
12,0,0,0,0,0,0,0,0,0,0,0,0,0,0,0,
0,0,0,0,0,0,0,0,0,0,0,0,0,0,0,0,
0,0,0,0,0,0,0,0,0,0,0,0,0,0,0,0,
0,0,0,0,0,0,0,0,0,0,0,0,0,0,0,0,
0,0,0,0,0,0,0,0,0,0,0,0,0,0,0,0
</chunk>
   <chunk x="48" y="-16" width="16" height="16">
0,0,0,0,0,0,0,0,0,0,0,0,0,0,0,0,
0,0,0,0,0,0,0,0,0,0,0,0,0,0,0,0,
0,0,0,0,0,0,0,0,0,0,0,0,0,0,0,0,
0,0,0,0,0,0,0,0,0,0,0,0,0,0,0,0,
0,0,0,0,0,0,0,0,0,0,0,0,0,0,0,0,
0,0,0,0,0,0,0,0,0,0,0,0,0,0,12,12,
0,0,0,0,0,0,0,0,0,0,0,0,0,12,12,12,
0,0,0,0,0,0,0,0,0,0,0,0,0,12,12,12,
0,0,0,0,0,0,0,0,0,0,0,0,0,12,12,12,
0,0,0,0,0,0,0,0,0,0,0,0,0,12,12,12,
0,0,0,0,0,0,0,0,0,0,0,0,12,12,12,12,
0,0,0,0,0,0,0,0,0,0,0,0,12,12,12,12,
0,0,0,0,0,0,0,0,0,0,0,0,12,12,12,12,
0,0,0,0,0,0,0,0,0,0,0,0,12,12,12,12,
0,0,0,0,0,0,0,0,0,0,0,0,12,12,12,12,
0,0,0,0,0,0,0,0,0,0,0,0,12,12,12,12
</chunk>
   <chunk x="64" y="-16" width="16" height="16">
0,0,0,0,0,0,0,0,0,0,0,0,0,0,0,0,
0,0,0,0,0,0,0,0,0,0,0,0,0,0,0,0,
0,0,0,0,0,0,0,0,0,0,0,0,0,0,0,0,
0,0,0,0,0,0,0,0,0,12,12,0,0,0,0,0,
0,0,0,0,0,0,0,0,0,12,12,12,0,0,0,0,
12,12,0,0,0,0,0,0,0,12,12,12,0,0,0,0,
12,12,0,0,0,0,0,0,0,0,12,12,0,0,0,0,
12,12,0,0,0,0,0,0,0,12,12,12,12,0,0,0,
12,0,0,0,0,0,0,0,0,12,12,12,12,0,0,0,
12,12,0,0,0,0,0,0,0,12,12,12,12,0,0,0,
12,12,0,0,0,0,0,0,0,0,12,12,12,0,0,0,
12,12,0,0,0,0,0,0,0,12,12,12,12,0,0,0,
12,0,0,0,0,0,0,0,0,12,12,12,0,0,0,0,
12,12,0,0,0,0,0,0,0,0,0,0,0,0,0,0,
12,12,0,0,0,0,0,0,0,0,0,0,0,0,0,0,
12,12,0,0,0,0,0,0,0,0,0,0,0,0,0,0
</chunk>
   <chunk x="-64" y="0" width="16" height="16">
0,0,0,0,0,0,0,0,0,0,0,0,0,0,12,12,
0,0,0,0,0,0,0,0,0,0,0,0,0,0,12,12,
0,0,0,0,0,0,0,0,0,0,0,0,0,0,12,12,
0,0,0,0,0,0,0,0,0,0,0,0,0,0,12,12,
0,0,0,0,0,0,0,0,0,0,0,0,0,0,0,12,
0,0,0,0,0,0,0,0,0,0,0,0,0,0,0,0,
0,0,0,0,0,0,0,0,0,0,0,0,0,0,0,0,
0,0,0,0,0,0,0,0,0,0,0,0,0,0,0,0,
0,0,0,0,0,0,0,0,0,0,0,0,0,0,0,0,
0,0,0,0,0,0,0,0,0,0,0,0,0,0,0,0,
0,0,0,0,0,0,0,0,0,0,0,0,0,0,0,0,
0,0,0,0,0,0,0,0,0,0,0,0,0,0,0,0,
0,0,0,0,0,0,0,0,0,0,0,0,0,0,0,0,
0,0,0,0,0,0,0,0,0,0,0,0,0,0,0,0,
0,0,0,0,0,0,0,0,0,0,0,0,0,0,0,0,
0,0,0,0,0,0,0,0,0,0,0,0,0,0,0,0
</chunk>
   <chunk x="-48" y="0" width="16" height="16">
12,12,12,12,12,12,12,12,12,12,0,0,0,0,0,0,
12,12,12,12,12,12,12,12,12,12,12,0,0,0,0,12,
12,12,12,12,12,12,12,12,12,12,12,12,0,0,0,12,
12,12,12,12,12,12,12,12,12,12,12,12,0,0,0,12,
12,12,12,12,12,12,12,12,12,12,12,12,0,0,12,12,
12,12,12,12,12,12,12,12,12,12,0,0,0,12,12,12,
0,12,12,12,12,12,12,12,12,12,0,0,0,12,12,12,
0,12,12,12,12,12,12,12,12,0,0,0,0,12,12,12,
0,0,0,0,0,0,0,0,0,0,0,0,0,12,12,12,
0,0,0,0,0,0,0,0,0,0,0,0,0,12,12,12,
0,0,0,0,0,0,0,0,0,0,0,0,0,12,12,12,
0,0,0,0,0,0,0,0,0,0,0,0,0,12,12,12,
0,0,0,0,0,0,0,0,0,0,0,12,12,12,12,12,
0,0,0,0,0,0,0,0,0,12,12,12,12,12,12,12,
0,0,0,0,0,0,0,0,0,0,0,0,0,12,12,12,
0,0,0,0,0,0,0,0,0,0,0,0,0,0,0,0
</chunk>
   <chunk x="-32" y="0" width="16" height="16">
12,12,12,12,12,12,12,12,12,12,12,12,12,12,12,12,
12,12,12,12,12,12,12,12,12,12,12,12,12,12,12,12,
12,12,12,12,12,12,12,12,12,12,12,12,12,12,12,12,
12,12,12,12,12,12,12,12,12,12,12,12,12,12,12,12,
12,12,12,12,12,12,12,12,12,12,12,12,12,12,12,12,
12,12,12,12,12,12,12,12,12,12,12,12,12,12,12,12,
12,12,12,12,12,12,12,12,12,12,12,12,12,12,12,12,
12,12,12,12,12,12,12,12,12,12,12,12,12,12,12,12,
12,12,12,12,12,12,12,12,12,0,0,0,0,0,0,0,
12,12,12,12,12,12,12,12,0,0,0,0,0,0,0,0,
12,12,12,12,12,12,12,12,0,0,0,0,0,0,0,0,
12,12,12,12,12,12,12,12,0,0,0,0,0,0,0,0,
12,12,12,12,12,12,12,0,0,0,0,0,0,0,0,0,
12,12,12,12,12,12,12,0,0,0,0,0,0,0,0,0,
12,0,0,0,0,0,0,0,0,0,0,0,0,0,0,0,
0,0,0,0,0,0,0,0,0,0,0,0,0,0,0,0
</chunk>
   <chunk x="-16" y="0" width="16" height="16">
12,12,12,12,12,12,12,12,12,12,12,12,12,0,0,0,
12,12,12,12,12,12,12,12,12,12,12,12,12,0,0,0,
12,12,12,12,12,12,12,12,12,12,12,12,12,0,0,0,
12,12,12,12,12,12,12,12,12,12,12,12,12,0,0,0,
12,12,12,12,12,12,12,12,12,12,12,12,12,0,0,0,
12,12,12,12,12,12,12,12,12,12,12,12,12,0,0,0,
12,12,12,12,12,12,12,12,12,12,12,12,12,0,0,0,
12,12,12,12,12,12,12,12,12,12,12,12,12,0,0,0,
0,0,0,0,0,0,0,12,12,12,12,12,12,0,0,0,
0,0,0,0,0,0,0,12,12,12,12,12,12,0,0,0,
0,0,0,0,0,0,0,12,12,12,12,12,12,0,0,0,
0,0,0,0,0,0,0,12,12,12,12,12,12,0,0,0,
0,0,0,0,0,0,0,12,12,12,12,12,12,0,0,0,
0,0,0,0,0,0,0,12,12,12,12,12,12,0,0,0,
0,0,0,0,0,0,0,12,12,12,12,12,12,0,0,0,
0,0,0,0,0,0,0,12,12,12,12,12,12,0,0,0
</chunk>
   <chunk x="0" y="0" width="16" height="16">
12,12,12,12,12,12,12,12,12,12,12,12,12,12,12,12,
12,12,12,12,12,12,12,12,12,12,12,12,12,12,12,12,
12,12,12,12,12,12,12,12,12,12,12,12,12,12,12,12,
12,12,12,12,12,12,12,12,12,12,12,12,12,12,12,12,
12,12,12,12,12,12,12,12,12,12,12,12,12,12,12,12,
12,12,12,12,12,12,12,12,12,12,12,12,12,12,12,12,
12,12,12,12,12,12,12,12,12,0,0,0,0,12,12,12,
12,12,12,12,12,12,12,12,12,0,0,0,0,0,0,12,
12,12,12,12,12,12,0,0,0,0,0,0,0,0,0,0,
12,12,12,12,12,12,0,0,0,0,0,0,0,0,0,0,
12,12,12,12,12,12,0,0,0,0,0,0,0,0,0,0,
12,12,12,12,12,12,0,0,0,0,0,0,0,0,0,0,
12,12,12,12,12,12,0,0,0,0,0,0,0,0,0,0,
12,12,12,12,12,12,0,0,0,0,0,0,0,0,0,0,
12,12,12,12,12,12,0,0,0,0,0,0,0,0,0,0,
12,12,12,12,12,12,0,0,0,0,0,0,0,0,0,0
</chunk>
   <chunk x="16" y="0" width="16" height="16">
12,12,0,0,0,0,0,0,0,12,12,12,0,0,0,0,
12,12,12,12,0,0,0,0,0,12,12,0,0,0,0,0,
12,12,12,12,0,0,0,0,0,0,0,0,0,0,0,0,
12,12,12,12,0,0,0,0,0,0,0,0,0,0,0,0,
12,12,12,12,0,0,0,0,0,0,0,0,0,0,0,0,
12,12,12,12,12,12,0,0,0,0,0,0,0,0,0,0,
12,12,12,12,12,12,12,12,12,12,12,0,0,0,0,0,
12,12,12,12,12,12,12,12,12,12,12,12,12,12,12,12,
0,12,12,12,12,12,12,12,12,12,12,12,12,12,12,12,
0,12,12,12,12,12,12,12,12,12,12,12,12,12,12,12,
0,12,12,12,12,12,12,12,12,12,12,12,12,12,12,12,
0,0,12,12,12,12,12,12,12,12,12,12,12,12,12,12,
0,0,0,12,12,12,12,12,12,12,12,12,12,12,12,12,
0,0,0,0,0,0,0,0,0,0,0,0,12,12,12,12,
0,0,0,0,0,0,0,0,0,0,0,0,0,0,0,0,
0,0,0,0,0,0,0,0,0,0,0,0,0,0,0,0
</chunk>
   <chunk x="32" y="0" width="16" height="16">
0,0,0,0,0,0,0,0,0,0,0,0,0,0,0,0,
0,0,0,0,0,0,0,0,0,0,0,0,0,0,0,0,
0,0,0,0,0,0,0,0,0,0,0,0,0,0,0,0,
0,0,0,0,0,0,0,0,0,0,0,0,0,0,0,0,
0,0,0,0,0,0,0,0,0,0,0,0,0,0,0,12,
0,0,0,0,0,0,0,0,0,0,0,0,0,12,12,12,
0,0,0,0,0,0,0,0,0,0,0,0,12,12,12,12,
12,12,12,12,12,12,12,12,12,12,12,12,12,12,12,12,
12,12,12,12,12,12,12,12,12,12,12,12,12,12,12,12,
12,12,12,12,12,12,12,12,12,12,12,12,12,12,12,12,
12,12,12,12,12,12,12,12,12,12,12,12,12,12,12,12,
12,12,12,12,12,12,12,12,12,12,12,12,12,12,12,12,
12,12,12,12,12,12,12,12,12,12,12,12,12,12,12,12,
12,12,12,12,12,0,0,0,0,0,0,0,12,0,0,0,
0,0,0,0,0,0,0,0,0,0,0,0,0,0,0,0,
0,0,0,0,0,0,0,0,0,0,0,0,0,0,0,0
</chunk>
   <chunk x="48" y="0" width="16" height="16">
0,0,0,0,0,0,0,0,0,0,0,0,0,12,12,12,
0,0,0,0,0,0,0,0,0,0,0,0,0,12,12,12,
0,0,0,12,0,0,0,0,0,0,0,0,0,0,12,12,
0,12,12,12,0,0,0,0,0,0,0,0,0,0,0,12,
12,12,12,12,12,0,0,0,0,0,0,0,0,0,0,0,
12,12,12,12,12,12,12,0,0,0,0,0,0,0,0,0,
12,12,12,12,12,12,12,12,0,0,0,0,0,0,0,0,
12,12,12,12,12,12,12,12,12,0,0,0,0,0,0,0,
12,12,12,12,12,12,12,12,12,12,12,0,0,0,0,0,
12,12,12,12,12,12,12,12,12,12,12,12,12,12,12,12,
12,12,12,12,12,12,12,12,12,12,12,12,12,12,12,12,
12,12,12,12,12,12,12,12,12,12,12,12,12,12,12,12,
12,12,12,12,12,12,12,12,12,12,12,12,12,12,12,12,
0,0,0,12,12,12,12,12,12,12,12,12,12,12,12,12,
0,0,0,0,0,12,12,12,0,0,0,0,0,0,0,0,
0,0,0,0,0,0,0,0,0,0,0,0,0,0,0,0
</chunk>
   <chunk x="64" y="0" width="16" height="16">
12,12,12,12,12,12,12,12,12,12,12,12,12,12,0,0,
12,12,12,12,12,12,12,12,12,12,12,12,12,12,0,0,
12,12,12,12,12,12,12,12,12,12,12,12,12,12,0,0,
12,12,12,12,12,0,0,0,0,0,0,0,0,0,0,0,
12,12,12,12,12,0,0,0,0,0,0,0,0,0,0,0,
12,12,12,12,0,0,0,0,0,0,0,0,0,0,0,0,
0,12,12,12,0,0,0,0,0,0,0,0,0,0,0,0,
0,0,12,12,0,0,0,0,0,0,0,0,0,0,0,0,
12,12,12,12,0,0,0,0,0,0,0,0,0,0,0,0,
12,12,12,0,0,0,0,0,0,0,0,0,0,0,0,0,
12,12,0,0,0,0,0,0,0,0,0,0,0,0,0,0,
12,12,0,0,0,0,0,0,0,0,0,0,0,0,0,0,
12,12,0,0,0,0,0,0,0,0,0,0,0,0,0,0,
12,0,0,0,0,0,0,0,0,0,0,0,0,0,0,0,
0,0,0,0,0,0,0,0,0,0,0,0,0,0,0,0,
0,0,0,0,0,0,0,0,0,0,0,0,0,0,0,0
</chunk>
   <chunk x="-16" y="16" width="16" height="16">
0,0,0,0,0,0,0,12,12,12,12,12,12,0,0,0,
0,0,0,0,0,0,0,12,12,12,12,12,12,0,0,0,
0,0,0,0,0,0,0,12,12,12,12,12,12,0,0,0,
0,0,0,0,0,0,0,12,12,12,12,12,12,0,0,0,
0,0,0,0,0,0,0,0,0,0,0,0,0,0,0,0,
0,0,0,0,0,0,0,0,0,0,0,0,0,0,0,0,
0,0,0,0,0,0,0,0,0,0,0,0,0,0,0,0,
0,0,0,0,0,0,0,0,0,0,0,0,0,0,0,0,
0,0,0,0,0,0,0,0,0,0,0,0,0,0,0,0,
0,0,0,0,0,0,0,0,0,0,0,0,0,0,0,0,
0,0,0,0,0,0,0,0,0,0,0,0,0,0,0,0,
0,0,0,0,0,0,0,0,0,0,0,0,0,0,0,0,
0,0,0,0,0,0,0,0,0,0,0,0,0,0,0,0,
0,0,0,0,0,0,0,0,0,0,0,0,0,0,0,0,
0,0,0,0,0,0,0,0,0,0,0,0,0,0,0,0,
0,0,0,0,0,0,0,0,0,0,0,0,0,0,0,0
</chunk>
   <chunk x="0" y="16" width="16" height="16">
12,12,12,12,12,12,0,0,0,0,0,0,0,0,0,0,
12,12,12,12,12,12,0,0,0,0,0,0,0,0,0,0,
12,12,12,12,12,12,0,0,0,0,0,0,0,0,0,0,
12,12,12,12,12,12,0,0,0,0,0,0,0,0,0,0,
0,0,0,0,0,0,0,0,0,0,0,0,0,0,0,0,
0,0,0,0,0,0,0,0,0,0,0,0,0,0,0,0,
0,0,0,0,0,0,0,0,0,0,0,0,0,0,0,0,
0,0,0,0,0,0,0,0,0,0,0,0,0,0,0,0,
0,0,0,0,0,0,0,0,0,0,0,0,0,0,0,0,
0,0,0,0,0,0,0,0,0,0,0,0,0,0,0,0,
0,0,0,0,0,0,0,0,0,0,0,0,0,0,0,0,
0,0,0,0,0,0,0,0,0,0,0,0,0,0,0,0,
0,0,0,0,0,0,0,0,0,0,0,0,0,0,0,0,
0,0,0,0,0,0,0,0,0,0,0,0,0,0,0,0,
0,0,0,0,0,0,0,0,0,0,0,0,0,0,0,0,
0,0,0,0,0,0,0,0,0,0,0,0,0,0,0,0
</chunk>
  </data>
 </layer>
 <layer id="2" name="temp" width="4" height="4">
  <data encoding="csv">
   <chunk x="-16" y="-64" width="16" height="16">
0,0,0,0,0,0,0,0,0,0,0,0,0,0,0,0,
0,0,0,0,0,0,0,0,0,0,0,0,0,0,0,0,
0,0,0,0,0,0,0,0,0,0,0,0,0,0,0,0,
0,0,0,0,0,0,0,0,0,0,0,0,0,0,0,0,
0,0,0,0,0,0,0,0,0,0,0,0,0,0,0,0,
0,0,0,0,0,0,0,0,0,0,0,0,0,0,0,0,
0,0,0,0,0,0,0,0,0,0,0,0,0,0,0,0,
0,0,0,0,0,0,0,0,0,0,0,0,0,0,0,0,
0,0,0,0,0,0,0,0,0,0,0,0,0,0,0,0,
0,0,0,0,0,0,0,0,0,0,0,0,0,0,0,0,
0,0,0,0,0,0,0,0,0,0,0,0,0,0,0,0,
0,0,0,0,0,0,0,0,0,0,0,0,0,0,0,0,
0,0,0,0,0,0,0,0,0,0,0,0,0,0,0,0,
0,0,0,0,0,0,0,0,0,0,0,0,0,0,0,0,
0,0,0,0,0,0,0,0,0,0,0,0,0,0,0,0,
0,0,0,0,0,0,0,0,0,0,0,0,0,12,12,12
</chunk>
   <chunk x="0" y="-64" width="16" height="16">
0,0,0,0,0,0,0,0,0,0,0,0,0,0,0,0,
0,0,0,0,0,0,0,0,0,0,0,0,0,0,0,0,
0,0,0,0,0,0,0,0,0,0,0,0,0,0,0,0,
0,0,0,0,0,0,0,0,0,0,0,0,0,0,0,0,
0,0,0,0,0,0,0,0,0,0,0,0,0,0,0,0,
0,0,0,0,0,0,0,0,0,0,0,0,0,0,0,0,
0,0,0,0,0,0,0,0,0,0,0,0,0,0,0,0,
0,0,0,0,0,0,0,0,0,0,0,0,0,0,0,0,
0,0,0,0,0,0,0,0,0,0,0,0,0,0,0,0,
0,0,0,0,0,0,0,0,0,0,0,0,0,0,0,0,
0,0,0,0,0,0,0,0,0,0,0,0,0,0,0,0,
0,0,0,0,0,0,0,0,0,0,0,0,0,0,0,0,
0,0,0,0,0,0,0,0,0,0,0,0,0,0,0,0,
0,0,0,0,0,0,0,0,0,0,0,0,0,0,0,0,
0,0,0,0,0,0,0,0,0,0,12,12,12,12,0,0,
12,0,0,0,0,0,0,0,0,0,12,12,12,12,0,0
</chunk>
   <chunk x="-16" y="-48" width="16" height="16">
0,0,0,0,0,0,0,0,0,0,0,0,0,12,12,12,
0,0,0,0,0,0,0,0,0,0,0,0,0,12,12,12,
0,0,0,0,0,0,0,0,0,0,0,0,12,12,12,12,
0,0,0,0,0,0,0,0,0,0,0,0,12,12,12,12,
0,0,0,0,0,0,0,0,0,0,0,0,12,12,12,12,
0,0,0,0,0,0,0,0,0,0,0,0,12,12,12,12,
0,0,0,0,0,0,0,0,0,0,0,0,12,12,12,12,
0,0,0,0,0,0,0,0,0,0,0,12,12,12,12,12,
0,0,0,0,0,0,0,0,0,0,0,12,12,12,12,12,
0,0,0,0,0,0,0,0,0,0,0,12,12,12,12,12,
0,0,0,0,0,0,0,0,0,0,0,12,12,12,12,12,
0,0,0,0,0,0,0,0,0,5,12,12,12,12,12,12,
0,0,0,0,0,0,0,0,5,12,12,12,12,12,12,12,
0,0,0,0,0,0,0,5,12,12,12,12,12,12,12,12,
0,0,0,0,0,0,5,12,12,12,12,12,12,12,12,12,
0,0,0,0,0,0,12,12,12,12,12,12,12,12,12,12
</chunk>
   <chunk x="0" y="-48" width="16" height="16">
12,0,0,0,0,0,0,0,0,0,12,12,12,12,0,0,
12,0,0,0,0,0,0,0,0,0,12,12,12,12,0,0,
12,0,0,0,0,0,0,0,0,0,12,12,12,12,0,0,
12,0,0,0,0,0,0,0,0,0,12,12,12,12,0,0,
12,0,0,0,0,0,0,0,0,0,12,12,12,12,12,0,
12,0,0,0,0,0,0,0,0,0,12,12,12,12,12,0,
12,0,0,0,0,0,0,0,0,0,12,12,12,12,12,0,
12,0,0,0,0,0,0,0,0,0,12,12,12,12,12,12,
16,0,0,0,0,0,0,0,0,0,12,12,12,12,12,12,
0,0,0,0,0,0,0,0,0,0,12,12,12,12,12,12,
0,0,0,0,0,0,0,0,0,0,12,12,12,12,12,12,
0,0,0,0,0,0,0,0,0,0,12,12,12,12,12,12,
0,0,0,0,0,0,0,0,0,0,12,12,12,12,12,12,
0,0,0,0,0,0,0,0,0,0,15,12,12,12,12,12,
0,0,0,0,0,0,0,0,0,0,0,12,12,12,12,12,
0,0,0,0,0,0,0,0,0,0,0,15,12,12,12,12
</chunk>
   <chunk x="16" y="-48" width="16" height="16">
0,0,0,0,0,0,0,0,0,0,0,0,0,0,0,0,
0,0,0,0,0,0,0,0,0,0,0,0,0,0,0,0,
0,0,0,0,0,0,0,0,0,0,0,0,0,0,0,0,
0,0,0,0,0,0,0,0,0,0,0,0,0,0,0,0,
0,0,0,0,0,0,0,0,0,0,0,0,0,0,0,0,
0,0,0,0,0,0,0,0,0,0,0,0,0,0,0,0,
0,0,0,0,0,0,0,0,0,0,0,0,0,0,0,0,
0,0,0,0,0,0,0,0,0,0,0,0,0,0,0,0,
0,0,0,0,0,0,0,0,0,0,0,0,0,0,0,0,
12,0,0,0,0,0,0,0,0,0,0,0,0,0,0,0,
12,0,0,0,0,0,0,0,0,0,0,0,0,0,0,0,
12,12,6,0,0,0,0,0,0,0,0,0,0,0,0,0,
12,12,12,0,0,0,0,0,0,0,0,0,0,0,0,0,
12,12,12,0,0,0,0,0,0,0,0,0,0,0,0,0,
12,12,12,0,0,0,0,0,0,0,0,0,0,0,0,0,
12,12,12,12,12,12,0,0,0,0,0,0,0,0,0,0
</chunk>
   <chunk x="-32" y="-32" width="16" height="16">
0,0,0,0,0,0,0,0,0,0,0,0,0,0,0,0,
0,0,0,0,0,0,0,0,0,0,0,0,0,0,0,0,
0,0,0,0,0,0,0,0,0,0,0,0,0,0,0,0,
0,0,0,0,0,0,0,0,0,0,0,0,0,0,0,0,
0,0,0,0,0,0,0,0,0,0,0,0,0,0,0,0,
0,0,0,0,0,0,0,0,0,0,0,0,0,0,0,5,
0,0,0,0,0,0,0,0,0,0,0,0,0,0,0,12,
0,0,0,0,0,0,0,0,0,0,0,0,0,0,0,12,
0,0,0,0,0,0,0,0,0,0,0,0,0,0,0,12,
0,0,0,0,0,0,0,0,0,0,0,0,0,0,0,12,
0,0,0,0,0,0,0,0,0,0,0,0,0,5,12,12,
0,0,0,0,0,0,0,0,0,0,0,0,0,12,12,12,
0,0,0,0,0,0,0,0,0,0,0,0,0,12,12,12,
0,0,0,0,0,0,0,0,0,0,0,0,0,12,12,12,
0,0,0,0,0,0,0,0,0,0,0,0,0,12,12,12,
0,0,0,0,0,0,0,0,0,0,0,0,12,12,12,12
</chunk>
   <chunk x="-16" y="-32" width="16" height="16">
0,0,0,0,0,0,12,12,12,12,12,12,12,12,12,16,
0,0,0,22,23,12,12,12,12,12,12,12,12,12,12,0,
0,0,5,12,12,12,12,12,12,12,12,12,12,12,12,0,
0,5,12,12,12,12,12,12,12,12,12,12,12,12,12,0,
5,12,12,12,12,12,12,12,12,12,12,12,12,12,12,0,
12,12,12,12,12,12,12,12,12,12,12,12,12,12,16,0,
12,12,12,12,12,12,12,12,12,12,12,12,12,12,0,0,
12,12,12,12,12,12,12,12,12,12,12,12,12,12,0,0,
12,12,12,12,12,12,12,12,12,12,12,12,12,12,0,0,
12,12,12,12,12,12,12,12,12,12,12,12,12,0,0,0,
12,12,12,12,12,12,12,12,12,12,12,12,12,12,12,12,
12,12,12,12,12,12,12,12,12,12,12,12,12,12,12,12,
12,12,12,12,12,12,12,12,12,12,12,12,12,12,12,12,
12,12,12,12,12,12,12,12,12,12,12,12,12,12,12,12,
12,12,12,12,12,12,12,12,12,12,12,12,12,12,12,12,
12,12,12,12,12,12,12,12,12,12,12,12,12,12,12,12
</chunk>
   <chunk x="0" y="-32" width="16" height="16">
0,0,0,0,0,0,0,0,0,0,0,0,12,12,12,12,
0,0,0,0,0,0,0,0,0,0,0,0,15,12,12,12,
0,0,0,0,0,0,0,0,0,0,0,0,0,15,12,12,
0,0,0,0,0,0,0,0,0,0,0,0,0,0,15,12,
0,0,0,0,0,0,0,0,0,0,0,0,0,0,0,12,
0,0,0,0,0,0,0,0,0,0,0,0,0,0,0,15,
0,0,0,0,0,0,0,0,0,0,0,0,0,0,0,0,
0,0,0,0,0,0,0,0,0,0,0,0,0,0,0,0,
0,0,0,0,0,0,0,0,0,0,0,0,0,0,0,0,
0,0,0,0,0,0,0,0,0,0,0,0,0,0,0,0,
12,24,25,0,0,0,0,0,0,0,0,0,0,0,0,0,
12,12,12,12,12,12,0,0,0,0,0,0,0,0,0,0,
12,12,12,12,12,12,0,0,0,0,0,0,0,0,0,0,
12,12,12,12,12,12,0,0,0,0,0,0,0,0,0,0,
12,12,12,12,12,12,0,0,0,0,0,0,0,0,0,0,
12,12,12,12,12,12,12,12,0,0,0,0,0,0,0,0
</chunk>
   <chunk x="16" y="-32" width="16" height="16">
12,12,12,12,12,12,0,0,0,0,0,0,0,0,0,0,
12,12,12,12,12,12,12,6,0,0,0,0,0,0,0,0,
12,12,12,12,12,12,12,12,0,0,0,0,0,0,0,0,
12,12,12,12,12,12,12,12,0,0,0,0,0,0,0,0,
12,12,12,12,12,12,12,16,0,0,0,0,0,0,0,0,
12,12,12,12,12,12,12,0,0,0,0,0,0,0,0,0,
15,12,12,12,12,12,12,0,0,0,0,0,0,0,0,0,
0,12,12,12,12,12,12,0,0,0,0,0,0,0,0,0,
0,0,32,33,12,12,12,12,0,0,0,0,0,0,0,0,
0,0,0,0,12,12,12,12,0,0,0,0,0,0,0,0,
0,0,0,0,12,12,12,12,0,0,0,0,0,0,0,0,
0,0,0,0,12,12,12,12,0,0,0,0,0,0,0,0,
0,0,0,0,12,12,12,12,0,0,0,0,0,0,0,0,
0,0,0,0,12,12,12,12,0,0,0,0,0,0,0,0,
0,0,0,0,12,12,12,12,12,12,0,0,0,0,0,0,
0,0,0,0,12,12,12,12,12,12,0,0,0,0,0,0
</chunk>
   <chunk x="32" y="-32" width="16" height="16">
0,0,0,0,0,0,0,0,0,0,0,0,0,0,0,0,
0,0,0,0,0,0,0,0,0,0,0,0,0,0,0,0,
0,0,0,0,0,0,0,0,0,0,0,0,0,0,0,0,
0,0,0,0,0,0,0,0,0,0,0,0,0,0,0,0,
0,0,0,0,0,0,0,0,0,0,0,0,0,0,0,0,
0,0,0,0,0,0,0,0,0,0,0,0,0,0,0,0,
0,0,0,0,0,0,0,0,0,0,0,0,0,0,0,0,
0,0,0,0,0,0,0,0,0,0,0,0,0,0,0,0,
0,0,0,0,0,0,0,0,0,0,0,0,0,0,0,0,
0,0,0,0,0,0,0,0,0,0,0,0,0,0,0,0,
0,0,0,0,0,0,0,0,0,0,0,0,0,0,0,0,
0,0,0,0,0,0,0,0,0,0,0,0,0,0,0,0,
0,0,0,0,0,0,0,0,0,0,0,0,0,0,0,0,
0,0,0,0,0,0,0,0,0,0,0,0,0,0,0,0,
0,0,0,0,0,0,0,0,0,0,22,23,12,12,0,0,
0,0,0,0,0,0,0,0,0,0,12,12,12,12,0,0
</chunk>
   <chunk x="-64" y="-16" width="16" height="16">
0,0,0,0,0,0,0,0,0,0,0,0,0,0,0,0,
0,0,0,0,0,0,0,0,0,0,0,0,0,0,0,0,
0,0,0,0,0,0,0,0,0,0,0,0,0,0,0,0,
0,0,0,0,0,0,0,0,0,0,0,0,0,0,0,0,
0,0,0,0,0,0,0,0,0,0,0,0,0,0,0,0,
0,0,0,0,0,0,0,0,0,0,0,0,0,0,0,0,
0,0,0,0,0,0,0,0,0,0,0,0,0,0,0,0,
0,0,0,0,0,0,0,0,0,0,0,0,0,0,0,0,
0,0,0,0,0,0,0,0,0,0,0,0,0,0,0,5,
0,0,0,0,0,0,0,0,0,0,0,0,0,0,5,12,
0,0,0,0,0,0,0,0,0,0,0,0,0,0,12,12,
0,0,0,0,0,0,0,0,0,0,0,0,0,0,12,12,
0,0,0,0,0,0,0,0,0,0,0,0,0,0,12,12,
0,0,0,0,0,0,0,0,0,0,0,0,0,0,12,12,
0,0,0,0,0,0,0,0,0,0,0,0,0,0,12,12,
0,0,0,0,0,0,0,0,0,0,0,0,0,0,12,12
</chunk>
   <chunk x="-48" y="-16" width="16" height="16">
0,0,0,0,0,0,0,0,0,0,0,0,0,0,0,0,
0,0,0,0,0,0,0,0,0,0,0,0,0,0,0,0,
0,0,0,0,0,0,0,0,0,0,0,0,0,0,0,0,
0,0,0,0,0,0,0,0,0,0,0,0,0,0,0,0,
0,0,0,0,0,0,0,0,0,0,0,0,0,0,0,0,
0,0,0,0,0,0,0,0,0,0,0,0,0,0,0,0,
0,0,0,0,0,0,0,0,0,0,0,0,0,0,0,0,
22,23,12,0,0,0,0,0,0,0,0,0,0,0,0,0,
12,12,12,0,0,0,0,0,0,0,0,0,0,0,0,0,
12,12,12,0,0,0,0,0,0,0,0,0,0,0,0,0,
12,12,12,12,12,12,12,12,12,12,12,12,12,12,12,12,
12,12,12,12,12,12,12,12,12,12,12,12,12,12,12,12,
12,12,12,12,12,12,12,12,12,12,12,12,12,12,12,12,
12,12,12,12,12,12,12,12,34,35,32,33,12,12,34,35,
12,12,12,12,12,12,12,12,0,0,0,0,0,0,0,0,
12,12,12,12,12,12,12,12,12,6,0,0,0,0,0,0
</chunk>
   <chunk x="-32" y="-16" width="16" height="16">
0,0,0,0,0,0,0,0,0,0,0,0,12,12,12,12,
0,0,0,0,0,0,0,0,0,0,5,12,12,12,12,12,
0,0,0,0,0,0,0,0,0,5,12,12,12,12,12,12,
0,0,0,0,0,0,0,0,5,12,12,12,12,12,12,12,
0,0,0,0,0,0,0,5,12,12,12,12,12,12,12,12,
0,0,0,0,0,0,5,12,12,12,12,12,12,12,12,12,
0,0,0,0,22,23,12,12,12,12,12,12,12,12,12,12,
0,0,0,12,12,12,12,12,12,12,12,12,12,12,12,12,
0,0,0,12,12,12,12,12,12,12,12,12,12,12,12,12,
22,23,12,12,12,12,12,12,12,12,12,12,12,12,12,12,
12,12,12,12,12,34,35,0,0,0,0,0,0,0,0,0,
12,12,12,34,35,0,0,0,0,0,0,0,0,0,0,0,
34,35,0,0,0,0,0,0,0,0,0,0,0,0,0,0,
0,0,0,0,0,0,0,0,0,0,0,0,0,0,0,0,
0,0,0,0,0,0,0,0,0,0,0,0,0,0,0,0,
22,23,12,12,12,12,12,12,12,12,12,12,12,12,12,12
</chunk>
   <chunk x="-16" y="-16" width="16" height="16">
12,12,12,12,12,12,12,12,12,12,12,12,12,12,12,12,
12,12,12,12,12,12,12,12,12,12,12,12,34,35,32,33,
12,12,12,12,12,12,34,35,0,0,0,0,0,0,0,0,
12,12,12,12,34,35,0,0,0,0,0,0,0,0,0,0,
12,12,12,12,0,0,0,0,0,0,0,0,0,0,0,0,
12,12,12,12,0,0,0,0,0,0,0,0,0,0,0,0,
12,12,12,16,0,0,0,0,0,0,0,0,0,0,0,0,
12,12,16,0,0,0,0,0,0,0,0,0,0,0,0,0,
12,12,0,0,0,0,0,0,0,0,0,0,0,0,0,0,
12,16,0,0,0,0,0,0,0,0,0,0,0,0,0,0,
0,0,0,0,0,0,0,0,0,0,0,0,0,0,0,0,
0,0,0,0,0,0,0,0,0,0,0,0,0,0,0,0,
0,0,0,0,0,0,0,0,0,0,0,0,0,0,0,0,
0,0,0,0,0,0,0,0,0,0,0,0,0,0,0,0,
0,0,0,0,0,0,0,0,0,0,0,0,0,0,0,0,
12,12,12,12,12,12,12,12,12,12,12,12,12,0,0,0
</chunk>
   <chunk x="0" y="-16" width="16" height="16">
12,12,12,12,12,12,12,12,0,0,0,0,0,0,0,0,
12,12,12,12,12,12,12,12,0,0,0,0,0,0,0,0,
32,33,12,12,12,12,12,12,0,0,0,0,0,0,0,0,
0,0,15,12,12,12,12,12,0,0,0,0,0,0,0,0,
0,0,0,12,12,12,12,12,0,0,0,0,0,0,0,12,
0,0,0,12,12,12,12,12,0,0,0,0,0,0,0,12,
0,0,0,32,33,12,12,12,12,24,25,0,0,0,0,12,
0,0,0,0,0,12,12,12,12,12,12,6,0,0,0,15,
0,0,0,0,0,32,33,12,12,12,12,12,0,0,0,0,
0,0,0,0,0,0,0,15,12,12,12,12,0,0,0,0,
0,0,0,0,0,0,0,0,32,33,12,12,0,0,0,0,
0,0,0,0,0,0,0,0,0,0,0,0,0,0,0,0,
0,0,0,0,0,0,0,0,0,0,0,0,0,0,0,0,
0,0,0,0,0,0,0,0,0,0,0,0,0,0,0,0,
0,0,0,0,0,0,0,0,0,0,0,0,0,0,0,0,
0,0,0,0,0,0,5,12,12,12,0,0,0,0,0,12
</chunk>
   <chunk x="16" y="-16" width="16" height="16">
0,12,12,12,12,12,12,12,12,12,12,0,0,0,0,0,
0,12,12,12,12,12,12,12,12,12,12,0,0,0,0,0,
0,12,12,12,12,12,12,12,12,12,12,0,0,0,0,0,
0,12,12,12,12,12,12,12,12,12,12,0,0,0,0,0,
12,12,12,12,12,12,12,12,12,12,12,12,0,0,0,0,
12,12,12,12,12,12,12,12,12,12,12,12,0,0,0,0,
12,12,12,12,12,12,12,12,12,12,12,12,0,0,0,0,
12,12,12,12,12,12,12,12,12,12,12,12,0,0,0,0,
15,12,12,12,12,12,12,12,12,12,12,12,12,12,12,12,
0,15,12,12,12,12,12,12,12,12,12,12,12,12,12,12,
0,0,12,12,12,12,12,12,12,12,12,12,12,12,12,12,
0,0,12,12,12,12,12,12,12,12,12,12,12,12,12,12,
0,0,12,12,12,12,12,12,12,12,12,12,12,12,12,34,
0,0,15,12,12,12,12,12,12,12,12,12,12,12,16,0,
0,0,0,15,12,12,34,35,15,12,12,12,12,16,0,0,
12,6,0,0,12,12,0,0,0,12,12,12,12,0,0,0
</chunk>
   <chunk x="32" y="-16" width="16" height="16">
0,0,0,0,0,0,0,0,0,0,12,12,12,12,0,0,
0,0,0,0,0,0,0,22,23,12,12,12,12,12,0,0,
0,0,0,0,0,0,0,12,12,12,12,12,12,12,0,0,
0,0,0,0,0,0,0,12,12,12,12,12,12,12,0,0,
0,0,0,0,0,0,12,12,12,12,12,12,12,16,0,0,
0,0,0,0,0,0,12,12,12,12,12,12,12,0,0,0,
0,0,0,0,0,0,12,12,12,12,12,12,12,0,0,0,
0,0,0,0,0,0,12,12,12,12,12,12,16,0,0,0,
12,12,12,12,12,12,12,12,12,12,12,12,0,0,0,0,
12,12,12,12,12,12,12,12,12,12,12,16,0,0,0,0,
12,12,12,12,12,12,12,12,34,35,0,0,0,0,0,0,
12,34,35,0,0,0,0,0,0,0,0,0,0,0,0,0,
35,0,0,0,0,0,0,0,0,0,0,0,0,0,0,0,
0,0,0,0,0,0,0,0,0,0,0,0,0,0,0,0,
0,0,0,0,0,0,0,0,0,0,0,0,0,0,0,0,
0,0,0,0,0,0,0,0,0,0,0,0,0,0,0,0
</chunk>
   <chunk x="48" y="-16" width="16" height="16">
0,0,0,0,0,0,0,0,0,0,0,0,0,0,0,0,
0,0,0,0,0,0,0,0,0,0,0,0,0,0,0,0,
0,0,0,0,0,0,0,0,0,0,0,0,0,0,0,0,
0,0,0,0,0,0,0,0,0,0,0,0,0,0,0,0,
0,0,0,0,0,0,0,0,0,0,0,0,0,0,0,0,
0,0,0,0,0,0,0,0,0,0,0,0,0,5,12,12,
0,0,0,0,0,0,0,0,0,0,0,0,0,12,12,12,
0,0,0,0,0,0,0,0,0,0,0,0,0,12,12,12,
0,0,0,0,0,0,0,0,0,0,0,0,0,12,12,12,
0,0,0,0,0,0,0,0,0,0,0,0,0,12,12,12,
0,0,0,0,0,0,0,0,0,0,0,0,12,12,12,12,
0,0,0,0,0,0,0,0,0,0,0,0,12,12,12,12,
0,0,0,0,0,0,0,0,0,0,0,0,12,12,12,12,
0,0,0,0,0,0,0,0,0,0,0,0,12,12,12,12,
0,0,0,0,0,0,0,0,0,0,0,0,12,12,12,12,
0,0,0,0,0,0,0,0,0,0,0,0,12,12,12,12
</chunk>
   <chunk x="64" y="-16" width="16" height="16">
0,0,0,0,0,0,0,0,0,0,0,0,0,0,0,0,
0,0,0,0,0,0,0,0,0,0,0,0,0,0,0,0,
0,0,0,0,0,0,0,0,0,0,0,0,0,0,0,0,
0,0,0,0,0,0,0,0,0,12,12,6,0,0,0,0,
0,0,0,0,0,0,0,0,0,12,12,12,0,0,0,0,
12,12,0,0,0,0,0,0,0,12,12,12,0,0,0,0,
12,12,0,0,0,0,0,0,0,0,12,12,0,0,0,0,
12,12,0,0,0,0,0,0,0,12,12,12,12,0,0,0,
12,0,0,0,0,0,0,0,0,12,12,12,12,0,0,0,
12,12,0,0,0,0,0,0,0,12,12,12,12,0,0,0,
12,12,0,0,0,0,0,0,0,0,12,12,12,0,0,0,
12,12,0,0,0,0,0,0,0,12,12,12,12,0,0,0,
12,0,0,0,0,0,0,0,0,12,12,12,16,0,0,0,
12,12,0,0,0,0,0,0,0,0,0,0,0,0,0,0,
12,12,0,0,0,0,0,0,0,0,0,0,0,0,0,0,
12,12,0,0,0,0,0,0,0,0,0,0,0,0,0,0
</chunk>
   <chunk x="-64" y="0" width="16" height="16">
0,0,0,0,0,0,0,0,0,0,0,0,0,0,12,12,
0,0,0,0,0,0,0,0,0,0,0,0,0,0,12,12,
0,0,0,0,0,0,0,0,0,0,0,0,0,0,12,12,
0,0,0,0,0,0,0,0,0,0,0,0,0,0,12,12,
0,0,0,0,0,0,0,0,0,0,0,0,0,0,15,12,
0,0,0,0,0,0,0,0,0,0,0,0,0,0,0,15,
0,0,0,0,0,0,0,0,0,0,0,0,0,0,0,0,
0,0,0,0,0,0,0,0,0,0,0,0,0,0,0,0,
0,0,0,0,0,0,0,0,0,0,0,0,0,0,0,0,
0,0,0,0,0,0,0,0,0,0,0,0,0,0,0,0,
0,0,0,0,0,0,0,0,0,0,0,0,0,0,0,0,
0,0,0,0,0,0,0,0,0,0,0,0,0,0,0,0,
0,0,0,0,0,0,0,0,0,0,0,0,0,0,0,0,
0,0,0,0,0,0,0,0,0,0,0,0,0,0,0,0,
0,0,0,0,0,0,0,0,0,0,0,0,0,0,0,0,
0,0,0,0,0,0,0,0,0,0,0,0,0,0,0,0
</chunk>
   <chunk x="-48" y="0" width="16" height="16">
12,12,12,12,12,12,12,12,12,12,6,0,0,0,0,5,
12,12,12,12,12,12,12,12,12,12,12,6,0,0,0,12,
12,12,12,12,12,12,12,12,12,12,12,12,0,0,0,12,
12,12,12,12,12,12,12,12,12,12,12,12,0,0,0,12,
12,12,12,12,12,12,12,12,12,12,12,12,0,0,12,12,
12,12,12,12,12,12,12,12,12,12,34,35,0,12,12,12,
15,12,12,12,12,12,12,12,12,12,0,0,0,12,12,12,
0,12,12,12,12,12,12,12,12,16,0,0,0,12,12,12,
0,0,0,0,0,0,0,0,0,0,0,0,0,12,12,12,
0,0,0,0,0,0,0,0,0,0,0,0,0,12,12,12,
0,0,0,0,0,0,0,0,0,0,0,0,0,12,12,12,
0,0,0,0,0,0,0,0,0,0,0,0,0,12,12,12,
0,0,0,0,0,0,0,0,0,22,23,12,12,12,12,12,
0,0,0,0,0,0,0,0,0,12,12,12,12,12,12,12,
0,0,0,0,0,0,0,0,0,0,0,32,33,12,12,12,
0,0,0,0,0,0,0,0,0,0,0,0,0,0,0,0
</chunk>
   <chunk x="-32" y="0" width="16" height="16">
12,12,12,12,12,12,12,12,12,12,12,12,12,12,12,12,
12,12,12,12,12,12,12,12,12,12,12,12,12,12,12,12,
12,12,12,12,12,12,12,12,12,12,12,12,12,12,12,12,
12,12,12,12,12,12,12,12,12,12,12,12,12,12,12,12,
12,12,12,12,12,12,12,12,12,12,12,12,12,12,12,12,
12,12,12,12,12,12,12,12,12,12,12,12,12,12,12,12,
12,12,12,12,12,12,12,12,12,12,12,12,12,12,12,12,
12,12,12,12,12,12,12,12,12,12,12,12,12,12,12,12,
12,12,12,12,12,12,12,12,12,34,35,0,0,0,0,0,
12,12,12,12,12,12,12,12,16,0,0,0,0,0,0,0,
12,12,12,12,12,12,12,12,0,0,0,0,0,0,0,0,
12,12,12,12,12,12,12,12,0,0,0,0,0,0,0,0,
12,12,12,12,12,12,12,16,0,0,0,0,0,0,0,0,
12,12,12,12,12,12,12,0,0,0,0,0,0,0,0,0,
12,34,35,0,0,0,0,0,0,0,0,0,0,0,0,0,
0,0,0,0,0,0,0,0,0,0,0,0,0,0,0,0
</chunk>
   <chunk x="-16" y="0" width="16" height="16">
12,12,12,12,12,12,12,12,12,12,12,12,12,0,0,0,
12,12,12,12,12,12,12,12,12,12,12,12,12,0,0,0,
12,12,12,12,12,12,12,12,12,12,12,12,12,0,0,0,
12,12,12,12,12,12,12,12,12,12,12,12,12,0,0,0,
12,12,12,12,12,12,12,12,12,12,12,12,12,0,0,0,
12,12,12,12,12,12,12,12,12,12,12,12,12,0,0,0,
12,12,12,12,12,12,12,12,12,12,12,12,12,0,0,0,
12,12,12,12,12,12,12,12,12,12,12,12,12,0,0,0,
0,0,0,0,0,32,33,12,12,12,12,12,12,0,0,0,
0,0,0,0,0,0,0,12,12,12,12,12,12,0,0,0,
0,0,0,0,0,0,0,12,12,12,12,12,12,0,0,0,
0,0,0,0,0,0,0,12,12,12,12,12,12,0,0,0,
0,0,0,0,0,0,0,12,12,12,12,12,12,0,0,0,
0,0,0,0,0,0,0,12,12,12,12,12,12,0,0,0,
0,0,0,0,0,0,0,12,12,12,12,12,12,0,0,0,
0,0,0,0,0,0,0,12,12,12,12,12,12,0,0,0
</chunk>
   <chunk x="0" y="0" width="16" height="16">
12,12,12,12,12,12,12,12,12,12,12,12,12,12,12,12,
12,12,12,12,12,12,12,12,12,12,12,12,12,12,12,12,
12,12,12,12,12,12,12,12,12,12,12,12,12,12,12,12,
12,12,12,12,12,12,12,12,12,12,12,12,12,12,12,12,
12,12,12,12,12,12,12,12,12,12,12,12,12,12,12,12,
12,12,12,12,12,12,12,12,12,12,12,12,12,12,12,12,
12,12,12,12,12,12,12,12,12,34,35,32,33,12,12,12,
12,12,12,12,12,12,12,12,12,0,0,0,0,32,33,12,
12,12,12,12,12,12,34,35,0,0,0,0,0,0,0,32,
12,12,12,12,12,12,0,0,0,0,0,0,0,0,0,0,
12,12,12,12,12,12,0,0,0,0,0,0,0,0,0,0,
12,12,12,12,12,12,0,0,0,0,0,0,0,0,0,0,
12,12,12,12,12,12,0,0,0,0,0,0,0,0,0,0,
12,12,12,12,12,12,0,0,0,0,0,0,0,0,0,0,
12,12,12,12,12,12,0,0,0,0,0,0,0,0,0,0,
12,12,12,12,12,12,0,0,0,0,0,0,0,0,0,0
</chunk>
   <chunk x="16" y="0" width="16" height="16">
12,12,24,25,0,0,0,0,0,12,12,12,16,0,0,0,
12,12,12,12,0,0,0,0,0,12,12,16,0,0,0,0,
12,12,12,12,0,0,0,0,0,0,0,0,0,0,0,0,
12,12,12,12,0,0,0,0,0,0,0,0,0,0,0,0,
12,12,12,12,0,0,0,0,0,0,0,0,0,0,0,0,
12,12,12,12,12,12,24,25,0,0,0,0,0,0,0,0,
12,12,12,12,12,12,12,12,12,12,12,24,25,0,0,0,
12,12,12,12,12,12,12,12,12,12,12,12,12,12,12,12,
33,12,12,12,12,12,12,12,12,12,12,12,12,12,12,12,
0,12,12,12,12,12,12,12,12,12,12,12,12,12,12,12,
0,12,12,12,12,12,12,12,12,12,12,12,12,12,12,12,
0,15,12,12,12,12,12,12,12,12,12,12,12,12,12,12,
0,0,15,12,12,12,12,12,12,12,12,12,12,12,12,12,
0,0,0,0,0,0,0,0,0,0,32,33,12,12,12,12,
0,0,0,0,0,0,0,0,0,0,0,0,0,0,0,0,
0,0,0,0,0,0,0,0,0,0,0,0,0,0,0,0
</chunk>
   <chunk x="32" y="0" width="16" height="16">
0,0,0,0,0,0,0,0,0,0,0,0,0,0,0,0,
0,0,0,0,0,0,0,0,0,0,0,0,0,0,0,0,
0,0,0,0,0,0,0,0,0,0,0,0,0,0,0,0,
0,0,0,0,0,0,0,0,0,0,0,0,0,0,0,22,
0,0,0,0,0,0,0,0,0,0,0,0,0,22,23,12,
0,0,0,0,0,0,0,0,0,0,0,0,5,12,12,12,
0,0,0,0,0,0,0,0,0,0,22,23,12,12,12,12,
12,12,12,12,12,12,12,12,12,12,12,12,12,12,12,12,
12,12,12,12,12,12,12,12,12,12,12,12,12,12,12,12,
12,12,12,12,12,12,12,12,12,12,12,12,12,12,12,12,
12,12,12,12,12,12,12,12,12,12,12,12,12,12,12,12,
12,12,12,12,12,12,12,12,12,12,12,12,12,12,12,12,
12,12,12,12,12,12,12,12,12,12,12,12,12,12,12,12,
12,12,12,12,12,34,35,0,0,0,32,33,12,34,35,0,
0,0,0,0,0,0,0,0,0,0,0,0,0,0,0,0,
0,0,0,0,0,0,0,0,0,0,0,0,0,0,0,0
</chunk>
   <chunk x="48" y="0" width="16" height="16">
0,0,0,0,0,0,0,0,0,0,0,0,15,12,12,12,
0,0,0,0,0,0,0,0,0,0,0,0,0,12,12,12,
0,22,23,12,0,0,0,0,0,0,0,0,0,15,12,12,
23,12,12,12,0,0,0,0,0,0,0,0,0,0,15,12,
12,12,12,12,12,24,25,0,0,0,0,0,0,0,0,15,
12,12,12,12,12,12,12,6,0,0,0,0,0,0,0,0,
12,12,12,12,12,12,12,12,6,0,0,0,0,0,0,0,
12,12,12,12,12,12,12,12,12,24,25,0,0,0,0,0,
12,12,12,12,12,12,12,12,12,12,12,24,25,0,22,23,
12,12,12,12,12,12,12,12,12,12,12,12,12,12,12,12,
12,12,12,12,12,12,12,12,12,12,12,12,12,12,12,12,
12,12,12,12,12,12,12,12,12,12,12,12,12,12,12,12,
12,12,12,12,12,12,12,12,12,12,12,12,12,12,12,12,
0,32,33,12,12,12,12,12,12,12,12,12,12,12,12,12,
0,0,0,32,33,12,12,12,34,35,0,0,0,0,0,0,
0,0,0,0,0,0,0,0,0,0,0,0,0,0,0,0
</chunk>
   <chunk x="64" y="0" width="16" height="16">
12,12,12,12,12,12,12,12,12,12,12,12,12,12,0,0,
12,12,12,12,12,12,12,12,12,12,12,12,12,12,0,0,
12,12,12,12,12,12,12,12,12,12,12,12,12,12,0,0,
12,12,12,12,12,34,35,0,0,0,0,0,0,0,0,0,
12,12,12,12,12,0,0,0,0,0,0,0,0,0,0,0,
12,12,12,12,16,0,0,0,0,0,0,0,0,0,0,0,
0,12,12,12,0,0,0,0,0,0,0,0,0,0,0,0,
0,0,12,12,0,0,0,0,0,0,0,0,0,0,0,0,
12,12,12,12,0,0,0,0,0,0,0,0,0,0,0,0,
12,12,12,16,0,0,0,0,0,0,0,0,0,0,0,0,
12,12,16,0,0,0,0,0,0,0,0,0,0,0,0,0,
12,12,0,0,0,0,0,0,0,0,0,0,0,0,0,0,
12,12,0,0,0,0,0,0,0,0,0,0,0,0,0,0,
12,16,0,0,0,0,0,0,0,0,0,0,0,0,0,0,
0,0,0,0,0,0,0,0,0,0,0,0,0,0,0,0,
0,0,0,0,0,0,0,0,0,0,0,0,0,0,0,0
</chunk>
   <chunk x="-16" y="16" width="16" height="16">
0,0,0,0,0,0,0,12,12,12,12,12,12,0,0,0,
0,0,0,0,0,0,0,12,12,12,12,12,12,0,0,0,
0,0,0,0,0,0,0,12,12,12,12,12,12,0,0,0,
0,0,0,0,0,0,0,12,12,12,12,12,12,0,0,0,
0,0,0,0,0,0,0,0,0,0,0,0,0,0,0,0,
0,0,0,0,0,0,0,0,0,0,0,0,0,0,0,0,
0,0,0,0,0,0,0,0,0,0,0,0,0,0,0,0,
0,0,0,0,0,0,0,0,0,0,0,0,0,0,0,0,
0,0,0,0,0,0,0,0,0,0,0,0,0,0,0,0,
0,0,0,0,0,0,0,0,0,0,0,0,0,0,0,0,
0,0,0,0,0,0,0,0,0,0,0,0,0,0,0,0,
0,0,0,0,0,0,0,0,0,0,0,0,0,0,0,0,
0,0,0,0,0,0,0,0,0,0,0,0,0,0,0,0,
0,0,0,0,0,0,0,0,0,0,0,0,0,0,0,0,
0,0,0,0,0,0,0,0,0,0,0,0,0,0,0,0,
0,0,0,0,0,0,0,0,0,0,0,0,0,0,0,0
</chunk>
   <chunk x="0" y="16" width="16" height="16">
12,12,12,12,12,12,0,0,0,0,0,0,0,0,0,0,
12,12,12,12,12,12,0,0,0,0,0,0,0,0,0,0,
12,12,12,12,12,12,0,0,0,0,0,0,0,0,0,0,
12,12,12,12,12,12,0,0,0,0,0,0,0,0,0,0,
0,0,0,0,0,0,0,0,0,0,0,0,0,0,0,0,
0,0,0,0,0,0,0,0,0,0,0,0,0,0,0,0,
0,0,0,0,0,0,0,0,0,0,0,0,0,0,0,0,
0,0,0,0,0,0,0,0,0,0,0,0,0,0,0,0,
0,0,0,0,0,0,0,0,0,0,0,0,0,0,0,0,
0,0,0,0,0,0,0,0,0,0,0,0,0,0,0,0,
0,0,0,0,0,0,0,0,0,0,0,0,0,0,0,0,
0,0,0,0,0,0,0,0,0,0,0,0,0,0,0,0,
0,0,0,0,0,0,0,0,0,0,0,0,0,0,0,0,
0,0,0,0,0,0,0,0,0,0,0,0,0,0,0,0,
0,0,0,0,0,0,0,0,0,0,0,0,0,0,0,0,
0,0,0,0,0,0,0,0,0,0,0,0,0,0,0,0
</chunk>
  </data>
 </layer>
 <layer id="3" name="ground" width="4" height="4">
  <data encoding="csv">
   <chunk x="-16" y="-64" width="16" height="16">
0,0,0,0,0,0,0,0,0,0,0,0,0,0,0,0,
0,0,0,0,0,0,0,0,0,0,0,0,0,0,0,0,
0,0,0,0,0,0,0,0,0,0,0,0,0,0,0,0,
0,0,0,0,0,0,0,0,0,0,0,0,0,0,0,0,
0,0,0,0,0,0,0,0,0,0,0,0,0,0,0,0,
0,0,0,0,0,0,0,0,0,0,0,0,0,0,0,0,
0,0,0,0,0,0,0,0,0,0,0,0,0,0,0,0,
0,0,0,0,0,0,0,0,0,0,0,0,0,0,0,0,
0,0,0,0,0,0,0,0,0,0,0,0,0,0,0,0,
0,0,0,0,0,0,0,0,0,0,0,0,0,0,0,0,
0,0,0,0,0,0,0,0,0,0,0,0,0,0,0,0,
0,0,0,0,0,0,0,0,0,0,0,0,0,0,0,0,
0,0,0,0,0,0,0,0,0,0,0,0,0,0,0,0,
0,0,0,0,0,0,0,0,0,0,0,0,0,0,0,0,
0,0,0,0,0,0,0,0,0,0,0,0,92,93,94,96,
0,0,0,0,0,0,0,0,0,0,0,0,112,113,114,116
</chunk>
   <chunk x="0" y="-64" width="16" height="16">
0,0,0,0,0,0,0,0,0,0,0,0,0,0,0,0,
0,0,0,0,0,0,0,0,0,0,0,0,0,0,0,0,
0,0,0,0,0,0,0,0,0,0,0,0,0,0,0,0,
0,0,0,0,0,0,0,0,0,0,0,0,0,0,0,0,
0,0,0,0,0,0,0,0,0,0,0,0,0,0,0,0,
0,0,0,0,0,0,0,0,0,0,0,0,0,0,0,0,
0,0,0,0,0,0,0,0,0,0,0,0,0,0,0,0,
0,0,0,0,0,0,0,0,0,0,0,0,0,0,0,0,
0,0,0,0,0,0,0,0,0,0,0,0,0,0,0,0,
0,0,0,0,0,0,0,0,0,0,0,0,0,0,0,0,
0,0,0,0,0,0,0,0,0,0,0,0,0,0,0,0,
0,0,0,0,0,0,0,0,0,0,0,0,0,0,0,0,
0,0,0,0,0,0,0,0,0,0,0,0,0,0,0,0,
0,0,0,0,0,0,0,0,0,92,93,94,96,97,98,0,
97,98,0,0,0,0,0,0,0,112,113,114,116,117,118,0,
117,118,0,0,0,0,0,0,0,132,133,134,136,137,138,0
</chunk>
   <chunk x="-16" y="-48" width="16" height="16">
0,0,0,0,0,0,0,0,0,0,0,0,132,133,134,136,
0,0,0,0,0,0,0,0,0,0,0,92,185,186,523,525,
0,0,0,0,0,0,0,0,0,0,0,112,205,206,567,525,
0,0,0,0,0,0,0,0,0,0,0,152,153,586,628,525,
0,0,0,0,0,0,0,0,0,0,0,152,153,523,164,525,
0,0,0,0,0,0,0,0,0,0,0,152,153,523,164,525,
0,0,0,0,0,0,0,0,0,0,92,185,186,523,628,525,
0,0,0,0,0,0,0,0,0,0,112,205,206,567,629,525,
0,0,0,0,0,0,0,0,0,0,152,153,586,627,629,415,
0,0,0,0,0,0,0,0,0,0,152,153,523,629,525,157,
0,0,0,0,0,0,0,0,0,333,185,186,523,164,525,157,
0,0,0,0,0,0,0,0,333,353,114,206,567,627,525,157,
0,0,0,0,0,0,0,333,353,373,134,586,244,628,525,157,
0,0,0,0,0,0,333,353,373,627,628,227,155,161,525,157,
0,0,0,0,0,352,353,373,628,630,227,155,155,161,525,157,
0,0,0,0,0,372,373,523,627,227,155,155,155,161,525,157
</chunk>
   <chunk x="0" y="-48" width="16" height="16">
137,138,0,0,0,0,0,0,0,152,153,523,525,157,158,0,
157,158,0,0,0,0,0,0,0,152,153,523,525,157,158,0,
157,158,0,0,0,0,0,0,0,152,153,523,525,157,158,0,
157,158,0,0,0,0,0,0,0,152,153,523,525,182,183,98,
157,158,0,0,0,0,0,0,0,152,153,523,561,202,203,118,
157,158,0,0,0,0,0,0,0,152,153,523,629,582,157,158,
157,158,0,0,0,0,0,0,0,152,153,523,164,525,182,183,
157,158,0,0,0,0,0,0,0,152,153,523,164,561,202,203,
394,395,0,0,0,0,0,0,0,152,153,523,629,629,582,182,
158,0,0,0,0,0,0,0,0,152,153,523,627,244,561,202,
158,0,0,0,0,0,0,0,0,152,153,523,167,155,161,582,
158,0,0,0,0,0,0,0,0,152,153,523,167,155,221,561,
158,0,0,0,0,0,0,0,0,152,153,523,167,155,155,221,
158,0,0,0,0,0,0,0,0,392,393,412,628,107,155,155,
158,0,0,0,0,0,0,0,0,0,152,153,523,167,155,155,
158,0,0,0,0,0,0,0,0,0,392,393,412,627,107,155
</chunk>
   <chunk x="16" y="-48" width="16" height="16">
0,0,0,0,0,0,0,0,0,0,0,0,0,0,0,0,
0,0,0,0,0,0,0,0,0,0,0,0,0,0,0,0,
0,0,0,0,0,0,0,0,0,0,0,0,0,0,0,0,
0,0,0,0,0,0,0,0,0,0,0,0,0,0,0,0,
0,0,0,0,0,0,0,0,0,0,0,0,0,0,0,0,
0,0,0,0,0,0,0,0,0,0,0,0,0,0,0,0,
98,0,0,0,0,0,0,0,0,0,0,0,0,0,0,0,
118,0,0,0,0,0,0,0,0,0,0,0,0,0,0,0,
263,264,0,0,0,0,0,0,0,0,0,0,0,0,0,0,
283,284,0,0,0,0,0,0,0,0,0,0,0,0,0,0,
303,304,334,337,0,0,0,0,0,0,0,0,0,0,0,0,
323,116,354,355,0,0,0,0,0,0,0,0,0,0,0,0,
582,136,137,138,0,0,0,0,0,0,0,0,0,0,0,0,
161,525,157,158,0,0,0,0,0,0,0,0,0,0,0,0,
161,525,182,183,95,263,264,0,0,0,0,0,0,0,0,0,
221,561,202,203,115,283,284,0,0,0,0,0,0,0,0,0
</chunk>
   <chunk x="-32" y="-32" width="16" height="16">
0,0,0,0,0,0,0,0,0,0,0,0,0,0,0,0,
0,0,0,0,0,0,0,0,0,0,0,0,0,0,0,0,
0,0,0,0,0,0,0,0,0,0,0,0,0,0,0,0,
0,0,0,0,0,0,0,0,0,0,0,0,0,0,0,0,
0,0,0,0,0,0,0,0,0,0,0,0,0,0,0,333,
0,0,0,0,0,0,0,0,0,0,0,0,0,0,352,353,
0,0,0,0,0,0,0,0,0,0,0,0,0,0,372,373,
0,0,0,0,0,0,0,0,0,0,0,0,0,0,152,153,
0,0,0,0,0,0,0,0,0,0,0,0,0,0,152,153,
0,0,0,0,0,0,0,0,0,0,0,0,0,333,185,186,
0,0,0,0,0,0,0,0,0,0,0,0,352,353,114,206,
0,0,0,0,0,0,0,0,0,0,0,0,132,133,134,586,
0,0,0,0,0,0,0,0,0,0,0,0,152,153,523,167,
0,0,0,0,0,0,0,0,0,0,0,0,152,153,523,167,
0,0,0,0,0,0,0,0,0,0,0,261,262,186,523,167,
0,0,0,0,0,0,0,0,0,0,0,281,282,206,567,227
</chunk>
   <chunk x="-16" y="-32" width="16" height="16">
0,0,0,0,338,185,186,523,167,155,155,155,101,630,415,394,
0,0,333,357,358,205,206,567,227,155,155,155,161,525,157,158,
0,333,353,377,378,504,586,227,155,155,155,155,161,525,157,158,
333,353,373,630,164,630,227,155,155,155,155,155,161,525,157,158,
353,373,627,164,244,227,155,155,155,155,155,155,161,525,157,158,
373,628,628,227,155,155,155,155,155,155,155,101,629,415,394,395,
523,629,227,155,155,155,155,155,155,155,155,161,525,157,158,0,
523,167,155,155,155,155,155,155,155,155,155,161,525,157,158,0,
523,167,155,155,155,155,155,155,155,155,155,161,122,123,198,0,
523,167,155,155,155,155,155,155,155,155,101,525,182,183,218,95,
567,227,155,155,155,155,155,155,155,155,221,561,202,203,115,115,
227,155,155,155,155,155,155,155,155,155,155,221,582,504,504,504,
155,155,155,155,155,155,155,155,155,155,155,155,221,244,244,244,
155,155,155,155,155,155,155,155,155,155,155,155,155,155,155,155,
155,155,155,155,155,155,155,155,155,155,155,155,101,104,104,107,
155,155,155,155,155,155,101,104,104,104,104,104,629,627,628,628
</chunk>
   <chunk x="0" y="-32" width="16" height="16">
395,0,0,0,0,0,0,0,0,0,0,152,153,523,167,155,
0,0,0,0,0,0,0,0,0,0,0,392,393,412,627,107,
0,0,0,0,0,0,0,0,0,0,0,0,392,393,412,630,
0,0,0,0,0,0,0,0,0,0,0,0,0,392,393,412,
0,0,0,0,0,0,0,0,0,0,0,0,0,0,152,153,
0,0,0,0,0,0,0,0,0,0,0,0,0,0,392,393,
0,0,0,0,0,0,0,0,0,0,0,0,0,0,0,392,
0,0,0,0,0,0,0,0,0,0,0,0,0,0,0,0,
0,0,0,0,0,0,0,0,0,0,0,0,0,0,0,0,
95,339,340,0,0,0,0,0,0,0,0,0,0,0,0,0,
115,359,360,95,96,97,98,0,0,0,0,0,0,0,0,0,
504,379,380,115,116,117,118,0,0,0,0,0,0,0,0,0,
630,164,627,504,136,137,138,0,0,0,0,0,0,0,0,0,
221,244,244,164,525,157,158,0,0,0,0,0,0,0,0,0,
155,155,155,161,525,182,96,97,98,0,0,0,0,0,0,0,
104,107,155,221,561,202,116,117,118,0,0,0,0,0,0,0
</chunk>
   <chunk x="16" y="-32" width="16" height="16">
155,221,582,504,504,303,304,334,337,0,0,0,0,0,0,0,
155,155,221,244,561,323,116,354,355,0,0,0,0,0,0,0,
107,155,155,155,221,582,136,137,138,0,0,0,0,0,0,0,
627,107,155,155,155,161,525,157,158,0,0,0,0,0,0,0,
523,167,155,155,101,628,415,394,395,0,0,0,0,0,0,0,
412,627,104,104,628,525,157,158,0,0,0,0,0,0,0,0,
393,412,629,630,628,525,157,158,0,0,0,0,0,0,0,0,
192,193,438,627,629,525,182,183,98,0,0,0,0,0,0,0,
212,213,397,398,438,561,202,203,118,0,0,0,0,0,0,0,
0,0,0,418,153,523,582,157,158,0,0,0,0,0,0,0,
0,0,0,152,153,523,525,157,158,0,0,0,0,0,0,0,
0,0,0,152,153,523,525,157,158,0,0,0,0,0,0,0,
0,0,0,152,153,523,525,157,158,0,0,0,0,0,0,0,
0,0,0,152,153,523,525,182,183,97,98,0,0,0,0,0,
0,0,0,152,153,523,561,202,203,117,118,0,0,0,0,0,
92,93,94,185,186,523,628,582,504,182,183,98,0,0,0,0
</chunk>
   <chunk x="32" y="-32" width="16" height="16">
0,0,0,0,0,0,0,0,0,0,0,0,0,0,0,0,
0,0,0,0,0,0,0,0,0,0,0,0,0,0,0,0,
0,0,0,0,0,0,0,0,0,0,0,0,0,0,0,0,
0,0,0,0,0,0,0,0,0,0,0,0,0,0,0,0,
0,0,0,0,0,0,0,0,0,0,0,0,0,0,0,0,
0,0,0,0,0,0,0,0,0,0,0,0,0,0,0,0,
0,0,0,0,0,0,0,0,0,0,0,0,0,0,0,0,
0,0,0,0,0,0,0,0,0,0,0,0,0,0,0,0,
0,0,0,0,0,0,0,0,0,0,0,0,0,0,0,0,
0,0,0,0,0,0,0,0,0,0,0,0,0,0,0,0,
0,0,0,0,0,0,0,0,0,0,0,0,0,0,0,0,
0,0,0,0,0,0,0,0,0,0,0,0,0,0,0,0,
0,0,0,0,0,0,0,0,0,0,0,0,0,0,0,0,
0,0,0,0,0,0,0,0,0,0,0,338,95,97,98,0,
0,0,0,0,0,0,0,0,0,356,357,358,115,117,118,0,
0,0,0,0,0,0,0,0,0,376,318,378,504,157,158,0
</chunk>
   <chunk x="-64" y="-16" width="16" height="16">
0,0,0,0,0,0,0,0,0,0,0,0,0,0,0,0,
0,0,0,0,0,0,0,0,0,0,0,0,0,0,0,0,
0,0,0,0,0,0,0,0,0,0,0,0,0,0,0,0,
0,0,0,0,0,0,0,0,0,0,0,0,0,0,0,0,
0,0,0,0,0,0,0,0,0,0,0,0,0,0,0,0,
0,0,0,0,0,0,0,0,0,0,0,0,0,0,0,0,
0,0,0,0,0,0,0,0,0,0,0,0,0,0,0,0,
0,0,0,0,0,0,0,0,0,0,0,0,0,0,0,333,
0,0,0,0,0,0,0,0,0,0,0,0,0,0,333,353,
0,0,0,0,0,0,0,0,0,0,0,0,0,352,353,373,
0,0,0,0,0,0,0,0,0,0,0,0,0,372,373,523,
0,0,0,0,0,0,0,0,0,0,0,0,0,152,153,523,
0,0,0,0,0,0,0,0,0,0,0,0,0,152,153,523,
0,0,0,0,0,0,0,0,0,0,0,0,0,152,153,523,
0,0,0,0,0,0,0,0,0,0,0,0,0,152,153,523,
0,0,0,0,0,0,0,0,0,0,0,0,0,152,153,523
</chunk>
   <chunk x="-48" y="-16" width="16" height="16">
0,0,0,0,0,0,0,0,0,0,0,0,0,0,0,0,
0,0,0,0,0,0,0,0,0,0,0,0,0,0,0,0,
0,0,0,0,0,0,0,0,0,0,0,0,0,0,0,0,
0,0,0,0,0,0,0,0,0,0,0,0,0,0,0,0,
0,0,0,0,0,0,0,0,0,0,0,0,0,0,0,0,
0,0,0,0,0,0,0,0,0,0,0,0,0,0,0,0,
0,338,97,98,0,0,0,0,0,0,0,0,0,0,0,0,
357,358,117,118,0,0,0,0,0,0,0,0,0,0,0,0,
377,378,157,158,0,0,0,0,0,0,0,0,0,0,0,0,
627,525,182,183,95,95,95,95,95,95,95,95,95,95,95,95,
629,561,202,203,115,115,115,115,115,115,115,115,115,115,115,115,
629,244,582,504,504,504,504,504,504,504,504,504,504,504,504,504,
167,155,221,244,244,630,630,629,628,439,438,627,629,164,628,439,
167,155,155,155,155,161,164,439,399,400,397,398,195,195,399,400,
167,155,155,155,155,161,525,182,183,334,0,418,215,215,419,0,
167,155,155,155,155,221,561,202,116,354,334,0,0,0,0,333
</chunk>
   <chunk x="-32" y="-16" width="16" height="16">
0,0,0,0,0,0,0,0,0,0,333,301,302,586,167,155,
0,0,0,0,0,0,0,0,0,333,353,321,322,567,227,155,
0,0,0,0,0,0,0,0,333,353,373,134,226,227,155,155,
0,0,0,0,0,0,0,333,353,373,629,164,227,155,155,155,
0,0,0,0,0,0,333,353,373,628,164,227,155,155,155,155,
0,0,0,0,0,338,353,373,629,628,227,155,155,155,155,155,
0,0,92,93,357,358,332,628,628,167,155,155,155,155,155,155,
0,0,112,113,377,378,630,164,628,628,104,104,104,104,104,104,
0,338,185,186,523,630,627,630,628,627,628,628,630,628,629,164,
357,358,205,206,627,629,439,195,195,195,195,195,195,195,195,195,
377,378,504,164,439,399,400,215,215,215,215,215,215,215,215,215,
629,439,195,399,400,419,0,0,0,0,0,0,0,0,0,0,
399,400,215,419,0,0,0,0,0,0,0,0,0,0,0,0,
419,0,0,0,0,0,0,0,0,0,0,0,0,0,0,0,
0,338,95,95,95,95,95,95,95,95,95,95,95,95,95,95,
357,358,115,115,115,115,115,115,115,115,115,115,115,115,115,115
</chunk>
   <chunk x="-16" y="-16" width="16" height="16">
155,155,155,155,101,104,629,628,629,628,629,164,630,439,438,630,
155,155,155,101,629,629,164,439,195,195,195,195,399,400,397,398,
155,155,101,164,628,439,399,400,215,215,215,215,419,0,0,418,
155,101,629,439,399,400,419,0,0,0,0,0,0,0,0,0,
155,161,525,157,419,0,0,0,0,0,0,0,0,0,0,0,
155,161,525,157,158,0,0,0,0,0,0,0,0,0,0,0,
101,627,415,394,395,0,0,0,0,0,0,0,0,0,0,0,
628,415,394,395,0,0,0,0,0,0,0,0,0,0,0,0,
176,177,178,0,0,0,0,0,0,0,0,0,0,0,0,0,
196,394,395,0,0,0,0,0,0,0,0,0,0,0,0,0,
216,414,0,0,0,0,0,0,0,0,0,0,0,0,0,0,
0,0,0,0,0,0,0,0,0,0,0,0,0,0,0,0,
0,0,0,0,0,0,0,0,0,0,0,0,0,0,0,0,
0,0,0,0,0,0,0,0,0,0,0,0,0,0,0,0,
95,95,95,95,95,95,95,95,95,95,95,96,97,98,0,0,
115,115,115,115,115,115,115,115,115,115,115,116,117,118,0,92
</chunk>
   <chunk x="0" y="-16" width="16" height="16">
629,628,107,155,221,582,136,137,138,0,0,0,0,0,0,0,
438,629,628,107,155,161,525,157,158,0,0,0,0,0,0,0,
397,398,438,628,104,630,525,157,158,0,0,0,0,0,0,0,
0,418,393,412,627,628,525,157,158,0,0,0,0,0,92,93,
0,0,152,153,523,164,525,157,158,0,0,0,0,0,112,113,
0,0,152,153,523,628,525,182,183,339,340,0,0,0,132,133,
0,0,396,397,398,438,164,202,203,359,360,334,0,0,152,153,
0,0,0,0,418,153,523,627,504,379,380,354,355,0,392,393,
0,0,0,0,396,397,398,438,629,627,525,374,375,0,0,392,
0,0,0,0,0,0,418,393,438,628,525,157,158,0,0,0,
0,0,0,0,0,0,0,413,397,398,195,197,198,0,0,0,
0,0,0,0,0,0,0,0,0,418,215,217,218,0,0,0,
0,0,0,0,0,0,0,0,0,0,0,0,0,0,0,0,
0,0,0,0,0,0,0,0,0,0,0,0,0,0,0,0,
0,0,0,0,0,0,333,94,95,263,264,0,0,0,261,262,
93,94,95,95,95,95,353,114,115,283,279,95,95,95,301,282
</chunk>
   <chunk x="16" y="-16" width="16" height="16">
112,113,114,205,206,567,244,244,561,202,203,118,0,0,0,0,
132,133,134,504,586,227,155,155,161,582,157,158,0,0,0,0,
152,153,523,630,227,155,155,155,161,525,157,158,0,0,0,0,
94,186,523,167,155,155,155,155,161,525,182,183,98,0,0,0,
114,206,567,227,155,155,155,155,221,561,202,203,118,0,0,0,
134,586,227,155,155,155,155,155,155,161,582,157,158,0,0,0,
523,167,155,155,155,155,155,155,155,161,525,157,158,0,0,0,
412,164,107,155,155,155,155,155,155,161,525,182,183,95,95,95,
393,412,629,107,155,155,155,155,155,221,561,202,203,115,115,115,
392,393,412,629,107,155,155,155,155,155,221,582,504,504,504,504,
0,152,153,523,167,155,155,155,155,155,155,221,244,628,629,627,
0,152,153,523,167,155,101,104,107,155,155,155,155,161,627,164,
0,152,153,523,628,104,629,627,630,107,155,155,101,628,439,399,
0,392,393,412,629,629,629,439,412,627,104,104,627,415,394,419,
96,334,392,393,412,439,399,400,393,412,630,630,415,394,395,0,
116,354,339,192,193,197,198,0,152,153,523,525,157,158,0,0
</chunk>
   <chunk x="32" y="-16" width="16" height="16">
0,0,0,0,0,0,0,0,338,185,186,523,525,157,158,0,
0,0,0,0,0,0,356,357,358,205,206,567,525,157,158,0,
0,0,0,0,0,0,376,318,378,504,586,629,525,157,158,0,
0,0,0,0,0,92,185,186,523,629,630,164,525,157,158,0,
0,0,0,0,0,112,205,206,567,244,629,627,415,394,395,0,
0,0,0,0,0,152,153,586,167,155,161,525,157,158,0,0,
0,0,0,0,0,152,153,523,167,155,161,525,157,158,0,0,
95,95,95,95,95,185,186,523,164,104,630,415,394,395,0,0,
115,115,115,115,115,205,206,567,629,164,176,177,178,0,0,0,
504,504,504,504,504,504,586,627,164,439,196,394,395,0,0,0,
627,164,439,195,195,195,195,195,399,400,216,414,0,0,0,0,
439,399,400,215,215,215,215,215,419,0,0,0,0,0,0,0,
400,419,0,0,0,0,0,0,0,0,0,0,0,0,0,0,
0,0,0,0,0,0,0,0,0,0,0,0,0,0,0,0,
0,0,0,0,0,0,0,0,0,0,0,0,0,0,0,0,
0,0,0,0,0,0,0,0,0,0,0,0,0,0,0,0
</chunk>
   <chunk x="48" y="-16" width="16" height="16">
0,0,0,0,0,0,0,0,0,0,0,0,0,0,0,0,
0,0,0,0,0,0,0,0,0,0,0,0,0,0,0,0,
0,0,0,0,0,0,0,0,0,0,0,0,0,0,0,0,
0,0,0,0,0,0,0,0,0,0,0,0,0,0,0,0,
0,0,0,0,0,0,0,0,0,0,0,0,0,333,94,95,
0,0,0,0,0,0,0,0,0,0,0,0,352,353,114,115,
0,0,0,0,0,0,0,0,0,0,0,0,132,133,134,504,
0,0,0,0,0,0,0,0,0,0,0,0,152,153,523,164,
0,0,0,0,0,0,0,0,0,0,0,0,152,153,523,525,
0,0,0,0,0,0,0,0,0,0,0,92,185,186,523,561,
0,0,0,0,0,0,0,0,0,0,0,112,205,206,567,629,
0,0,0,0,0,0,0,0,0,0,0,152,153,586,628,628,
0,0,0,0,0,0,0,0,0,0,0,152,153,523,630,525,
0,0,0,0,0,0,0,0,0,0,0,152,153,523,628,561,
0,0,0,0,0,0,0,0,0,0,0,152,153,523,629,627,
0,0,0,0,0,0,0,0,0,0,0,152,153,523,630,629
</chunk>
   <chunk x="64" y="-16" width="16" height="16">
0,0,0,0,0,0,0,0,0,0,0,0,0,0,0,0,
0,0,0,0,0,0,0,0,0,0,0,0,0,0,0,0,
0,0,0,0,0,0,0,0,92,93,96,334,337,0,0,0,
0,0,0,0,0,0,0,0,112,113,116,354,355,0,0,0,
96,97,98,0,0,0,0,0,152,153,136,137,138,0,0,0,
116,117,118,0,0,0,0,0,192,125,126,157,158,0,0,0,
136,137,138,0,0,0,0,0,92,145,146,182,183,98,0,0,
122,123,198,0,0,0,0,0,112,205,206,202,203,118,0,0,
182,183,98,0,0,0,0,0,152,153,523,525,157,158,0,0,
202,203,118,0,0,0,0,0,192,125,126,525,157,158,0,0,
582,157,158,0,0,0,0,0,92,145,146,525,157,158,0,0,
122,123,198,0,0,0,0,0,112,205,206,176,177,178,0,0,
182,183,98,0,0,0,0,0,192,193,195,196,394,395,0,0,
202,203,118,0,0,0,0,0,212,213,215,216,414,0,0,0,
582,157,158,0,0,0,0,0,0,0,0,0,0,0,0,0,
525,182,183,95,95,95,95,95,95,95,95,95,96,97,98,0
</chunk>
   <chunk x="-64" y="0" width="16" height="16">
0,0,0,0,0,0,0,0,0,0,0,0,0,152,153,523,
0,0,0,0,0,0,0,0,0,0,0,0,0,152,153,523,
0,0,0,0,0,0,0,0,0,0,0,0,0,152,153,523,
0,0,0,0,0,0,0,0,0,0,0,0,0,152,153,523,
0,0,0,0,0,0,0,0,0,0,0,0,0,392,393,412,
0,0,0,0,0,0,0,0,0,0,0,0,0,0,392,393,
0,0,0,0,0,0,0,0,0,0,0,0,0,0,0,392,
0,0,0,0,0,0,0,0,0,0,0,0,0,0,0,0,
0,0,0,0,0,0,0,0,0,0,0,0,0,0,0,0,
0,0,0,0,0,0,0,0,0,0,0,0,0,0,0,0,
0,0,0,0,0,0,0,0,0,0,0,0,0,0,0,0,
0,0,0,0,0,0,0,0,0,0,0,0,0,0,0,0,
0,0,0,0,0,0,0,0,0,0,0,0,0,0,0,0,
0,0,0,0,0,0,0,0,0,0,0,0,0,0,0,0,
0,0,0,0,0,0,0,0,0,0,0,0,0,0,0,0,
0,0,0,0,0,0,0,0,0,0,0,0,0,0,0,0
</chunk>
   <chunk x="-48" y="0" width="16" height="16">
167,155,155,155,155,155,221,582,136,374,354,334,0,0,352,353,
167,155,155,155,155,155,155,221,630,164,374,354,355,0,372,373,
167,155,155,155,155,155,155,155,221,630,525,374,375,0,152,153,
167,155,155,155,155,155,155,155,155,161,525,157,158,92,185,186,
628,107,155,155,155,155,155,155,101,628,525,157,92,185,186,206,
412,164,104,104,104,104,104,104,164,439,399,400,401,205,206,586,
393,412,164,630,630,628,628,627,176,177,178,0,152,153,523,167,
192,193,195,195,195,195,195,195,196,394,395,0,152,153,523,167,
212,213,215,215,215,215,215,215,216,414,0,0,152,153,523,167,
0,0,0,0,0,0,0,0,0,0,0,0,152,153,523,167,
0,0,0,0,0,0,0,0,0,0,0,0,152,153,523,167,
0,0,0,0,0,0,0,0,0,0,338,95,185,186,523,167,
0,0,0,0,0,0,0,0,0,357,358,115,205,206,164,628,
0,0,0,0,0,0,0,0,192,193,523,438,504,629,629,630,
0,0,0,0,0,0,0,0,212,213,0,397,398,195,195,195,
0,0,0,0,0,0,0,0,0,0,0,0,418,215,215,215
</chunk>
   <chunk x="-32" y="0" width="16" height="16">
377,378,504,504,504,504,504,504,504,504,504,504,504,504,504,504,
523,629,629,244,244,244,244,244,244,244,244,244,244,244,244,244,
523,627,227,155,155,155,155,155,155,155,155,155,155,155,155,155,
523,167,155,155,155,155,155,155,155,155,155,155,155,155,155,155,
567,227,155,155,155,155,155,155,155,155,155,155,155,155,155,155,
227,155,155,155,155,155,155,155,155,101,104,104,104,104,104,104,
155,155,155,155,155,155,155,155,101,627,627,164,628,630,630,628,
155,155,155,155,155,155,155,101,630,627,439,195,195,195,195,195,
155,155,155,155,155,155,101,629,439,399,400,215,215,215,215,215,
155,155,155,155,155,101,630,415,394,419,0,0,0,0,0,0,
155,155,155,155,155,161,525,157,158,0,0,0,0,0,0,0,
155,101,104,104,104,628,525,157,158,0,0,0,0,0,0,0,
104,164,629,164,629,628,415,394,395,0,0,0,0,0,0,0,
627,164,439,195,195,195,197,198,0,0,0,0,0,0,0,0,
195,399,400,215,215,215,217,218,0,0,0,0,0,0,0,0,
215,419,0,0,0,0,0,0,0,0,0,0,0,0,0,0
</chunk>
   <chunk x="-16" y="0" width="16" height="16">
504,504,504,504,504,504,504,504,504,504,504,136,137,138,0,112,
244,244,244,244,244,244,244,244,244,244,628,525,157,158,0,132,
155,155,155,155,155,155,155,155,155,155,161,525,157,158,0,152,
155,155,155,155,155,155,155,155,155,155,161,525,157,158,0,152,
155,155,155,155,155,155,155,155,155,155,161,525,157,158,0,152,
104,104,104,104,104,104,107,155,155,155,161,525,157,158,0,152,
630,629,630,628,628,627,164,107,155,155,161,525,157,158,0,152,
195,195,195,195,195,438,629,630,107,155,161,525,157,158,0,152,
215,215,215,215,215,397,398,438,627,104,627,525,157,158,0,152,
0,0,0,0,0,0,418,153,523,627,629,525,157,158,0,152,
0,0,0,0,0,0,152,153,523,630,627,525,157,158,0,152,
0,0,0,0,0,0,152,153,523,627,628,525,157,158,0,152,
0,0,0,0,0,0,152,153,523,628,627,525,157,158,0,152,
0,0,0,0,0,0,152,153,523,628,630,525,157,158,0,152,
0,0,0,0,0,0,152,153,523,630,627,525,157,158,0,152,
0,0,0,0,0,0,152,153,523,164,628,525,157,158,0,152
</chunk>
   <chunk x="0" y="0" width="16" height="16">
113,114,115,115,115,115,332,134,561,323,324,115,115,115,321,322,
133,134,504,504,504,504,629,164,244,582,504,504,504,504,504,627,
153,523,627,244,244,244,244,227,155,161,628,627,164,244,244,244,
153,523,167,155,155,155,155,155,155,161,629,627,167,155,155,155,
153,523,167,155,155,155,155,155,101,629,164,627,164,104,107,155,
153,523,167,155,155,155,101,104,627,630,439,438,164,164,164,104,
153,523,167,155,155,101,629,164,439,399,400,397,398,438,164,630,
153,523,167,155,101,629,627,439,197,198,0,0,418,397,398,438,
153,523,629,104,630,439,399,400,217,218,0,0,0,0,418,397,
153,523,629,627,525,157,419,0,0,0,0,0,0,0,0,0,
153,523,164,627,525,157,158,0,0,0,0,0,0,0,0,0,
153,523,164,628,525,157,158,0,0,0,0,0,0,0,0,0,
153,523,628,164,525,157,158,0,0,0,0,0,0,0,0,0,
153,523,630,627,525,157,158,0,0,0,0,0,0,0,0,0,
153,523,164,628,525,157,158,0,0,0,0,0,0,0,0,0,
153,523,630,627,525,157,158,0,0,0,0,0,0,0,0,0
</chunk>
   <chunk x="16" y="0" width="16" height="16">
136,335,359,360,361,217,218,0,152,153,523,415,394,395,0,0,
629,627,379,319,381,0,0,0,192,193,195,394,395,0,0,0,
244,628,525,157,158,0,0,0,212,213,215,414,0,0,0,0,
155,161,525,157,158,0,0,0,0,0,0,0,0,0,0,0,
155,161,525,182,183,95,339,340,0,0,0,0,0,0,0,0,
104,627,561,202,203,115,359,360,95,95,95,339,340,0,0,0,
628,629,164,582,504,504,379,380,115,115,115,359,360,95,95,95,
164,164,628,630,244,629,628,629,504,504,504,379,380,115,115,115,
398,438,630,167,155,221,244,244,244,244,629,629,630,504,504,504,
418,153,523,167,155,155,155,155,155,155,161,629,244,244,244,244,
152,153,523,629,104,104,104,104,104,104,628,167,155,155,155,155,
392,393,412,164,164,164,627,628,630,628,627,630,104,104,104,104,
0,392,393,195,195,195,195,195,195,195,438,627,630,629,164,628,
0,0,413,215,215,215,215,215,215,215,397,398,195,195,195,195,
0,0,0,0,0,0,0,0,0,0,0,418,215,215,215,215,
0,0,0,0,0,0,0,0,0,0,0,0,0,0,0,0
</chunk>
   <chunk x="32" y="0" width="16" height="16">
0,0,0,0,0,0,0,0,0,0,0,0,0,0,0,0,
0,0,0,0,0,0,0,0,0,0,0,0,0,0,0,0,
0,0,0,0,0,0,0,0,0,0,0,0,0,0,0,0,
0,0,0,0,0,0,0,0,0,0,0,0,0,0,338,357,
0,0,0,0,0,0,0,0,0,0,0,0,333,357,358,377,
0,0,0,0,0,0,0,0,0,0,0,338,353,377,378,627,
95,95,95,95,95,95,95,95,95,95,357,358,332,164,164,628,
115,115,115,115,115,115,115,115,115,115,377,378,627,164,244,227,
504,504,504,504,504,504,504,504,504,504,630,629,629,227,155,155,
244,244,244,244,244,164,630,627,628,628,630,627,227,155,155,155,
155,155,155,155,155,161,629,630,627,627,629,167,155,101,104,104,
104,104,104,104,104,630,629,629,627,628,629,628,104,627,629,164,
164,630,164,630,164,628,439,195,195,195,438,630,627,630,439,195,
195,195,195,195,195,399,400,215,215,215,397,398,195,399,400,215,
215,215,215,215,215,419,0,0,0,0,0,418,215,419,0,0,
0,0,0,0,0,0,0,0,0,0,0,0,0,0,0,0
</chunk>
   <chunk x="48" y="0" width="16" height="16">
0,0,0,0,0,0,0,0,0,0,0,392,393,412,628,628,
0,0,338,97,98,0,0,0,0,0,0,0,152,153,523,629,
338,357,358,117,118,0,0,0,0,0,0,0,392,393,412,629,
358,377,378,182,183,339,340,0,0,0,0,0,0,392,393,412,
378,629,561,202,203,359,360,334,0,0,0,0,0,0,392,393,
629,629,244,582,504,379,380,354,334,0,0,0,0,0,0,192,
244,227,155,221,629,629,628,374,354,339,340,0,0,0,0,212,
155,155,155,155,221,244,627,629,335,359,360,339,340,0,0,338,
155,155,155,155,155,155,221,164,627,379,380,359,360,95,357,358,
155,155,155,155,155,155,155,221,630,627,164,379,380,115,377,378,
104,104,107,155,155,155,155,155,161,164,629,164,629,504,629,629,
628,164,629,104,107,155,155,155,161,630,627,629,630,630,164,627,
195,438,628,629,164,104,104,104,164,628,628,164,164,629,628,627,
215,397,398,438,630,629,627,627,629,439,195,195,195,195,195,195,
0,0,418,397,398,195,195,195,399,400,215,215,215,215,215,215,
0,0,0,0,418,215,215,215,419,0,0,0,0,0,0,0
</chunk>
   <chunk x="64" y="0" width="16" height="16">
561,202,203,115,115,115,115,115,115,115,115,115,116,117,118,0,
627,582,504,504,504,504,504,504,504,504,504,504,136,137,138,0,
627,630,628,630,630,164,439,195,195,195,195,195,196,197,198,0,
629,627,627,164,439,399,400,215,215,215,215,215,216,217,218,0,
412,630,629,525,157,419,0,0,0,0,0,0,0,0,0,0,
125,126,627,415,394,395,0,0,0,0,0,0,0,0,0,0,
145,125,126,157,158,0,0,0,0,0,0,0,0,0,0,0,
212,145,146,162,163,0,0,0,0,0,0,0,0,0,0,0,
115,205,206,157,158,0,0,0,0,0,0,0,0,0,0,0,
504,504,415,394,395,0,0,0,0,0,0,0,0,0,0,0,
628,415,394,395,0,0,0,0,0,0,0,0,0,0,0,0,
525,157,158,0,0,0,0,0,0,0,0,0,0,0,0,0,
176,177,178,0,0,0,0,0,0,0,0,0,0,0,0,0,
196,394,395,0,0,0,0,0,0,0,0,0,0,0,0,0,
216,414,0,0,0,0,0,0,0,0,0,0,0,0,0,0,
0,0,0,0,0,0,0,0,0,0,0,0,0,0,0,0
</chunk>
   <chunk x="-16" y="16" width="16" height="16">
0,0,0,0,0,0,152,153,523,629,164,525,157,158,0,152,
0,0,0,0,0,0,152,153,523,164,629,525,157,158,0,152,
0,0,0,0,0,0,172,173,174,164,630,176,177,178,0,172,
0,0,0,0,0,0,192,193,194,195,195,196,197,198,0,192,
0,0,0,0,0,0,212,213,214,215,215,216,217,218,0,212,
0,0,0,0,0,0,0,0,0,0,0,0,0,0,0,0,
0,0,0,0,0,0,0,0,0,0,0,0,0,0,0,0,
0,0,0,0,0,0,0,0,0,0,0,0,0,0,0,0,
0,0,0,0,0,0,0,0,0,0,0,0,0,0,0,0,
0,0,0,0,0,0,0,0,0,0,0,0,0,0,0,0,
0,0,0,0,0,0,0,0,0,0,0,0,0,0,0,0,
0,0,0,0,0,0,0,0,0,0,0,0,0,0,0,0,
0,0,0,0,0,0,0,0,0,0,0,0,0,0,0,0,
0,0,0,0,0,0,0,0,0,0,0,0,0,0,0,0,
0,0,0,0,0,0,0,0,0,0,0,0,0,0,0,0,
0,0,0,0,0,0,0,0,0,0,0,0,0,0,0,0
</chunk>
   <chunk x="0" y="16" width="16" height="16">
153,523,629,164,525,157,158,0,0,0,0,0,0,0,0,0,
153,523,627,630,525,157,158,0,0,0,0,0,0,0,0,0,
173,174,164,164,176,177,178,0,0,0,0,0,0,0,0,0,
193,194,195,195,196,197,198,0,0,0,0,0,0,0,0,0,
213,214,215,215,216,217,218,0,0,0,0,0,0,0,0,0,
0,0,0,0,0,0,0,0,0,0,0,0,0,0,0,0,
0,0,0,0,0,0,0,0,0,0,0,0,0,0,0,0,
0,0,0,0,0,0,0,0,0,0,0,0,0,0,0,0,
0,0,0,0,0,0,0,0,0,0,0,0,0,0,0,0,
0,0,0,0,0,0,0,0,0,0,0,0,0,0,0,0,
0,0,0,0,0,0,0,0,0,0,0,0,0,0,0,0,
0,0,0,0,0,0,0,0,0,0,0,0,0,0,0,0,
0,0,0,0,0,0,0,0,0,0,0,0,0,0,0,0,
0,0,0,0,0,0,0,0,0,0,0,0,0,0,0,0,
0,0,0,0,0,0,0,0,0,0,0,0,0,0,0,0,
0,0,0,0,0,0,0,0,0,0,0,0,0,0,0,0
</chunk>
  </data>
 </layer>
</map>
