<?xml version="1.0" encoding="UTF-8"?>
<map version="1.10" tiledversion="1.12.0" orientation="orthogonal" renderorder="right-down" width="20" height="30" tilewidth="16" tileheight="16" infinite="1" nextlayerid="11" nextobjectid="1">
 <tileset firstgid="1" source="../tileset template.tsx"/>
 <tileset firstgid="51" source="../tangled incomplete tileset.tsx"/>
 <tileset firstgid="631" source=":/automap-tiles.tsx"/>
 <layer id="1" name="input_temp" width="20" height="30" opacity="0.51">
  <data encoding="csv">
   <chunk x="0" y="0" width="16" height="16">
12,0,0,0,0,0,0,0,0,0,0,0,0,0,0,0,
0,0,0,0,0,0,0,0,0,0,0,0,0,0,0,0,
0,15,0,16,0,0,634,12,12,0,12,12,634,0,12,0,
0,634,0,634,0,0,0,0,0,0,0,0,0,0,12,0,
0,0,0,0,0,0,0,0,0,0,0,0,0,0,634,0,
0,0,0,0,0,0,0,0,0,0,0,0,0,0,0,0,
0,634,0,0,0,634,0,0,634,0,0,0,0,0,0,0,
0,12,0,0,0,12,0,0,12,0,0,0,0,0,0,0,
12,12,12,0,12,12,12,0,12,0,0,0,0,0,0,0,
0,0,0,0,0,0,0,0,634,0,0,0,0,0,0,0,
0,0,0,0,0,0,0,0,0,0,0,0,0,0,0,0,
0,634,0,634,0,0,0,634,0,634,0,0,12,634,0,634,
0,5,0,6,0,0,22,23,0,24,25,0,634,0,0,0,
0,0,0,0,0,0,0,0,0,0,0,0,0,0,0,0,
12,12,0,12,12,0,634,12,0,12,634,0,0,0,0,0,
12,634,0,634,12,0,12,12,0,12,12,0,0,0,0,0
</chunk>
   <chunk x="16" y="0" width="16" height="16">
0,0,0,0,0,0,0,0,0,0,0,0,0,0,0,0,
0,0,0,0,0,0,0,0,0,0,0,0,0,0,0,0,
32,33,0,34,35,0,634,12,12,634,0,0,0,0,0,0,
0,634,0,634,0,0,0,0,0,0,0,0,0,0,0,0,
0,0,0,0,0,0,0,0,0,0,0,0,0,0,0,0,
0,0,0,0,0,0,0,0,0,0,0,0,0,0,0,0,
0,0,0,0,0,0,0,0,0,0,0,0,0,0,0,0,
0,0,0,0,0,0,0,0,0,0,0,0,0,0,0,0,
0,0,0,0,0,0,0,0,0,0,0,0,0,0,0,0,
0,0,0,0,0,0,0,0,0,0,0,0,0,0,0,0,
0,0,0,0,0,0,0,0,0,0,0,0,0,0,0,0,
12,0,634,0,0,0,634,0,0,634,0,0,0,633,0,0,
634,0,12,634,0,634,12,0,633,12,633,0,634,12,634,0,
0,0,0,0,0,0,0,0,0,634,0,0,0,633,0,0,
0,0,0,0,0,0,0,0,0,0,0,0,0,0,0,0,
0,0,0,0,0,0,0,0,0,0,0,0,0,0,0,0
</chunk>
   <chunk x="0" y="16" width="16" height="16">
0,0,0,0,0,0,0,0,0,0,0,0,0,0,0,0,
0,634,0,0,0,12,0,0,0,634,0,0,0,634,0,0,
634,12,634,0,634,12,634,0,12,12,634,0,634,12,12,0,
0,12,0,0,0,634,0,0,0,634,0,0,0,634,0,0,
0,0,0,0,0,0,0,0,0,0,0,0,0,0,0,0,
0,634,0,0,0,12,0,0,0,634,634,0,0,0,634,634,
634,12,634,0,634,12,634,0,12,12,12,634,0,634,12,12,
634,12,634,0,634,12,634,0,0,634,634,0,0,0,634,634,
0,12,0,0,0,634,0,0,0,0,0,0,0,0,0,0,
0,0,0,0,0,0,0,0,0,0,0,0,0,0,0,0,
0,633,0,0,0,633,0,0,0,12,634,0,0,0,634,12,
634,12,634,0,12,12,12,0,633,12,12,633,0,633,12,12,
12,12,12,0,634,12,634,0,0,12,634,0,0,0,634,12,
0,633,0,0,0,633,0,0,0,0,0,0,0,0,0,0,
0,0,0,0,0,0,0,0,0,0,0,0,0,0,0,0,
0,0,0,0,0,0,0,0,0,0,0,0,0,0,0,0
</chunk>
   <chunk x="16" y="16" width="16" height="16">
0,0,0,0,0,0,0,0,0,0,0,0,0,0,0,0,
0,0,0,0,0,0,0,0,0,0,0,0,0,0,0,0,
0,0,0,0,0,0,0,0,0,12,12,12,0,0,0,0,
0,0,0,0,0,0,0,0,12,12,12,12,12,0,0,0,
0,0,0,0,0,0,0,12,12,12,12,12,12,12,0,0,
0,0,0,0,0,0,0,12,12,12,12,12,12,12,0,0,
12,0,0,0,0,0,0,0,12,12,12,12,12,0,0,0,
0,0,0,0,0,0,0,0,0,12,12,12,0,0,0,0,
0,0,0,0,0,0,0,0,0,0,12,0,0,0,0,0,
0,0,0,0,0,0,0,0,0,0,0,0,0,0,0,0,
0,0,0,634,12,634,0,0,0,0,0,0,0,0,0,0,
633,0,0,12,12,12,0,0,0,0,0,0,0,0,0,0,
0,0,0,634,12,634,0,0,0,0,0,0,0,0,0,0,
0,0,0,0,0,0,0,0,0,0,0,0,0,0,0,0,
0,0,0,0,0,0,0,0,0,0,0,0,0,0,0,0,
0,0,0,0,0,0,0,0,0,0,0,0,0,0,0,0
</chunk>
   <chunk x="0" y="32" width="16" height="16">
0,12,12,12,0,0,0,12,12,12,0,0,0,0,12,0,
0,12,12,12,0,0,0,12,12,12,0,0,0,634,12,12,
0,634,12,12,0,0,0,12,12,634,0,0,0,12,12,12,
0,0,12,0,0,0,0,0,12,0,0,0,0,12,12,12,
0,0,0,0,0,0,0,0,0,0,0,0,0,12,12,12,
0,0,0,0,0,0,0,0,0,0,0,0,0,0,0,0,
0,12,12,12,0,0,0,12,12,12,0,0,0,634,12,12,
12,12,12,12,0,0,0,12,12,12,12,0,12,12,12,12,
0,634,12,12,0,0,0,12,12,634,0,0,0,12,12,12,
0,0,0,0,0,0,0,0,0,0,0,0,0,12,12,12,
0,0,0,0,0,0,0,0,0,0,0,0,0,0,0,0,
0,0,12,0,0,0,0,0,0,0,12,0,0,0,0,0,
0,12,12,12,0,0,0,0,0,12,12,12,0,0,0,0,
0,12,12,12,12,0,0,0,12,12,12,12,0,0,0,634,
12,12,12,12,12,12,0,12,12,12,12,12,12,0,12,12,
0,634,12,12,12,0,0,0,12,12,12,634,0,0,0,12
</chunk>
   <chunk x="16" y="32" width="16" height="16">
0,0,0,0,12,0,0,0,0,0,0,0,0,0,0,0,
12,0,12,12,12,634,0,0,0,0,0,0,0,0,0,0,
12,0,12,12,12,12,0,0,0,0,0,0,0,0,0,0,
12,0,12,12,12,12,0,0,0,0,0,0,0,0,0,0,
0,0,0,12,12,12,0,0,0,0,0,0,0,0,0,0,
0,0,0,0,0,0,0,0,0,0,0,0,0,0,0,0,
12,0,12,12,12,634,0,0,0,0,0,0,0,0,0,0,
12,0,12,12,12,12,12,0,0,0,0,0,0,0,0,0,
12,0,12,12,12,12,0,0,0,0,0,0,0,0,0,0,
0,0,0,12,12,12,0,0,0,0,0,0,0,0,0,0,
0,0,0,0,0,0,0,0,0,0,0,0,0,0,0,0,
0,0,0,0,0,0,0,0,0,0,0,0,0,0,0,0,
12,0,0,0,0,0,12,0,0,0,0,0,0,0,0,0,
12,12,12,0,12,12,12,634,0,0,0,0,0,0,0,0,
12,12,12,0,12,12,12,12,12,0,0,0,0,0,0,0,
12,12,12,0,12,12,12,12,0,0,0,0,0,0,0,0
</chunk>
   <chunk x="0" y="48" width="16" height="16">
0,0,12,0,0,0,0,0,0,0,12,0,0,0,0,12,
0,0,0,0,0,0,0,0,0,0,0,0,0,0,0,0,
12,0,0,0,12,0,0,12,0,12,0,0,6,634,0,634,
12,633,0,633,12,0,15,12,0,12,16,0,12,634,0,634,
16,0,0,0,15,0,0,633,0,633,0,0,0,0,0,0,
0,0,0,0,0,0,0,0,0,0,0,0,0,0,0,0,
0,12,0,12,0,0,0,12,0,12,0,0,0,0,634,0,
633,12,0,12,633,0,33,12,0,12,34,0,634,22,23,12,
0,32,0,35,0,0,0,633,0,633,0,0,633,12,12,0,
0,0,0,0,0,0,0,0,0,0,0,0,12,12,0,0,
0,0,0,0,0,0,0,0,0,0,0,0,0,0,0,0,
0,0,634,0,0,0,634,0,0,0,0,0,0,0,0,0,
634,22,23,12,0,12,24,25,634,0,0,0,0,634,634,0,
633,12,12,12,0,12,12,12,633,0,0,0,5,12,12,0,
12,12,12,0,0,0,12,12,12,0,0,0,12,12,12,0,
0,0,0,0,0,0,0,0,0,0,0,0,12,12,12,0
</chunk>
   <chunk x="16" y="48" width="16" height="16">
12,12,0,0,0,12,12,12,0,0,0,0,0,0,0,0,
0,0,0,0,0,0,0,0,0,0,0,0,0,0,0,0,
5,0,6,0,0,0,5,0,6,0,0,0,5,0,0,0,
12,0,12,633,0,633,12,0,12,6,0,5,12,0,0,0,
0,0,0,0,0,0,0,0,0,0,0,0,0,0,0,0,
0,0,0,0,0,0,0,0,0,0,0,0,0,0,0,0,
0,0,634,0,0,0,0,0,0,0,0,0,0,0,0,0,
0,12,24,25,634,0,0,0,0,0,0,0,0,0,0,0,
0,0,12,12,633,0,0,0,0,0,0,0,0,0,0,0,
0,0,0,12,12,0,0,0,0,0,0,0,0,0,0,0,
0,0,0,0,0,0,0,0,0,0,0,0,0,0,0,0,
0,0,0,0,0,0,0,0,0,0,0,0,0,0,0,0,
634,634,0,0,0,634,12,0,12,634,0,0,0,0,0,0,
12,12,6,0,5,12,12,0,12,12,6,0,0,0,0,0,
12,12,12,0,12,12,12,0,12,12,12,0,0,0,0,0,
12,12,12,0,12,12,12,0,12,12,12,0,0,0,0,0
</chunk>
   <chunk x="0" y="64" width="16" height="16">
0,0,0,0,0,0,0,0,0,0,0,0,0,0,0,0,
0,0,634,0,0,0,634,0,0,0,0,0,634,0,0,0,
0,634,12,12,0,12,12,634,0,0,0,634,12,12,0,12,
0,634,12,12,0,12,12,634,0,0,12,12,12,12,0,12,
633,12,12,12,0,12,12,12,633,0,12,12,12,12,0,12,
12,12,12,12,0,12,12,12,12,0,0,0,0,0,0,0,
0,12,12,12,0,12,12,12,0,0,0,0,0,0,0,0,
0,0,0,0,0,0,0,0,0,0,0,0,0,0,0,0,
634,12,12,12,0,12,12,12,634,0,0,634,634,0,0,0,
634,12,12,12,0,12,12,12,634,0,634,12,12,12,0,12,
634,12,12,12,0,12,12,12,634,0,634,12,12,12,0,12,
0,634,634,0,0,0,634,634,0,0,634,12,12,12,0,12,
0,0,0,0,0,0,0,0,0,0,0,0,0,0,0,0,
0,12,12,12,0,12,12,12,0,0,0,0,634,0,0,0,
634,12,12,12,0,12,12,12,634,0,0,12,12,6,0,0,
0,15,12,12,0,12,12,16,0,0,0,12,12,12,634,0
</chunk>
   <chunk x="16" y="64" width="16" height="16">
0,0,0,0,0,0,0,0,0,0,0,0,0,0,0,0,
634,0,0,0,0,0,0,0,0,0,0,0,0,0,0,0,
12,634,0,0,0,0,0,0,0,0,0,0,0,0,0,0,
12,12,12,0,0,0,0,0,0,0,0,0,0,0,0,0,
12,12,12,0,0,0,0,0,0,0,0,0,0,0,0,0,
0,0,0,0,0,0,0,0,0,0,0,0,0,0,0,0,
0,0,0,0,0,0,0,0,0,0,0,0,0,0,0,0,
0,0,0,0,0,0,0,0,0,0,0,0,0,0,0,0,
634,634,0,0,0,0,0,0,0,0,0,0,0,0,0,0,
12,12,634,0,0,0,0,0,0,0,0,0,0,0,0,0,
12,12,634,0,0,0,0,0,0,0,0,0,0,0,0,0,
12,12,634,0,0,0,0,0,0,0,0,0,0,0,0,0,
0,0,0,0,0,0,0,0,0,0,0,0,0,0,0,0,
0,0,634,0,0,0,0,0,0,0,0,0,0,0,0,0,
0,5,12,12,0,0,0,0,0,0,0,0,0,0,0,0,
634,12,12,12,0,0,0,0,0,0,0,0,0,0,0,0
</chunk>
   <chunk x="0" y="80" width="16" height="16">
0,0,634,0,0,0,634,0,0,0,0,12,12,12,0,0,
0,0,0,0,0,0,0,0,0,0,0,0,0,0,0,0,
634,12,12,12,0,12,12,12,634,0,0,0,634,0,0,0,
634,32,33,12,0,12,34,35,634,0,0,22,23,12,0,12,
0,0,634,0,0,0,634,0,0,0,634,12,12,12,0,12,
0,0,0,0,0,0,0,0,0,0,0,12,12,12,0,12,
0,0,0,0,0,0,0,0,0,0,0,0,0,0,0,0,
0,0,634,634,0,0,0,0,0,634,634,0,0,0,0,0,
0,634,12,12,634,0,0,0,634,12,12,634,0,0,0,634,
0,634,12,12,634,0,0,12,12,12,12,12,12,0,12,12,
12,12,12,12,12,12,0,12,12,12,12,12,12,0,12,12,
12,12,12,12,12,12,0,0,12,12,12,12,0,0,0,12,
0,12,12,12,12,0,0,0,0,0,0,0,0,0,0,0,
0,0,0,0,0,0,0,0,0,0,0,0,0,0,0,0,
0,0,0,0,0,0,0,0,0,0,0,0,0,0,0,0,
0,0,0,0,0,0,0,0,0,0,0,0,0,0,0,0
</chunk>
   <chunk x="16" y="80" width="16" height="16">
0,12,12,12,0,0,0,0,0,0,0,0,0,0,0,0,
0,0,0,0,0,0,0,0,0,0,0,0,0,0,0,0,
634,0,0,0,0,0,0,0,0,0,0,0,0,0,0,0,
24,25,0,0,0,0,0,0,0,0,0,0,0,0,0,0,
12,12,634,0,0,0,0,0,0,0,0,0,0,0,0,0,
12,12,0,0,0,0,0,0,0,0,0,0,0,0,0,0,
0,0,0,0,0,0,0,0,0,0,0,0,0,0,0,0,
634,0,0,0,0,0,634,0,0,0,0,0,0,0,0,0,
12,634,0,0,0,634,12,634,0,0,0,0,0,0,0,0,
12,12,12,0,0,634,12,634,0,0,0,0,0,0,0,0,
12,12,12,0,12,12,12,12,12,0,0,0,0,0,0,0,
12,12,0,0,12,12,12,12,12,0,0,0,0,0,0,0,
0,0,0,0,0,12,12,12,0,0,0,0,0,0,0,0,
0,0,0,0,0,0,0,0,0,0,0,0,0,0,0,0,
0,0,0,0,0,0,0,0,0,0,0,0,0,0,0,0,
0,0,0,0,0,0,0,0,0,0,0,0,0,0,0,0
</chunk>
  </data>
 </layer>
 <layer id="2" name="output1_ground" width="20" height="30">
  <data encoding="csv">
   <chunk x="0" y="0" width="16" height="16">
164,0,0,0,0,0,0,0,0,0,0,0,0,0,0,0,
0,0,0,0,0,0,0,0,0,0,0,0,0,0,0,0,
392,393,0,394,395,0,152,153,523,0,525,157,158,0,0,0,
0,413,0,414,0,0,0,0,0,0,0,0,0,0,195,0,
0,0,0,0,0,0,0,0,0,0,0,0,0,0,215,0,
0,0,0,0,0,0,0,0,0,0,0,0,0,0,0,0,
0,95,0,0,0,95,0,0,95,0,0,0,0,0,0,0,
0,115,0,0,0,115,0,0,115,0,0,0,0,0,0,0,
0,504,0,0,0,504,0,0,195,0,0,0,0,0,0,0,
0,0,0,0,0,0,0,0,215,0,0,0,0,0,0,0,
0,0,0,0,0,0,0,0,0,0,0,0,0,0,0,0,
0,333,0,334,0,0,0,338,0,339,0,0,197,198,0,192,
0,353,0,354,0,0,357,358,0,359,360,0,217,218,0,212,
0,0,0,0,0,0,0,0,0,0,0,0,0,0,0,0,
122,123,0,125,126,0,185,186,0,182,183,0,0,0,0,0,
142,143,0,145,146,0,205,206,0,202,203,0,0,0,0,0
</chunk>
   <chunk x="16" y="0" width="16" height="16">
0,0,0,0,0,0,0,0,0,0,0,0,0,0,0,0,
0,0,0,0,0,0,0,0,0,0,0,0,0,0,0,0,
397,398,0,399,400,0,152,153,162,163,0,0,0,0,0,0,
0,418,0,419,0,0,0,0,0,0,0,0,0,0,0,0,
0,0,0,0,0,0,0,0,0,0,0,0,0,0,0,0,
0,0,0,0,0,0,0,0,0,0,0,0,0,0,0,0,
0,0,0,0,0,0,0,0,0,0,0,0,0,0,0,0,
0,0,0,0,0,0,0,0,0,0,0,0,0,0,0,0,
0,0,0,0,0,0,0,0,0,0,0,0,0,0,0,0,
0,0,0,0,0,0,0,0,0,0,0,0,0,0,0,0,
0,0,0,0,0,0,0,0,0,0,0,0,0,0,0,0,
193,0,97,98,0,92,93,0,0,513,0,0,0,0,0,0,
213,0,117,118,0,112,113,0,0,533,0,0,574,575,576,0,
0,0,0,0,0,0,0,0,0,553,0,0,0,0,0,0,
0,0,0,0,0,0,0,0,0,0,0,0,0,0,0,0,
0,0,0,0,0,0,0,0,0,0,0,0,0,0,0,0
</chunk>
   <chunk x="0" y="16" width="16" height="16">
0,0,0,0,0,0,0,0,0,0,0,0,0,0,0,0,
454,455,456,0,0,0,0,0,0,518,519,0,511,512,0,0,
474,475,476,0,594,595,596,0,0,538,539,0,531,532,0,0,
0,0,0,0,614,615,616,0,0,558,559,0,551,552,0,0,
0,0,0,0,0,0,0,0,0,0,0,0,0,0,0,0,
454,455,456,0,0,0,0,0,0,517,518,519,0,511,512,513,
474,475,476,0,574,575,576,0,0,537,538,539,0,531,532,533,
494,495,496,0,594,595,596,0,0,557,558,559,0,551,552,553,
0,0,0,0,614,615,616,0,0,0,0,0,0,0,0,0,
0,0,0,0,0,0,0,0,0,0,0,0,0,0,0,0,
0,0,0,0,0,0,0,0,0,0,516,0,0,0,514,0,
514,515,516,0,0,0,0,0,0,0,536,0,0,0,534,0,
0,0,0,0,554,555,556,0,0,0,556,0,0,0,554,0,
0,0,0,0,0,0,0,0,0,0,0,0,0,0,0,0,
0,0,0,0,0,0,0,0,0,0,0,0,0,0,0,0,
0,0,0,0,0,0,0,0,0,0,0,0,0,0,0,0
</chunk>
   <chunk x="16" y="16" width="16" height="16">
0,0,0,0,0,0,0,0,0,0,0,0,0,0,0,0,
0,0,0,0,0,0,0,0,0,0,0,0,0,0,0,0,
0,0,0,0,0,0,0,0,0,0,0,0,0,0,0,0,
0,0,0,0,0,0,0,0,0,0,0,0,0,0,0,0,
0,0,0,0,0,0,0,0,0,0,0,0,0,0,0,0,
0,0,0,0,0,0,0,0,0,0,155,0,0,0,0,0,
0,0,0,0,0,0,0,0,0,0,0,0,0,0,0,0,
0,0,0,0,0,0,0,0,0,0,0,0,0,0,0,0,
0,0,0,0,0,0,0,0,0,0,0,0,0,0,0,0,
0,0,0,0,0,0,0,0,0,0,0,0,0,0,0,0,
0,0,0,0,0,0,0,0,0,0,0,0,0,0,0,0,
0,0,0,0,535,0,0,0,0,0,0,0,0,0,0,0,
0,0,0,0,0,0,0,0,0,0,0,0,0,0,0,0,
0,0,0,0,0,0,0,0,0,0,0,0,0,0,0,0,
0,0,0,0,0,0,0,0,0,0,0,0,0,0,0,0,
0,0,0,0,0,0,0,0,0,0,0,0,0,0,0,0
</chunk>
   <chunk x="0" y="32" width="16" height="16">
0,0,0,0,0,0,0,0,0,0,0,0,0,0,0,0,
0,0,126,0,0,0,0,0,122,0,0,0,0,185,186,0,
0,145,146,0,0,0,0,0,142,143,0,0,0,0,206,567,
0,0,0,0,0,0,0,0,0,0,0,0,0,0,586,0,
0,0,0,0,0,0,0,0,0,0,0,0,0,0,0,0,
0,0,0,0,0,0,0,0,0,0,0,0,0,0,0,0,
0,0,0,0,0,0,0,0,0,0,0,0,0,185,0,0,
0,125,126,0,0,0,0,0,122,123,0,0,0,205,206,567,
0,145,0,0,0,0,0,0,0,143,0,0,0,0,586,0,
0,0,0,0,0,0,0,0,0,0,0,0,0,0,0,0,
0,0,0,0,0,0,0,0,0,0,0,0,0,0,0,0,
0,0,0,0,0,0,0,0,0,0,0,0,0,0,0,0,
0,0,0,0,0,0,0,0,0,0,0,0,0,0,0,0,
0,0,466,0,0,0,0,0,0,0,462,0,0,0,0,185,
0,125,126,487,0,0,0,0,0,481,122,123,0,0,0,205,
0,145,146,0,0,0,0,0,0,0,142,143,0,0,0,0
</chunk>
   <chunk x="16" y="32" width="16" height="16">
0,0,0,0,0,0,0,0,0,0,0,0,0,0,0,0,
0,0,0,0,182,183,0,0,0,0,0,0,0,0,0,0,
0,0,0,561,202,0,0,0,0,0,0,0,0,0,0,0,
0,0,0,0,582,0,0,0,0,0,0,0,0,0,0,0,
0,0,0,0,0,0,0,0,0,0,0,0,0,0,0,0,
0,0,0,0,0,0,0,0,0,0,0,0,0,0,0,0,
0,0,0,0,0,183,0,0,0,0,0,0,0,0,0,0,
0,0,0,561,202,203,0,0,0,0,0,0,0,0,0,0,
0,0,0,0,582,0,0,0,0,0,0,0,0,0,0,0,
0,0,0,0,0,0,0,0,0,0,0,0,0,0,0,0,
0,0,0,0,0,0,0,0,0,0,0,0,0,0,0,0,
0,0,0,0,0,0,0,0,0,0,0,0,0,0,0,0,
0,0,0,0,0,0,0,0,0,0,0,0,0,0,0,0,
186,0,0,0,0,0,182,183,0,0,0,0,0,0,0,0,
206,567,0,0,0,561,202,203,0,0,0,0,0,0,0,0,
586,0,0,0,0,0,582,0,0,0,0,0,0,0,0,0
</chunk>
   <chunk x="0" y="48" width="16" height="16">
0,0,0,0,0,0,0,0,0,0,0,0,0,0,0,0,
0,0,0,0,0,0,0,0,0,0,0,0,0,0,0,0,
0,0,0,0,0,0,0,0,0,0,0,0,0,355,0,352,
415,0,0,0,412,0,0,412,0,415,0,0,374,375,0,372,
0,0,0,0,0,0,0,0,0,0,0,0,0,0,0,0,
0,0,0,0,0,0,0,0,0,0,0,0,0,0,0,0,
0,0,0,0,0,0,0,0,0,0,0,0,0,0,338,0,
0,438,0,439,0,0,0,438,0,439,0,0,0,357,358,0,
0,0,0,0,0,0,0,0,0,0,0,0,0,377,0,0,
0,0,0,0,0,0,0,0,0,0,0,0,0,0,0,0,
0,0,0,0,0,0,0,0,0,0,0,0,0,0,0,0,
0,0,338,0,0,0,339,340,0,0,0,0,0,0,0,0,
0,357,358,0,0,0,359,360,0,0,0,0,333,94,0,0,
0,377,378,0,0,0,379,380,0,0,0,0,353,114,0,0,
0,0,0,0,0,0,0,0,0,0,0,0,0,134,0,0,
0,0,0,0,0,0,0,0,0,0,0,0,0,0,0,0
</chunk>
   <chunk x="16" y="48" width="16" height="16">
0,0,0,0,0,0,0,0,0,0,0,0,0,0,0,0,
0,0,0,0,0,0,0,0,0,0,0,0,0,0,0,0,
0,0,0,0,0,0,0,0,0,334,0,333,0,0,0,0,
373,0,335,0,0,0,332,0,374,0,0,0,373,0,0,0,
0,0,0,0,0,0,0,0,0,0,0,0,0,0,0,0,
0,0,0,0,0,0,0,0,0,0,0,0,0,0,0,0,
0,0,339,340,0,0,0,0,0,0,0,0,0,0,0,0,
0,0,359,360,0,0,0,0,0,0,0,0,0,0,0,0,
0,0,0,380,0,0,0,0,0,0,0,0,0,0,0,0,
0,0,0,0,0,0,0,0,0,0,0,0,0,0,0,0,
0,0,0,0,0,0,0,0,0,0,0,0,0,0,0,0,
0,0,0,0,0,0,0,0,0,0,0,0,0,0,0,0,
0,96,334,0,333,185,0,0,0,183,334,0,0,0,0,0,
0,116,354,0,353,114,0,0,0,116,354,0,0,0,0,0,
0,136,0,0,0,134,0,0,0,136,0,0,0,0,0,0,
0,0,0,0,0,0,0,0,0,0,0,0,0,0,0,0
</chunk>
   <chunk x="0" y="64" width="16" height="16">
0,0,0,0,0,0,0,0,0,0,0,0,0,0,0,0,
0,261,262,0,0,0,263,264,0,0,0,261,262,0,0,0,
0,281,282,0,0,0,283,284,0,0,0,301,282,0,0,0,
0,301,302,0,0,0,303,304,0,0,0,321,322,0,0,0,
0,321,322,0,0,0,323,324,0,0,0,0,0,0,0,0,
0,0,226,0,0,0,582,0,0,0,0,0,0,0,0,0,
0,0,0,0,0,0,0,0,0,0,0,0,0,0,0,0,
0,0,0,0,0,0,0,0,0,0,0,0,0,0,0,0,
0,0,0,0,0,0,0,0,0,0,92,93,94,0,0,0,
172,173,174,0,0,0,176,177,178,0,112,113,114,0,0,0,
192,193,194,0,0,0,196,197,198,0,132,133,134,0,0,0,
212,213,214,0,0,0,216,217,218,0,0,0,0,0,0,0,
0,0,0,0,0,0,0,0,0,0,0,0,0,0,0,0,
0,0,0,0,0,0,0,0,0,0,0,0,0,334,337,0,
172,173,174,0,0,0,176,177,178,0,0,0,116,354,355,0,
392,393,194,0,0,0,196,394,395,0,0,0,136,137,138,0
</chunk>
   <chunk x="16" y="64" width="16" height="16">
0,0,0,0,0,0,0,0,0,0,0,0,0,0,0,0,
263,264,0,0,0,0,0,0,0,0,0,0,0,0,0,0,
283,279,0,0,0,0,0,0,0,0,0,0,0,0,0,0,
323,324,0,0,0,0,0,0,0,0,0,0,0,0,0,0,
0,0,0,0,0,0,0,0,0,0,0,0,0,0,0,0,
0,0,0,0,0,0,0,0,0,0,0,0,0,0,0,0,
0,0,0,0,0,0,0,0,0,0,0,0,0,0,0,0,
0,0,0,0,0,0,0,0,0,0,0,0,0,0,0,0,
96,97,98,0,0,0,0,0,0,0,0,0,0,0,0,0,
116,117,118,0,0,0,0,0,0,0,0,0,0,0,0,0,
136,137,138,0,0,0,0,0,0,0,0,0,0,0,0,0,
0,0,0,0,0,0,0,0,0,0,0,0,0,0,0,0,
0,0,0,0,0,0,0,0,0,0,0,0,0,0,0,0,
0,333,0,0,0,0,0,0,0,0,0,0,0,0,0,0,
352,353,114,0,0,0,0,0,0,0,0,0,0,0,0,0,
132,133,134,0,0,0,0,0,0,0,0,0,0,0,0,0
</chunk>
   <chunk x="0" y="80" width="16" height="16">
0,413,214,0,0,0,216,414,0,0,0,0,0,0,0,0,
0,0,0,0,0,0,0,0,0,0,0,0,0,0,0,0,
0,0,0,0,0,0,0,0,0,0,0,0,0,0,0,0,
396,397,398,0,0,0,399,400,401,0,356,357,358,0,0,0,
0,0,0,0,0,0,0,0,0,0,376,318,378,0,0,0,
0,0,0,0,0,0,0,0,0,0,0,0,0,0,0,0,
0,0,0,0,0,0,0,0,0,0,0,0,0,0,0,0,
0,261,262,263,264,0,0,0,261,262,263,264,0,0,0,255,
0,281,282,283,284,0,0,0,301,282,283,304,0,0,0,301,
0,301,302,303,304,0,0,0,321,322,323,324,0,0,0,321,
0,321,322,323,324,0,0,0,0,226,582,0,0,0,0,0,
0,0,226,582,0,0,0,0,0,0,0,0,0,0,0,0,
0,0,0,0,0,0,0,0,0,0,0,0,0,0,0,0,
0,0,0,0,0,0,0,0,0,0,0,0,0,0,0,0,
0,0,0,0,0,0,0,0,0,0,0,0,0,0,0,0,
0,0,0,0,0,0,0,0,0,0,0,0,0,0,0,0
</chunk>
   <chunk x="16" y="80" width="16" height="16">
0,0,0,0,0,0,0,0,0,0,0,0,0,0,0,0,
0,0,0,0,0,0,0,0,0,0,0,0,0,0,0,0,
0,0,0,0,0,0,0,0,0,0,0,0,0,0,0,0,
359,360,361,0,0,0,0,0,0,0,0,0,0,0,0,0,
379,319,381,0,0,0,0,0,0,0,0,0,0,0,0,0,
0,0,0,0,0,0,0,0,0,0,0,0,0,0,0,0,
0,0,0,0,0,0,0,0,0,0,0,0,0,0,0,0,
256,257,0,0,0,232,233,234,0,0,0,0,0,0,0,0,
276,304,0,0,0,252,253,254,0,0,0,0,0,0,0,0,
293,324,0,0,0,301,273,304,0,0,0,0,0,0,0,0,
226,0,0,0,0,321,293,324,0,0,0,0,0,0,0,0,
0,0,0,0,0,0,226,0,0,0,0,0,0,0,0,0,
0,0,0,0,0,0,0,0,0,0,0,0,0,0,0,0,
0,0,0,0,0,0,0,0,0,0,0,0,0,0,0,0,
0,0,0,0,0,0,0,0,0,0,0,0,0,0,0,0,
0,0,0,0,0,0,0,0,0,0,0,0,0,0,0,0
</chunk>
  </data>
 </layer>
 <layer id="7" name="output2_ground" width="20" height="30">
  <data encoding="csv">
   <chunk x="0" y="0" width="16" height="16">
628,0,0,0,0,0,0,0,0,0,0,0,0,0,0,0,
0,0,0,0,0,0,0,0,0,0,0,0,0,0,0,0,
0,0,0,0,0,0,0,0,0,0,0,0,0,0,0,0,
0,0,0,0,0,0,0,0,0,0,0,0,0,0,0,0,
0,0,0,0,0,0,0,0,0,0,0,0,0,0,0,0,
0,0,0,0,0,0,0,0,0,0,0,0,0,0,0,0,
0,0,0,0,0,0,0,0,0,0,0,0,0,0,0,0,
0,0,0,0,0,0,0,0,0,0,0,0,0,0,0,0,
0,0,0,0,0,0,0,0,0,0,0,0,0,0,0,0,
0,0,0,0,0,0,0,0,0,0,0,0,0,0,0,0,
0,0,0,0,0,0,0,0,0,0,0,0,0,0,0,0,
0,0,0,0,0,0,0,0,0,0,0,0,0,0,0,0,
0,0,0,0,0,0,0,0,0,0,0,0,0,0,0,0,
0,0,0,0,0,0,0,0,0,0,0,0,0,0,0,0,
0,0,0,0,0,0,0,0,0,0,0,0,0,0,0,0,
0,0,0,0,0,0,0,0,0,0,0,0,0,0,0,0
</chunk>
  </data>
 </layer>
 <layer id="8" name="output3_ground" width="20" height="30">
  <data encoding="csv">
   <chunk x="0" y="0" width="16" height="16">
629,0,0,0,0,0,0,0,0,0,0,0,0,0,0,0,
0,0,0,0,0,0,0,0,0,0,0,0,0,0,0,0,
0,0,0,0,0,0,0,0,0,0,0,0,0,0,0,0,
0,0,0,0,0,0,0,0,0,0,0,0,0,0,0,0,
0,0,0,0,0,0,0,0,0,0,0,0,0,0,0,0,
0,0,0,0,0,0,0,0,0,0,0,0,0,0,0,0,
0,0,0,0,0,0,0,0,0,0,0,0,0,0,0,0,
0,0,0,0,0,0,0,0,0,0,0,0,0,0,0,0,
0,0,0,0,0,0,0,0,0,0,0,0,0,0,0,0,
0,0,0,0,0,0,0,0,0,0,0,0,0,0,0,0,
0,0,0,0,0,0,0,0,0,0,0,0,0,0,0,0,
0,0,0,0,0,0,0,0,0,0,0,0,0,0,0,0,
0,0,0,0,0,0,0,0,0,0,0,0,0,0,0,0,
0,0,0,0,0,0,0,0,0,0,0,0,0,0,0,0,
0,0,0,0,0,0,0,0,0,0,0,0,0,0,0,0,
0,0,0,0,0,0,0,0,0,0,0,0,0,0,0,0
</chunk>
  </data>
 </layer>
 <layer id="9" name="output4_ground" width="20" height="30">
  <data encoding="csv">
   <chunk x="0" y="0" width="16" height="16">
630,0,0,0,0,0,0,0,0,0,0,0,0,0,0,0,
0,0,0,0,0,0,0,0,0,0,0,0,0,0,0,0,
0,0,0,0,0,0,0,0,0,0,0,0,0,0,0,0,
0,0,0,0,0,0,0,0,0,0,0,0,0,0,0,0,
0,0,0,0,0,0,0,0,0,0,0,0,0,0,0,0,
0,0,0,0,0,0,0,0,0,0,0,0,0,0,0,0,
0,0,0,0,0,0,0,0,0,0,0,0,0,0,0,0,
0,0,0,0,0,0,0,0,0,0,0,0,0,0,0,0,
0,0,0,0,0,0,0,0,0,0,0,0,0,0,0,0,
0,0,0,0,0,0,0,0,0,0,0,0,0,0,0,0,
0,0,0,0,0,0,0,0,0,0,0,0,0,0,0,0,
0,0,0,0,0,0,0,0,0,0,0,0,0,0,0,0,
0,0,0,0,0,0,0,0,0,0,0,0,0,0,0,0,
0,0,0,0,0,0,0,0,0,0,0,0,0,0,0,0,
0,0,0,0,0,0,0,0,0,0,0,0,0,0,0,0,
0,0,0,0,0,0,0,0,0,0,0,0,0,0,0,0
</chunk>
  </data>
 </layer>
 <layer id="10" name="output5_ground" width="20" height="30">
  <data encoding="csv">
   <chunk x="0" y="0" width="16" height="16">
627,0,0,0,0,0,0,0,0,0,0,0,0,0,0,0,
0,0,0,0,0,0,0,0,0,0,0,0,0,0,0,0,
0,0,0,0,0,0,0,0,0,0,0,0,0,0,0,0,
0,0,0,0,0,0,0,0,0,0,0,0,0,0,0,0,
0,0,0,0,0,0,0,0,0,0,0,0,0,0,0,0,
0,0,0,0,0,0,0,0,0,0,0,0,0,0,0,0,
0,0,0,0,0,0,0,0,0,0,0,0,0,0,0,0,
0,0,0,0,0,0,0,0,0,0,0,0,0,0,0,0,
0,0,0,0,0,0,0,0,0,0,0,0,0,0,0,0,
0,0,0,0,0,0,0,0,0,0,0,0,0,0,0,0,
0,0,0,0,0,0,0,0,0,0,0,0,0,0,0,0,
0,0,0,0,0,0,0,0,0,0,0,0,0,0,0,0,
0,0,0,0,0,0,0,0,0,0,0,0,0,0,0,0,
0,0,0,0,0,0,0,0,0,0,0,0,0,0,0,0,
0,0,0,0,0,0,0,0,0,0,0,0,0,0,0,0,
0,0,0,0,0,0,0,0,0,0,0,0,0,0,0,0
</chunk>
  </data>
 </layer>
</map>
