<?xml version="1.0" encoding="UTF-8"?>
<map version="1.10" tiledversion="1.12.0" orientation="orthogonal" renderorder="right-down" width="4" height="4" tilewidth="16" tileheight="16" infinite="1" nextlayerid="4" nextobjectid="1">
 <tileset firstgid="1" source="../tangled incomplete tileset.tsx"/>
 <tileset firstgid="1121" source="../tileset template.tsx"/>
 <tileset firstgid="1171" source=":/automap-tiles.tsx"/>
 <layer id="1" name="input_ground" width="4" height="4" opacity="0.8">
  <data encoding="csv">
   <chunk x="0" y="0" width="16" height="16">
0,0,85,0,0,85,0,0,0,0,85,0,0,0,0,85,
0,0,1171,0,0,1171,0,0,0,0,1171,0,0,0,0,1171,
0,0,1171,0,0,1171,0,0,0,0,1171,0,0,0,0,1171,
1174,1171,1171,0,1174,1171,0,0,0,0,1174,0,0,0,0,1171,
0,0,0,0,0,0,0,0,0,0,0,0,0,0,0,0,
0,0,0,0,0,0,0,0,0,0,0,0,0,0,0,0,
0,0,0,0,0,0,0,0,0,0,0,0,0,0,0,0,
104,1171,1171,1171,0,104,1171,1171,1171,0,104,1171,1171,1174,0,104,
0,0,0,1171,0,0,0,0,1174,0,0,0,0,0,0,0,
0,265,0,1174,0,285,0,0,0,245,0,0,0,0,0,0,
0,0,0,0,0,0,0,0,0,0,0,0,0,0,0,0,
0,0,0,0,0,0,0,0,0,0,0,0,0,0,0,0,
0,0,0,0,0,0,0,0,0,0,0,0,0,0,0,1174,
1171,1171,1171,106,0,1171,1171,1171,106,0,1174,1171,1171,106,0,1171,
1171,0,0,0,0,1174,0,0,0,0,0,0,0,0,0,0,
1174,0,0,0,0,0,0,0,0,0,0,0,0,0,0,0
</chunk>
   <chunk x="16" y="0" width="16" height="16">
0,0,0,0,85,0,0,0,0,0,0,0,0,0,0,0,
0,0,0,0,1171,0,0,0,0,0,0,0,0,0,0,0,
0,0,0,0,1171,0,0,0,0,0,0,0,0,0,0,0,
1174,0,0,0,1171,1171,1174,0,0,0,0,0,0,0,0,0,
0,0,0,0,0,0,0,0,0,0,0,0,0,0,0,0,
0,0,0,0,0,0,0,1174,0,0,0,0,0,0,0,0,
0,0,1174,0,0,0,0,1171,0,0,0,0,0,0,0,0,
1171,1171,1171,0,104,1171,1171,1171,0,0,0,0,0,0,0,0,
0,0,0,0,0,0,0,0,0,0,0,0,0,0,0,0,
0,0,0,0,0,267,0,0,0,287,0,0,0,288,0,0,
0,0,0,0,0,0,0,0,0,0,0,0,0,0,0,0,
0,0,0,0,1174,0,0,0,0,0,0,0,0,0,0,0,
0,0,0,0,1171,0,0,0,0,0,0,0,0,0,0,0,
1171,1171,106,0,1171,1171,1171,106,0,0,0,0,0,0,0,0,
0,0,0,0,0,0,0,0,0,0,0,0,0,0,0,0,
0,0,0,0,0,0,0,0,0,0,0,0,0,0,0,0
</chunk>
   <chunk x="32" y="0" width="16" height="16">
0,0,0,0,0,0,0,0,0,0,0,0,0,0,0,0,
0,0,0,0,0,0,0,0,0,0,0,0,0,0,0,0,
0,0,0,0,0,0,0,0,0,0,0,0,0,0,0,0,
0,0,0,0,0,0,0,0,0,0,0,0,0,0,0,0,
0,0,0,0,0,0,0,0,0,0,0,0,0,0,0,0,
0,0,0,0,0,0,0,0,0,0,0,0,0,0,0,0,
0,0,0,0,0,0,0,0,0,0,0,0,0,0,0,0,
0,0,0,0,0,0,0,0,0,0,0,0,0,0,0,0,
0,0,0,0,0,0,0,0,0,0,0,0,0,0,0,0,
0,289,0,0,0,0,0,0,0,0,0,0,0,0,0,0,
0,0,0,0,0,0,0,0,0,0,0,0,0,0,0,0,
0,0,0,0,0,0,0,0,0,0,0,0,0,0,0,0,
0,0,0,0,0,0,0,0,0,0,0,0,0,0,0,0,
0,0,0,0,0,0,0,0,0,0,0,0,0,0,0,0,
0,0,0,0,0,0,0,0,0,0,0,0,0,0,0,0,
0,0,0,0,0,0,0,0,0,0,0,0,0,0,0,0
</chunk>
   <chunk x="0" y="16" width="16" height="16">
0,0,0,0,0,0,0,0,0,0,0,0,0,0,0,0,
1174,1171,1171,0,1174,1171,0,0,0,0,1174,0,0,0,0,1171,
0,0,1171,0,0,1171,0,0,0,0,1171,0,0,0,0,1171,
0,0,1171,0,0,1171,0,0,0,0,1171,0,0,0,0,1171,
0,0,125,0,0,125,0,0,0,0,125,0,0,0,0,125,
0,0,0,0,0,0,0,0,0,0,0,0,0,0,0,0,
0,0,0,0,0,0,0,0,0,0,0,0,0,0,0,0,
0,0,0,0,0,0,0,0,0,0,0,0,0,0,0,1174,
1171,1171,1171,151,0,1171,1171,1171,151,0,1174,1171,1171,151,0,1171,
1171,0,0,0,0,1174,0,0,0,0,0,0,0,0,0,0,
1174,0,0,0,0,0,0,0,0,0,0,0,0,0,0,0,
0,0,0,0,0,0,0,0,0,0,0,0,0,0,0,0,
0,0,172,0,0,172,0,0,0,0,172,0,0,0,0,172,
0,0,1171,0,0,1171,0,0,0,0,1171,0,0,0,0,1171,
0,0,1171,0,0,1171,0,0,0,0,1171,0,0,0,0,1171,
1174,1171,1171,0,1174,1171,0,0,0,0,1174,0,0,0,0,1171
</chunk>
   <chunk x="16" y="16" width="16" height="16">
0,0,0,0,0,0,0,0,0,0,0,0,0,0,0,0,
1174,0,0,0,1171,1171,1174,0,0,0,0,0,0,0,0,0,
0,0,0,0,1171,0,0,0,0,0,0,0,0,0,0,0,
0,0,0,0,1171,0,0,0,0,0,0,0,0,0,0,0,
0,0,0,0,125,0,0,0,0,0,0,0,0,0,0,0,
0,0,0,0,0,0,0,0,0,0,0,0,0,0,0,0,
0,0,0,0,1174,0,0,0,0,0,0,0,0,0,0,0,
0,0,0,0,1171,0,0,0,0,0,0,0,0,0,0,0,
1171,1171,151,0,1171,1171,1171,151,0,0,0,0,0,0,0,0,
0,0,0,0,0,0,0,0,0,0,0,0,0,0,0,0,
0,0,0,0,0,0,0,0,0,0,0,0,0,0,0,0,
0,0,0,0,0,0,0,0,0,0,0,0,0,0,0,0,
0,0,0,0,172,0,0,0,0,0,0,0,0,0,0,0,
0,0,0,0,1171,0,0,0,0,0,0,0,0,0,0,0,
0,0,0,0,1171,0,0,0,0,0,0,0,0,0,0,0,
1174,0,0,0,1171,1171,1174,0,0,0,0,0,0,0,0,0
</chunk>
   <chunk x="0" y="32" width="16" height="16">
0,0,0,0,0,0,0,0,0,0,0,0,0,0,0,0,
0,0,173,0,0,173,0,0,0,0,173,0,0,0,0,173,
0,0,1171,0,0,1171,0,0,0,0,1171,0,0,0,0,1171,
0,0,1171,0,0,1171,0,0,0,0,1171,0,0,0,0,1171,
1174,1171,1171,0,1174,1171,0,0,0,0,1174,0,0,0,0,1171,
0,0,0,0,0,0,0,0,0,0,0,0,0,0,0,0,
0,0,175,0,0,175,0,0,0,0,175,0,0,0,0,175,
0,0,1171,0,0,1171,0,0,0,0,1171,0,0,0,0,1171,
0,0,1171,0,0,1171,0,0,0,0,1171,0,0,0,0,1171,
1174,1171,1171,0,1174,1171,0,0,0,0,1174,0,0,0,0,1171,
0,0,0,0,0,0,0,0,0,0,0,0,0,0,0,0,
0,0,0,0,0,0,0,0,0,0,0,0,0,0,0,0,
0,0,0,0,0,0,0,0,0,0,0,0,0,0,0,1174,
1171,1171,1171,91,0,1171,1171,1171,91,0,1174,1171,1171,91,0,1171,
1171,0,0,0,0,1174,0,0,0,0,0,0,0,0,0,0,
1174,0,0,0,0,0,0,0,0,0,0,0,0,0,0,0
</chunk>
   <chunk x="16" y="32" width="16" height="16">
0,0,0,0,0,0,0,0,0,0,0,0,0,0,0,0,
0,0,0,0,173,0,0,0,0,0,0,0,0,0,0,0,
0,0,0,0,1171,0,0,0,0,0,0,0,0,0,0,0,
0,0,0,0,1171,0,0,0,0,0,0,0,0,0,0,0,
1174,0,0,0,1171,1171,1174,0,0,0,0,0,0,0,0,0,
0,0,0,0,0,0,0,0,0,0,0,0,0,0,0,0,
0,0,0,0,175,0,0,0,0,0,0,0,0,0,0,0,
0,0,0,0,1171,0,0,0,0,0,0,0,0,0,0,0,
0,0,0,0,1171,0,0,0,0,0,0,0,0,0,0,0,
1174,0,0,0,1171,1171,1174,0,0,0,0,0,0,0,0,0,
0,0,0,0,0,0,0,0,0,0,0,0,0,0,0,0,
0,0,0,0,1174,0,0,0,0,0,0,0,0,0,0,0,
0,0,0,0,1171,0,0,0,0,0,0,0,0,0,0,0,
1171,1171,91,0,1171,1171,1171,91,0,0,0,0,0,0,0,0,
0,0,0,0,0,0,0,0,0,0,0,0,0,0,0,0,
0,0,0,0,0,0,0,0,0,0,0,0,0,0,0,0
</chunk>
   <chunk x="0" y="48" width="16" height="16">
0,0,0,0,0,0,0,0,0,0,0,0,0,0,0,0,
0,0,0,0,0,0,0,0,0,0,0,0,0,0,0,0,
0,0,0,0,0,0,0,0,0,0,0,0,0,0,0,1174,
1171,1171,1171,71,0,1171,1171,1171,71,0,1174,1171,1171,71,0,1171,
1171,0,0,0,0,1174,0,0,0,0,0,0,0,0,0,0,
1174,0,0,0,0,0,0,0,0,0,0,0,0,0,0,0,
0,0,0,0,0,0,0,0,0,0,0,0,0,0,0,0,
1174,1171,1171,0,1174,1171,0,0,0,0,1174,0,0,0,0,1171,
0,0,1171,0,0,1171,0,0,0,0,1171,0,0,0,0,1171,
0,0,1171,0,0,1171,0,0,0,0,1171,0,0,0,0,1171,
0,0,52,0,0,52,0,0,0,0,52,0,0,0,0,52,
0,0,0,0,0,0,0,0,0,0,0,0,0,0,0,0,
1174,1171,1171,0,1174,1171,0,0,0,0,1174,0,0,0,0,1171,
0,0,1171,0,0,1171,0,0,0,0,1171,0,0,0,0,1171,
0,0,1171,0,0,1171,0,0,0,0,1171,0,0,0,0,1171,
0,0,53,0,0,53,0,0,0,0,53,0,0,0,0,53
</chunk>
   <chunk x="16" y="48" width="16" height="16">
0,0,0,0,0,0,0,0,0,0,0,0,0,0,0,0,
0,0,0,0,1174,0,0,0,0,0,0,0,0,0,0,0,
0,0,0,0,1171,0,0,0,0,0,0,0,0,0,0,0,
1171,1171,71,0,1171,1171,1171,71,0,0,0,0,0,0,0,0,
0,0,0,0,0,0,0,0,0,0,0,0,0,0,0,0,
0,0,0,0,0,0,0,0,0,0,0,0,0,0,0,0,
0,0,0,0,0,0,0,0,0,0,0,0,0,0,0,0,
1174,0,0,0,1171,1171,1174,0,0,0,0,0,0,0,0,0,
0,0,0,0,1171,0,0,0,0,0,0,0,0,0,0,0,
0,0,0,0,1171,0,0,0,0,0,0,0,0,0,0,0,
0,0,0,0,52,0,0,0,0,0,0,0,0,0,0,0,
0,0,0,0,0,0,0,0,0,0,0,0,0,0,0,0,
1174,0,0,0,1171,1171,1174,0,0,0,0,0,0,0,0,0,
0,0,0,0,1171,0,0,0,0,0,0,0,0,0,0,0,
0,0,0,0,1171,0,0,0,0,0,0,0,0,0,0,0,
0,0,0,0,53,0,0,0,0,0,0,0,0,0,0,0
</chunk>
   <chunk x="0" y="64" width="16" height="16">
0,0,0,0,0,0,0,0,0,0,0,0,0,0,0,0,
1174,1171,1171,0,1174,1171,0,0,0,0,1174,0,0,0,0,1171,
0,0,1171,0,0,1171,0,0,0,0,1171,0,0,0,0,1171,
0,0,1171,0,0,1171,0,0,0,0,1171,0,0,0,0,1171,
0,0,55,0,0,55,0,0,0,0,55,0,0,0,0,55,
0,0,0,0,0,0,0,0,0,0,0,0,0,0,0,0,
1174,1171,1171,0,1174,1171,0,0,0,0,1174,0,0,0,0,1171,
0,0,1171,0,0,1171,0,0,0,0,1171,0,0,0,0,1171,
0,0,1171,0,0,1171,0,0,0,0,1171,0,0,0,0,1171,
0,0,56,0,0,56,0,0,0,0,56,0,0,0,0,56,
0,0,0,0,0,0,0,0,0,0,0,0,0,0,0,0,
0,0,0,0,0,0,0,0,0,0,0,0,0,0,0,0,
0,0,0,0,0,0,0,0,0,0,0,0,0,0,0,0,
77,1171,1171,1171,0,77,1171,1171,1171,0,77,1171,1171,1174,0,77,
0,0,0,1171,0,0,0,0,1174,0,0,0,0,0,0,0,
0,265,0,1174,0,285,0,0,0,245,0,0,0,0,0,0
</chunk>
   <chunk x="16" y="64" width="16" height="16">
0,0,0,0,0,0,0,0,0,0,0,0,0,0,0,0,
1174,0,0,0,1171,1171,1174,0,0,0,0,0,0,0,0,0,
0,0,0,0,1171,0,0,0,0,0,0,0,0,0,0,0,
0,0,0,0,1171,0,0,0,0,0,0,0,0,0,0,0,
0,0,0,0,55,0,0,0,0,0,0,0,0,0,0,0,
0,0,0,0,0,0,0,0,0,0,0,0,0,0,0,0,
1174,0,0,0,1171,1171,1174,0,0,0,0,0,0,0,0,0,
0,0,0,0,1171,0,0,0,0,0,0,0,0,0,0,0,
0,0,0,0,1171,0,0,0,0,0,0,0,0,0,0,0,
0,0,0,0,56,0,0,0,0,0,0,0,0,0,0,0,
0,0,0,0,0,0,0,0,0,0,0,0,0,0,0,0,
0,0,0,0,0,0,0,1174,0,0,0,0,0,0,0,0,
0,0,1174,0,0,0,0,1171,0,0,0,0,0,0,0,0,
1171,1171,1171,0,77,1171,1171,1171,0,0,0,0,0,0,0,0,
0,0,0,0,0,0,0,0,0,0,0,0,0,0,0,0,
0,0,0,0,0,267,0,0,0,0,0,0,0,0,0,0
</chunk>
   <chunk x="0" y="80" width="16" height="16">
0,0,0,0,0,0,0,0,0,0,0,0,0,0,0,0,
0,0,0,0,0,0,0,0,0,0,0,0,0,0,0,0,
0,0,0,0,0,0,0,0,0,0,0,0,0,0,0,0,
97,1171,1171,1171,0,97,1171,1171,1171,0,97,1171,1171,1174,0,97,
0,0,0,1171,0,0,0,0,1174,0,0,0,0,0,0,0,
0,265,0,1174,0,285,0,0,0,245,0,0,0,0,0,0,
0,0,0,0,0,0,0,0,0,0,0,0,0,0,0,0,
0,0,0,0,0,0,0,0,0,0,0,0,0,0,0,0,
0,0,0,0,0,0,0,0,0,0,0,0,0,0,0,0,
137,1171,1171,1171,0,137,1171,1171,1171,0,137,1171,1171,1174,0,137,
0,0,0,1171,0,0,0,0,1174,0,0,0,0,0,0,0,
0,265,0,1174,0,285,0,0,0,245,0,0,0,0,0,0,
0,0,0,0,0,0,0,0,0,0,0,0,0,0,0,0,
0,0,0,0,0,0,0,0,0,0,0,0,0,0,0,0,
0,0,0,0,0,0,0,0,0,0,0,0,0,0,0,0,
157,1171,1171,1171,0,157,1171,1171,1171,0,157,1171,1171,1174,0,157
</chunk>
   <chunk x="16" y="80" width="16" height="16">
0,0,0,0,0,0,0,0,0,0,0,0,0,0,0,0,
0,0,0,0,0,0,0,1174,0,0,0,0,0,0,0,0,
0,0,1174,0,0,0,0,1171,0,0,0,0,0,0,0,0,
1171,1171,1171,0,97,1171,1171,1171,0,0,0,0,0,0,0,0,
0,0,0,0,0,0,0,0,0,0,0,0,0,0,0,0,
0,0,0,0,0,267,0,0,0,0,0,0,0,0,0,0,
0,0,0,0,0,0,0,0,0,0,0,0,0,0,0,0,
0,0,0,0,0,0,0,1174,0,0,0,0,0,0,0,0,
0,0,1174,0,0,0,0,1171,0,0,0,0,0,0,0,0,
1171,1171,1171,0,137,1171,1171,1171,0,0,0,0,0,0,0,0,
0,0,0,0,0,0,0,0,0,0,0,0,0,0,0,0,
0,0,0,0,0,267,0,0,0,0,0,0,0,0,0,0,
0,0,0,0,0,0,0,0,0,0,0,0,0,0,0,0,
0,0,0,0,0,0,0,1174,0,0,0,0,0,0,0,0,
0,0,1174,0,0,0,0,1171,0,0,0,0,0,0,0,0,
1171,1171,1171,0,157,1171,1171,1171,0,0,0,0,0,0,0,0
</chunk>
   <chunk x="0" y="96" width="16" height="16">
0,0,0,1171,0,0,0,0,1174,0,0,0,0,0,0,0,
0,265,0,1174,0,285,0,0,0,245,0,0,0,0,0,0,
0,0,0,0,0,0,0,0,0,0,0,0,0,0,0,0,
34,0,0,0,0,0,0,0,0,0,0,0,0,0,0,0,
54,0,0,0,0,0,0,0,0,0,0,0,0,0,0,0,
0,0,0,0,0,0,0,0,0,0,0,0,0,0,0,0,
0,0,174,0,0,174,0,0,0,0,174,0,0,0,0,174,
0,0,1171,0,0,1171,0,0,0,0,1171,0,0,0,0,1171,
0,0,1171,0,0,1171,0,0,0,0,1171,0,0,0,0,1171,
1174,1171,1171,0,1174,1171,0,0,0,0,1174,0,0,0,0,1171,
0,0,0,0,0,0,0,0,0,0,0,0,0,0,0,0,
0,0,0,0,0,0,0,0,0,0,0,0,0,0,0,0,
0,0,0,0,0,0,0,0,0,0,0,0,0,0,0,0,
117,1171,1171,1171,0,117,1171,1171,1171,0,117,1171,1171,1174,0,117,
0,0,0,1171,0,0,0,0,1174,0,0,0,0,0,0,0,
0,265,0,1174,0,285,0,0,0,245,0,0,0,0,0,0
</chunk>
   <chunk x="16" y="96" width="16" height="16">
0,0,0,0,0,0,0,0,0,0,0,0,0,0,0,0,
0,0,0,0,0,267,0,0,0,0,0,0,0,0,0,0,
0,0,0,0,0,0,0,0,0,0,0,0,0,0,0,0,
0,0,0,0,0,0,0,0,0,0,0,0,0,0,0,0,
0,0,0,0,0,0,0,0,0,0,0,0,0,0,0,0,
0,0,0,0,0,0,0,0,0,0,0,0,0,0,0,0,
0,0,0,0,174,0,0,0,0,0,0,0,0,0,0,0,
0,0,0,0,1171,0,0,0,0,0,0,0,0,0,0,0,
0,0,0,0,1171,0,0,0,0,0,0,0,0,0,0,0,
1174,0,0,0,1171,1171,1174,0,0,0,0,0,0,0,0,0,
0,0,0,0,0,0,0,0,0,0,0,0,0,0,0,0,
0,0,0,0,0,0,0,1174,0,0,0,0,0,0,0,0,
0,0,1174,0,0,0,0,1171,0,0,0,0,0,0,0,0,
1171,1171,1171,0,117,1171,1171,1171,0,0,0,0,0,0,0,0,
0,0,0,0,0,0,0,0,0,0,0,0,0,0,0,0,
0,0,0,0,0,267,0,0,0,0,0,0,0,0,0,0
</chunk>
   <chunk x="0" y="112" width="16" height="16">
0,0,0,0,0,0,0,0,0,0,0,0,0,0,0,0,
0,0,0,0,0,0,0,0,0,0,0,0,0,0,0,0,
0,0,0,0,0,0,0,0,0,0,0,0,0,0,0,1174,
1171,1171,1171,111,0,1171,1171,1171,111,0,1174,1171,1171,111,0,1171,
1171,0,0,0,0,1174,0,0,0,0,0,0,0,0,0,0,
1174,0,0,0,0,0,0,0,0,0,0,0,0,0,0,0,
0,0,0,0,0,0,0,0,0,0,0,0,0,0,0,0,
135,0,0,0,1171,1171,111,0,251,1171,1171,0,0,0,0,0,
1171,0,0,0,1171,0,0,0,0,0,1171,0,0,0,0,0,
1171,1171,111,0,95,0,0,0,0,0,111,0,0,0,0,0,
0,0,0,0,0,0,0,0,0,0,0,0,0,0,0,0,
117,1171,1171,0,1171,1171,133,0,0,1171,1171,254,0,0,0,0,
0,0,1171,0,1171,0,0,0,0,1171,0,0,0,0,0,0,
0,0,93,0,117,0,0,0,0,117,0,0,0,0,0,0,
0,0,0,0,0,0,0,0,0,0,0,0,0,0,0,0,
0,0,0,0,0,0,0,0,0,0,0,0,0,0,0,0
</chunk>
   <chunk x="16" y="112" width="16" height="16">
0,0,0,0,0,0,0,0,0,0,0,0,0,0,0,0,
0,0,0,0,1174,0,0,0,0,0,0,0,0,0,0,0,
0,0,0,0,1171,0,0,0,0,0,0,0,0,0,0,0,
1171,1171,111,0,1171,1171,1171,111,0,0,0,0,0,0,0,0,
0,0,0,0,0,0,0,0,0,0,0,0,0,0,0,0,
0,0,0,0,0,0,0,0,0,0,0,0,0,0,0,0,
0,0,0,0,0,0,0,0,0,0,0,0,0,0,0,0,
0,0,0,0,0,0,0,0,0,0,0,0,0,0,0,0,
0,0,0,0,0,0,0,0,0,0,0,0,0,0,0,0,
0,0,0,0,0,0,0,0,0,0,0,0,0,0,0,0,
0,0,0,0,0,0,0,0,0,0,0,0,0,0,0,0,
0,0,0,0,0,0,0,0,0,0,0,0,0,0,0,0,
0,0,0,0,0,0,0,0,0,0,0,0,0,0,0,0,
0,0,0,0,0,0,0,0,0,0,0,0,0,0,0,0,
0,0,0,0,0,0,0,0,0,0,0,0,0,0,0,0,
0,0,0,0,0,0,0,0,0,0,0,0,0,0,0,0
</chunk>
  </data>
 </layer>
 <layer id="2" name="output_ground" width="4" height="4" visible="0">
  <data encoding="csv">
   <chunk x="0" y="0" width="16" height="16">
0,0,494,0,0,494,0,0,0,0,494,0,0,0,0,494,
0,0,0,0,0,0,0,0,0,0,0,0,0,0,0,0,
0,0,0,0,0,0,0,0,0,0,0,0,0,0,0,0,
0,0,0,0,0,0,0,0,0,0,0,0,0,0,0,0,
0,0,0,0,0,0,0,0,0,0,0,0,0,0,0,0,
0,0,0,0,0,0,0,0,0,0,0,0,0,0,0,0,
0,0,0,0,0,0,0,0,0,0,0,0,0,0,0,0,
475,0,0,0,0,475,0,0,0,0,475,0,0,0,0,475,
0,0,0,0,0,0,0,0,0,0,0,0,0,0,0,0,
0,0,0,0,0,0,0,0,0,0,0,0,0,0,0,0,
0,0,0,0,0,0,0,0,0,0,0,0,0,0,0,0,
0,0,0,0,0,0,0,0,0,0,0,0,0,0,0,0,
0,0,0,0,0,0,0,0,0,0,0,0,0,0,0,0,
0,0,0,475,0,0,0,0,475,0,0,0,0,475,0,0,
0,0,0,0,0,0,0,0,0,0,0,0,0,0,0,0,
0,0,0,0,0,0,0,0,0,0,0,0,0,0,0,0
</chunk>
   <chunk x="16" y="0" width="16" height="16">
0,0,0,0,494,0,0,0,0,0,0,0,0,0,0,0,
0,0,0,0,0,0,0,0,0,0,0,0,0,0,0,0,
0,0,0,0,0,0,0,0,0,0,0,0,0,0,0,0,
0,0,0,0,0,0,0,0,0,0,0,0,0,0,0,0,
0,0,0,0,0,0,0,0,0,0,0,0,0,0,0,0,
0,0,0,0,0,0,0,0,0,0,0,0,0,0,0,0,
0,0,0,0,0,0,0,0,0,0,0,0,0,0,0,0,
0,0,0,0,475,0,0,0,0,0,0,0,0,0,0,0,
0,0,0,0,0,0,0,0,0,0,0,0,0,0,0,0,
0,0,0,0,0,0,0,0,0,0,0,0,0,0,0,0,
0,0,0,0,0,0,0,0,0,0,0,0,0,0,0,0,
0,0,0,0,0,0,0,0,0,0,0,0,0,0,0,0,
0,0,0,0,0,0,0,0,0,0,0,0,0,0,0,0,
0,0,475,0,0,0,0,475,0,0,0,0,0,0,0,0,
0,0,0,0,0,0,0,0,0,0,0,0,0,0,0,0,
0,0,0,0,0,0,0,0,0,0,0,0,0,0,0,0
</chunk>
   <chunk x="0" y="16" width="16" height="16">
0,0,0,0,0,0,0,0,0,0,0,0,0,0,0,0,
0,0,0,0,0,0,0,0,0,0,0,0,0,0,0,0,
0,0,0,0,0,0,0,0,0,0,0,0,0,0,0,0,
0,0,0,0,0,0,0,0,0,0,0,0,0,0,0,0,
0,0,494,0,0,494,0,0,0,0,494,0,0,0,0,494,
0,0,0,0,0,0,0,0,0,0,0,0,0,0,0,0,
0,0,0,0,0,0,0,0,0,0,0,0,0,0,0,0,
0,0,0,0,0,0,0,0,0,0,0,0,0,0,0,0,
0,0,0,511,0,0,0,0,511,0,0,0,0,511,0,0,
0,0,0,0,0,0,0,0,0,0,0,0,0,0,0,0,
0,0,0,0,0,0,0,0,0,0,0,0,0,0,0,0,
0,0,0,0,0,0,0,0,0,0,0,0,0,0,0,0,
0,0,532,0,0,532,0,0,0,0,532,0,0,0,0,532,
0,0,0,0,0,0,0,0,0,0,0,0,0,0,0,0,
0,0,0,0,0,0,0,0,0,0,0,0,0,0,0,0,
0,0,0,0,0,0,0,0,0,0,0,0,0,0,0,0
</chunk>
   <chunk x="16" y="16" width="16" height="16">
0,0,0,0,0,0,0,0,0,0,0,0,0,0,0,0,
0,0,0,0,0,0,0,0,0,0,0,0,0,0,0,0,
0,0,0,0,0,0,0,0,0,0,0,0,0,0,0,0,
0,0,0,0,0,0,0,0,0,0,0,0,0,0,0,0,
0,0,0,0,494,0,0,0,0,0,0,0,0,0,0,0,
0,0,0,0,0,0,0,0,0,0,0,0,0,0,0,0,
0,0,0,0,0,0,0,0,0,0,0,0,0,0,0,0,
0,0,0,0,0,0,0,0,0,0,0,0,0,0,0,0,
0,0,511,0,0,0,0,511,0,0,0,0,0,0,0,0,
0,0,0,0,0,0,0,0,0,0,0,0,0,0,0,0,
0,0,0,0,0,0,0,0,0,0,0,0,0,0,0,0,
0,0,0,0,0,0,0,0,0,0,0,0,0,0,0,0,
0,0,0,0,532,0,0,0,0,0,0,0,0,0,0,0,
0,0,0,0,0,0,0,0,0,0,0,0,0,0,0,0,
0,0,0,0,0,0,0,0,0,0,0,0,0,0,0,0,
0,0,0,0,0,0,0,0,0,0,0,0,0,0,0,0
</chunk>
   <chunk x="0" y="32" width="16" height="16">
0,0,0,0,0,0,0,0,0,0,0,0,0,0,0,0,
0,0,533,0,0,533,0,0,0,0,533,0,0,0,0,533,
0,0,0,0,0,0,0,0,0,0,0,0,0,0,0,0,
0,0,0,0,0,0,0,0,0,0,0,0,0,0,0,0,
0,0,0,0,0,0,0,0,0,0,0,0,0,0,0,0,
0,0,0,0,0,0,0,0,0,0,0,0,0,0,0,0,
0,0,535,0,0,535,0,0,0,0,535,0,0,0,0,535,
0,0,0,0,0,0,0,0,0,0,0,0,0,0,0,0,
0,0,0,0,0,0,0,0,0,0,0,0,0,0,0,0,
0,0,0,0,0,0,0,0,0,0,0,0,0,0,0,0,
0,0,0,0,0,0,0,0,0,0,0,0,0,0,0,0,
0,0,0,0,0,0,0,0,0,0,0,0,0,0,0,0,
0,0,0,0,0,0,0,0,0,0,0,0,0,0,0,0,
0,0,0,451,0,0,0,0,451,0,0,0,0,451,0,0,
0,0,0,0,0,0,0,0,0,0,0,0,0,0,0,0,
0,0,0,0,0,0,0,0,0,0,0,0,0,0,0,0
</chunk>
   <chunk x="16" y="32" width="16" height="16">
0,0,0,0,0,0,0,0,0,0,0,0,0,0,0,0,
0,0,0,0,533,0,0,0,0,0,0,0,0,0,0,0,
0,0,0,0,0,0,0,0,0,0,0,0,0,0,0,0,
0,0,0,0,0,0,0,0,0,0,0,0,0,0,0,0,
0,0,0,0,0,0,0,0,0,0,0,0,0,0,0,0,
0,0,0,0,0,0,0,0,0,0,0,0,0,0,0,0,
0,0,0,0,535,0,0,0,0,0,0,0,0,0,0,0,
0,0,0,0,0,0,0,0,0,0,0,0,0,0,0,0,
0,0,0,0,0,0,0,0,0,0,0,0,0,0,0,0,
0,0,0,0,0,0,0,0,0,0,0,0,0,0,0,0,
0,0,0,0,0,0,0,0,0,0,0,0,0,0,0,0,
0,0,0,0,0,0,0,0,0,0,0,0,0,0,0,0,
0,0,0,0,0,0,0,0,0,0,0,0,0,0,0,0,
0,0,451,0,0,0,0,451,0,0,0,0,0,0,0,0,
0,0,0,0,0,0,0,0,0,0,0,0,0,0,0,0,
0,0,0,0,0,0,0,0,0,0,0,0,0,0,0,0
</chunk>
   <chunk x="0" y="48" width="16" height="16">
0,0,0,0,0,0,0,0,0,0,0,0,0,0,0,0,
0,0,0,0,0,0,0,0,0,0,0,0,0,0,0,0,
0,0,0,0,0,0,0,0,0,0,0,0,0,0,0,0,
0,0,0,431,0,0,0,0,431,0,0,0,0,431,0,0,
0,0,0,0,0,0,0,0,0,0,0,0,0,0,0,0,
0,0,0,0,0,0,0,0,0,0,0,0,0,0,0,0,
0,0,0,0,0,0,0,0,0,0,0,0,0,0,0,0,
0,0,0,0,0,0,0,0,0,0,0,0,0,0,0,0,
0,0,0,0,0,0,0,0,0,0,0,0,0,0,0,0,
0,0,0,0,0,0,0,0,0,0,0,0,0,0,0,0,
0,0,412,0,0,412,0,0,0,0,412,0,0,0,0,412,
0,0,0,0,0,0,0,0,0,0,0,0,0,0,0,0,
0,0,0,0,0,0,0,0,0,0,0,0,0,0,0,0,
0,0,0,0,0,0,0,0,0,0,0,0,0,0,0,0,
0,0,0,0,0,0,0,0,0,0,0,0,0,0,0,0,
0,0,413,0,0,413,0,0,0,0,413,0,0,0,0,413
</chunk>
   <chunk x="16" y="48" width="16" height="16">
0,0,0,0,0,0,0,0,0,0,0,0,0,0,0,0,
0,0,0,0,0,0,0,0,0,0,0,0,0,0,0,0,
0,0,0,0,0,0,0,0,0,0,0,0,0,0,0,0,
0,0,431,0,0,0,0,431,0,0,0,0,0,0,0,0,
0,0,0,0,0,0,0,0,0,0,0,0,0,0,0,0,
0,0,0,0,0,0,0,0,0,0,0,0,0,0,0,0,
0,0,0,0,0,0,0,0,0,0,0,0,0,0,0,0,
0,0,0,0,0,0,0,0,0,0,0,0,0,0,0,0,
0,0,0,0,0,0,0,0,0,0,0,0,0,0,0,0,
0,0,0,0,0,0,0,0,0,0,0,0,0,0,0,0,
0,0,0,0,412,0,0,0,0,0,0,0,0,0,0,0,
0,0,0,0,0,0,0,0,0,0,0,0,0,0,0,0,
0,0,0,0,0,0,0,0,0,0,0,0,0,0,0,0,
0,0,0,0,0,0,0,0,0,0,0,0,0,0,0,0,
0,0,0,0,0,0,0,0,0,0,0,0,0,0,0,0,
0,0,0,0,413,0,0,0,0,0,0,0,0,0,0,0
</chunk>
   <chunk x="0" y="64" width="16" height="16">
0,0,0,0,0,0,0,0,0,0,0,0,0,0,0,0,
0,0,0,0,0,0,0,0,0,0,0,0,0,0,0,0,
0,0,0,0,0,0,0,0,0,0,0,0,0,0,0,0,
0,0,0,0,0,0,0,0,0,0,0,0,0,0,0,0,
0,0,415,0,0,415,0,0,0,0,415,0,0,0,0,415,
0,0,0,0,0,0,0,0,0,0,0,0,0,0,0,0,
0,0,0,0,0,0,0,0,0,0,0,0,0,0,0,0,
0,0,0,0,0,0,0,0,0,0,0,0,0,0,0,0,
0,0,0,0,0,0,0,0,0,0,0,0,0,0,0,0,
0,0,416,0,0,416,0,0,0,0,416,0,0,0,0,416,
0,0,0,0,0,0,0,0,0,0,0,0,0,0,0,0,
0,0,0,0,0,0,0,0,0,0,0,0,0,0,0,0,
0,0,0,0,0,0,0,0,0,0,0,0,0,0,0,0,
437,0,0,0,0,437,0,0,0,0,437,0,0,0,0,437,
0,0,0,0,0,0,0,0,0,0,0,0,0,0,0,0,
0,0,0,0,0,0,0,0,0,0,0,0,0,0,0,0
</chunk>
   <chunk x="16" y="64" width="16" height="16">
0,0,0,0,0,0,0,0,0,0,0,0,0,0,0,0,
0,0,0,0,0,0,0,0,0,0,0,0,0,0,0,0,
0,0,0,0,0,0,0,0,0,0,0,0,0,0,0,0,
0,0,0,0,0,0,0,0,0,0,0,0,0,0,0,0,
0,0,0,0,415,0,0,0,0,0,0,0,0,0,0,0,
0,0,0,0,0,0,0,0,0,0,0,0,0,0,0,0,
0,0,0,0,0,0,0,0,0,0,0,0,0,0,0,0,
0,0,0,0,0,0,0,0,0,0,0,0,0,0,0,0,
0,0,0,0,0,0,0,0,0,0,0,0,0,0,0,0,
0,0,0,0,416,0,0,0,0,0,0,0,0,0,0,0,
0,0,0,0,0,0,0,0,0,0,0,0,0,0,0,0,
0,0,0,0,0,0,0,0,0,0,0,0,0,0,0,0,
0,0,0,0,0,0,0,0,0,0,0,0,0,0,0,0,
0,0,0,0,437,0,0,0,0,0,0,0,0,0,0,0,
0,0,0,0,0,0,0,0,0,0,0,0,0,0,0,0,
0,0,0,0,0,0,0,0,0,0,0,0,0,0,0,0
</chunk>
   <chunk x="0" y="80" width="16" height="16">
0,0,0,0,0,0,0,0,0,0,0,0,0,0,0,0,
0,0,0,0,0,0,0,0,0,0,0,0,0,0,0,0,
0,0,0,0,0,0,0,0,0,0,0,0,0,0,0,0,
457,0,0,0,0,457,0,0,0,0,457,0,0,0,0,457,
0,0,0,0,0,0,0,0,0,0,0,0,0,0,0,0,
0,0,0,0,0,0,0,0,0,0,0,0,0,0,0,0,
0,0,0,0,0,0,0,0,0,0,0,0,0,0,0,0,
0,0,0,0,0,0,0,0,0,0,0,0,0,0,0,0,
0,0,0,0,0,0,0,0,0,0,0,0,0,0,0,0,
497,0,0,0,0,497,0,0,0,0,497,0,0,0,0,497,
0,0,0,0,0,0,0,0,0,0,0,0,0,0,0,0,
0,0,0,0,0,0,0,0,0,0,0,0,0,0,0,0,
0,0,0,0,0,0,0,0,0,0,0,0,0,0,0,0,
0,0,0,0,0,0,0,0,0,0,0,0,0,0,0,0,
0,0,0,0,0,0,0,0,0,0,0,0,0,0,0,0,
517,0,0,0,0,517,0,0,0,0,517,0,0,0,0,517
</chunk>
   <chunk x="16" y="80" width="16" height="16">
0,0,0,0,0,0,0,0,0,0,0,0,0,0,0,0,
0,0,0,0,0,0,0,0,0,0,0,0,0,0,0,0,
0,0,0,0,0,0,0,0,0,0,0,0,0,0,0,0,
0,0,0,0,457,0,0,0,0,0,0,0,0,0,0,0,
0,0,0,0,0,0,0,0,0,0,0,0,0,0,0,0,
0,0,0,0,0,0,0,0,0,0,0,0,0,0,0,0,
0,0,0,0,0,0,0,0,0,0,0,0,0,0,0,0,
0,0,0,0,0,0,0,0,0,0,0,0,0,0,0,0,
0,0,0,0,0,0,0,0,0,0,0,0,0,0,0,0,
0,0,0,0,497,0,0,0,0,0,0,0,0,0,0,0,
0,0,0,0,0,0,0,0,0,0,0,0,0,0,0,0,
0,0,0,0,0,0,0,0,0,0,0,0,0,0,0,0,
0,0,0,0,0,0,0,0,0,0,0,0,0,0,0,0,
0,0,0,0,0,0,0,0,0,0,0,0,0,0,0,0,
0,0,0,0,0,0,0,0,0,0,0,0,0,0,0,0,
0,0,0,0,517,0,0,0,0,0,0,0,0,0,0,0
</chunk>
   <chunk x="0" y="96" width="16" height="16">
0,0,0,0,0,0,0,0,0,0,0,0,0,0,0,0,
0,0,0,0,0,0,0,0,0,0,0,0,0,0,0,0,
0,0,0,0,0,0,0,0,0,0,0,0,0,0,0,0,
0,0,0,0,0,0,0,0,0,0,0,0,0,0,0,0,
414,0,0,0,0,0,0,0,0,0,0,0,0,0,0,0,
0,0,0,0,0,0,0,0,0,0,0,0,0,0,0,0,
0,0,454,0,0,454,0,0,0,0,454,0,0,0,0,454,
0,0,0,0,0,0,0,0,0,0,0,0,0,0,0,0,
0,0,0,0,0,0,0,0,0,0,0,0,0,0,0,0,
0,0,0,0,0,0,0,0,0,0,0,0,0,0,0,0,
0,0,0,0,0,0,0,0,0,0,0,0,0,0,0,0,
0,0,0,0,0,0,0,0,0,0,0,0,0,0,0,0,
0,0,0,0,0,0,0,0,0,0,0,0,0,0,0,0,
473,0,0,0,0,473,0,0,0,0,473,0,0,0,0,473,
0,0,0,0,0,0,0,0,0,0,0,0,0,0,0,0,
0,0,0,0,0,0,0,0,0,0,0,0,0,0,0,0
</chunk>
   <chunk x="16" y="96" width="16" height="16">
0,0,0,0,0,0,0,0,0,0,0,0,0,0,0,0,
0,0,0,0,0,0,0,0,0,0,0,0,0,0,0,0,
0,0,0,0,0,0,0,0,0,0,0,0,0,0,0,0,
0,0,0,0,0,0,0,0,0,0,0,0,0,0,0,0,
0,0,0,0,0,0,0,0,0,0,0,0,0,0,0,0,
0,0,0,0,0,0,0,0,0,0,0,0,0,0,0,0,
0,0,0,0,454,0,0,0,0,0,0,0,0,0,0,0,
0,0,0,0,0,0,0,0,0,0,0,0,0,0,0,0,
0,0,0,0,0,0,0,0,0,0,0,0,0,0,0,0,
0,0,0,0,0,0,0,0,0,0,0,0,0,0,0,0,
0,0,0,0,0,0,0,0,0,0,0,0,0,0,0,0,
0,0,0,0,0,0,0,0,0,0,0,0,0,0,0,0,
0,0,0,0,0,0,0,0,0,0,0,0,0,0,0,0,
0,0,0,0,473,0,0,0,0,0,0,0,0,0,0,0,
0,0,0,0,0,0,0,0,0,0,0,0,0,0,0,0,
0,0,0,0,0,0,0,0,0,0,0,0,0,0,0,0
</chunk>
   <chunk x="0" y="112" width="16" height="16">
0,0,0,0,0,0,0,0,0,0,0,0,0,0,0,0,
0,0,0,0,0,0,0,0,0,0,0,0,0,0,0,0,
0,0,0,0,0,0,0,0,0,0,0,0,0,0,0,0,
0,0,0,475,0,0,0,0,475,0,0,0,0,475,0,0,
0,0,0,0,0,0,0,0,0,0,0,0,0,0,0,0,
0,0,0,0,0,0,0,0,0,0,0,0,0,0,0,0,
0,0,0,0,0,0,0,0,0,0,0,0,0,0,0,0,
0,0,0,0,0,0,475,0,0,0,0,0,0,0,0,0,
0,0,0,0,0,0,0,0,0,0,0,0,0,0,0,0,
0,0,475,0,0,0,0,0,0,0,475,0,0,0,0,0,
0,0,0,0,0,0,0,0,0,0,0,0,0,0,0,0,
473,0,0,0,0,0,0,0,0,0,0,0,0,0,0,0,
0,0,0,0,0,0,0,0,0,0,0,0,0,0,0,0,
0,0,0,0,473,0,0,0,0,473,0,0,0,0,0,0,
0,0,0,0,0,0,0,0,0,0,0,0,0,0,0,0,
0,0,0,0,0,0,0,0,0,0,0,0,0,0,0,0
</chunk>
   <chunk x="16" y="112" width="16" height="16">
0,0,0,0,0,0,0,0,0,0,0,0,0,0,0,0,
0,0,0,0,0,0,0,0,0,0,0,0,0,0,0,0,
0,0,0,0,0,0,0,0,0,0,0,0,0,0,0,0,
0,0,475,0,0,0,0,475,0,0,0,0,0,0,0,0,
0,0,0,0,0,0,0,0,0,0,0,0,0,0,0,0,
0,0,0,0,0,0,0,0,0,0,0,0,0,0,0,0,
0,0,0,0,0,0,0,0,0,0,0,0,0,0,0,0,
0,0,0,0,0,0,0,0,0,0,0,0,0,0,0,0,
0,0,0,0,0,0,0,0,0,0,0,0,0,0,0,0,
0,0,0,0,0,0,0,0,0,0,0,0,0,0,0,0,
0,0,0,0,0,0,0,0,0,0,0,0,0,0,0,0,
0,0,0,0,0,0,0,0,0,0,0,0,0,0,0,0,
0,0,0,0,0,0,0,0,0,0,0,0,0,0,0,0,
0,0,0,0,0,0,0,0,0,0,0,0,0,0,0,0,
0,0,0,0,0,0,0,0,0,0,0,0,0,0,0,0,
0,0,0,0,0,0,0,0,0,0,0,0,0,0,0,0
</chunk>
  </data>
 </layer>
</map>
